/* XPM */
static char *_ec288bf649640f8a9c984580829324e[] = {
/* columns rows colors chars-per-pixel */
"512 510 64 1 ",
"  c gray1",
". c #070707",
"X c #0B0B0B",
"o c #0E0E0E",
"O c #111111",
"+ c gray9",
"@ c #191919",
"# c gray11",
"$ c #232323",
"% c gray14",
"& c #282828",
"* c #2D2D2D",
"= c #323232",
"- c gray21",
"; c gray22",
": c #3C3C3C",
"> c gray25",
", c gray28",
"< c #484848",
"1 c #4E4E4E",
"2 c gray32",
"3 c gray34",
"4 c #5B5B5B",
"5 c #5D5D5D",
"6 c gray39",
"7 c #676767",
"8 c #6A6A6A",
"9 c gray43",
"0 c gray45",
"q c #767676",
"w c #7B7B7B",
"e c #7C7C7C",
"r c #808080",
"t c #848484",
"y c gray54",
"u c #8E8E8E",
"i c #939393",
"p c #959595",
"a c gray60",
"s c gray62",
"d c gray63",
"f c #A7A7A7",
"g c #A9A9A9",
"h c #ACACAC",
"j c gray69",
"k c gray71",
"l c gray72",
"z c gray",
"x c #C3C3C3",
"c c #C6C6C6",
"v c #CBCBCB",
"b c gray81",
"n c LightGray",
"m c gray84",
"M c #DADADA",
"N c #DDDDDD",
"B c gray89",
"V c #E6E6E6",
"C c #E9E9E9",
"Z c #ECECEC",
"A c gray94",
"S c #F4F4F4",
"D c #F8F8F8",
"F c gray99",
/* pixels */
"fNMmnmNBBBNMmMNVVBNMNNBBBBBBBBNMmnmmMMNBBBBVCZZZCVBBBVZASDAZVBBVCCZAAACVNBCZSDSAVNmnnnnmNBBNnnnnmmmnvxzzxbMBVVVVVVVCZASSSAAAAAAAAZVNMmnnnmMNBVZASDDSAZVNmbcvMBZACVMmMNVVCCVVVVVVVCCZZASSSSSDDDSAZCZZAAACBMmmNVZAAAASSSSZVNMmMNVZAACBmbvvbmBVVBNMNBVZASSSAACBMnbnmmMNNBCZCBmnnmBVBMvxzxbnmMMNNVCZZCVBVVVBNNBBVCZZAZCBmbxllxnNVZZZCCZZAZCBNNNBBBBVVCCCZCVNnbnmNVCAAZCNmnMNCZAZVNnmNCADDDSAZVMnbbnMBVVVVBNNBVVVVCZASSAZCCZASAVMnnMNBVBBBVBBVVCVVBBBBVZASSSAZVNMNBCZCBMmMMNNBVCCAASSAZCCCCVBMMNBNmnnMBCCVBNBCZZZVNnczlzcbnnmNVCZAZZj",
"fMmmmmMNNNNNNNVVVBMmMMNBNNNNNNMMmmMNNBBVVVCCCCVBNNNNBCZSSSACNMMNBVCZASAZCCZSDDSACBmnnmmNBVBNmnmMNBBNMmnnmMBVCCCCCCVVZASSAASAAAAZZCBMnbvbnMNBVCZASSSSAZVBNmnmBCAACVNMMNBVVVBNMmmmmMBVCZASSSSSDSAZVVVCZAZCBMmmNBCZZZAAAAAZCBMMMNBCAAACBNMMNBCCCVBBBBBVCASSSACVNMmnmmmMNBCZZCBNNNVVVBMnbbnmmmnmMNVVBNmnmMMMMmMMNNBVCCVBNmbvcvnNBCZZCCCZZCVVBBVVVCCCCCCCZZCBNMmMNBCZAZCVNMMNVCZZVNMMBZSDDSAZVNmbbbnmMNBBNNMMNNNNMNVCZZCCVVZZAZBmbbmNBBBBVCCCZCCCVBNNNBCASDDSAZVBBVCZVBMmMNNBVCCZZAZZVVBBVVBMmmMNNMmmNBVVBNNBVCZCBMnvcxcvbnnnMNVCCCVg",
"dmmmmmMNMNNNBVCCVNmnmMNBNNNNNMMmmmNBBVVVCCCCVBNMMMMNVCZASAZVNmmmMNVZASSAZZASDDDSZVMmmmMNBBBBMMMNVCCCVBBNBBVCZZZZCCVVCZAAAAAAZCCCCVBNnbbbmNBVCZAASSSSAZCVBNMNVZAZCBNMMNNNNNMmnbvvvbmNBCZAAAASSSAZBNNBCZZCBNmmMNVCCCCZZZZCVBNMMMBCZAAZCVBBVCCCCVBBBBBBCZASAAZCBNMMMMMMNVCAAZCVBBVVVVBNMmmmnnnnmMNNMnvcvbnmmmmmmMNNBBNNNMMmnnmNVCCZCCCCZZCCCCCCCCZZZZZCCCCVBNNNBVCZZZZCBBNNVCZCVNMNVZSSSAZCVNmnbbnmmmMMmmnnmMMMmMNVCCVBNBCZZCNmbbmNBVBVCZZZZZZCVBNMMNVZSDDDSACVVVCCVBMmMNBVVCCZZZCBNMMNBBMmnnMNNNNNNBBBNNBBCCCVNMmnbbbnnnbnnMNBBNMd",
"snmmMMMMMMNNBVCCVNnbnMNBBBBBNMmnmmNNBVVCCZCCBNmmmMNBVCZASSZCNmnnnMBZASSAZZASDDDSZVNMMMNNBBVVBBVVZZAZZCCCCCZZAAAZZCVVCCZZAAAZVVBBBBVBMmmmMBVCZAAASSSSSAZCVBNNVZZZVBNMMmmnnnbvcxzzzcbmNBCZZCCZAAAZVBNBCZZCVNMMmMNBVVVVCCVVVVNNMMBVZAAZCVVVCCCVBBBBBBVVZAASSAZCBBBBBBNNBVZAAAZCVBBBBBBBBNMmnnnnmMNMnvzlxcbnmmmmmmMMMMMMMNNNMMNBCZZZZZZZZAZZZZCCCCZAAAZCCVVVBBNBBVZAAZZCVBBBCCZCBNMNCZSSAZCCVBNmnbbnnnnbbvvvnmMMMMNBVBNMMMBCCVNmbnMBVVVVCZAAAAZZCVNMMNVZSDDDSSZCBBCCVBNMNNBVVCCCCVNmbvbnMNmnbnMBVCVVVVBBBBVVCCCBNMMMMMMMmnvvbnmMmnbp",
"smmMNNNMMMNBBVCCVNmnmMBVVVBBNmnnnmMNNBVCZZCVMmnnmMBVVCZASSACBMnbnmBZAAAZCCZASSDSACBNMNNBBBVCCCZZAAASAAZZZZZAAAZZCVVVVVVCCZCCBNNNNBVVBNNNBBVCZASSSSSSSSAZVBMNVCZCVBNMMmbvvcxzzllllzvnMBVCVVBBCZZZCVBBCCCCVBNNMMNBBBBBVBBBVVBBNNBVCZZCBBNBCCCVNMNNBBVCZAASAACVBBVVCVVVVCZAAZZCVBNNNBVVVBNmmnmmMNNMnvzlzcbmMMNMmmMMMMmMNBVVVBVVCZZZZZZZAAAAZCVBBVCZAAZCVBBVVVBBVCZAAZCCVVVVCZCVMmMNCZAAZCCCCVBNmnbbbbvvvcccbmMNNNNNBBNMmMBCCCNMmMBVCCVVCZZAAZZZCVBNNBCZASDDDSZCVBVCCVBNBBBBVCCCCVMnccvbMMmmnmNVCZZCCVVVVVCCCVVNMMMNNBBNmbcccvnnnvxu",
"dMNNNNMMMMNBVCZZVBMMMBVVVVVBMmbbbnmMMNVCZZCBmbbnMBVCCCZASSACBMnnmMVZAZCVBVCZASSSACVBNNBBVVCZZAAAAAAAAAAAZZZAAZCVBBBBBBNBVVCVBNMNBVCCCVVBVVCZASSDDDDDDDSAVNmmNVCCVVBBMmbccxzllllzzxbmNBVVVNMMNVCZCCVVCCCVVVVVBBBBBVBBBBBBVCCVVBBBVCVBMmmMBVVBMmmMNBCZAASSAZVNMNVCZZCCCCZZCCCVVBNNNNBVVVBMmmmMNBBNMbxxcvmMBVBBNMNNNNMNBVCZZCZZZAAAAZAASSSAZVNmmMBCZZZCBNBBVVVCCZAAAZCVVVCCZZVNmnmMVCZZCCCCZZCBMmnnnbvccccvbnMNNBBBVVBNMNVCZZVBBVCZZCVVVCCZZZZZCCVVVVCZASDDDSACVVCCCCVVVVBVVCCZCVMncxvnMNNMmMBVCZZZCCVVCCCCVBNNmmMNBBBMncxzxcbbvczy",
"fNBBBBNMMMNVCZAZCVNNBBVCCCCVNmbbbnnmMNVZZZVNnvvnNVCZZZZASSAZVNmmMBCZZCBNNBVZZAAAZZCVBBBVVVCZAAAAAAAAAAAAZAAAZCVBNNNNNMmMNBVVNMMNBVCCCVVVVCCZASSDDSSSSDSACBmmMBVVVVVBNmbccxzlzzxxcvnMBVCCBNmmMNVCCCCCCVBBBVCCCVVVBBBNNNNBVCZZCVBBBBBNmnnmBVVBmnnmNBCZASSSACBMmMVCZAZCCCCVVVVVVVBNNNBVVVBNMmmMNBVBNmbvvnMNVCCVBBBBVVBBVCZAAAAAAZZZZZAAAAAZVNnvvbMBVCVVNNBVVCCCCZZZZZVVVVCZZCBMnnmMVCCVVVCZAACVNmmmmnbvvvvbbnMNBVVVCCCVBBCZZZCVVCZAZZVVVCCZZZZZCCCCCCZZASSDDSAZVVVVCCVVVVVVVVCZZCNmvcvnMBBNNNBVCCCCCCCCZZZCVBMmnnmMNNNmbczlxcvbvcxu",
"gBVVVVNMMNBCZASAZCBBBVCCZZZCBMnbbbnmMBCZZZVMbvvnNCZAAAASDSAZVBNMNVZZCBMmMNVCZZZZZZCCCCVVVVCCZAAAAAZZZZAAAAAAZCNMmmMMmmnnMNBBNMMNBVVVBBBBVVCZASSSSAAASSSACBMmMNBVVVVBNMnbvvcxccvbnmNBCCCCVNMmmMBBVVVVVNMMNBCZZZCVVBNMmmMNVCZZCVNNNNNNmnmMBVVBMmmmNBCZAASSZCNmmMBCZZCCVBBBBBVCZCCBNNNBBBNMmnnmMNBVBNmmmmNBCZZCCCCCZZCCZASSSSSAZCCCCZZZZCCBMbxlzcnMNBBBNNBVVCCZZCCCZCCVVVCCCVNmmmMBVVBBBVCZAZCVBMmmMmmnmmmmmmMNBVCZAAAZZZAAAZCVVCAAAACCCCCZZZZZCCCZZZZZZASDDDAZVBBBVCCCCCVVBVCZAZVNmbnmMBBVBBBVBBBBBVCZZAZCVNmbvvbnMMMncxzlxcbbnnns",
"gVCCCVBNMNVZASSAZVBBBVCCZZZCVNmbnnmMNBCZZCBMbvbmBZASSSDDSSAZVBNBVCZZVNnbmNVCCCCZZZZZZZCVBBVVCAAAAAZCCCZAAASAZVNMnnmmnbbbmMNNMMMNNBBNNNNNBVVCZZAAZCVCZZAAZVNMMNBVVVVBNMmnnnbbbbnmMNBVCZZCVNMmmMNBBBVBNMnnmNVCCCCVBMmnnnmNVCZAZVBNNNNNMMMNVVCVNMmmNVCZASSSZCNMmMBVVVBBNNMMNBVZAAZCBNNNNNNMmnnnmMBBVBNMmmNBCZZZZZZZAAZZAASDDDSAZCVVCCCCVBNmbclklxvnmMMMNNBVVCCZCCVVCCCCVVCCVBMmMMBBVBNNNBCZZZCBNMmmMMMMNNNNMMNBVCZASSSSAASSAZVBBVZASAZZZZZZAAAZCZZAAAZCCZASDDAZVNMMNVCZZCVVBBCZAAZVNmmMNBVVVBBBNNNNNBCZAAZCBMnvccvnMNMnvxxxcvnmmMNg",
"fBCZZCBNNNCZSSSACVNMNNVCZZZZVNmmmMMNNBVVVVNmbbnMVASDDDDSSACCVBBBVCZCBMbbmNVCVVCCZZZZAZCVNNNBCZAAAAZCVCCZASSAZVBMmmmmnbvvnMNNMMMMMMMMMMMMNNBBBVVVVBNNBCZAACVNNNBVCVBNmmmMMMMMmmmMNBVCCZCCBNNNNNBBBBBNMmbbnmNBBBBNmmbbbnmNBVZZZCBBBBBBBBBVCZZCBNMMBVZZASSSACBNMMNNMMMmmmmmMNVZSSAZVNMMMNNNNMmnmmNNBNNMnnmNVCZZZZZZAAAAASSDDSSAZVVBVVVVNMnvcxlkzxcbnnmmMNBVVVCCVBNNBVCCVVVBBNMmMNVVBNMMMNVCCVBNMmnnmMNBBVVVBBVCZASSDDDDDDDSACNMNBCASSAAAAAAASAAZZAAAACCVCZASSACNmnnmNVCCCVBBBCZSSAZVNNNBBVVBBNNNNNNNBCZAAZCBMbvcvnMBBNMnbbbnnmMNBCj",
"fBVCZCVBNBCASSAZVBMmMNVCZZZCVBMMMMNNMNNNNMmnbbmNCASDFFDDAZVBBBVVCZZCNmvvnNVVVVCZZZAAAZCVNNNVCZZAAAZCCCCZASAACVBNMMMmnbvvnmMNNNNNMMMNNNMMMNNMMMNNMMmMNVZAAZCVBBVCCVBMmmMNBBBBNMMMNBVVCCCVBBNNBBVVVBNMmnbbnmMNNMmnnbvvvbmNBVCZCCVBBNBBBVVCZZZCBMmmNVCZASSSACVNMmmmbbbbnnnmMNCASDSAVNMmmMNBBNNMmmMNNNMMnnmMVCCCCCCZZAAAASSDSSSAZVBBVVVBMnvcccxxccvvvbbnMBVCCCCVBNMMBVCCVVVBBNMMNBCCVBMMMNNBBBNMmbbbmMNBVVVVVVCZASSSSDDDDDDSACNMMBCASSSAAAAASSSSAASSAZCVVVCZZZZCNmnnmNVCCVVBBVCZSSSACVBBBVVVBNMMMMNNNNVZAAZVBMnbbnMBCCVBMmMMMMNNBVZj",
"fBVCCCVBBVZASAZCBMmmmMBCCCVBBBNNNNMMmnmmnnbbbnMBCADDFFDSACBNNBVCCZCVNmvvnMBVVCZZAAAAAZZZVVVCAAAAAAZZCCZZASAAZCVVBNNMmnbbnnMMNBBBNNBBBVBNNMMmnnnmmmmmNBCZAAZCVVCCCVBNMMNNBVVVBNMMNNNBBVVVBBBBBVVCCVBMmnnmmMMMmnvvvccccbmNVCCCCVVBNMNNBBVVCZZCNmnmMBCZASSSAZVNmnbvxxxcvbnmMNCASDSACBMmMMBVVVVBNMMMMMMMmmmNVCCVBBVCZZZZASSSSSAAZCVVVCVBMnvvbnnnnnbvcccbmBCZZCCVNMmMBVCCCVVVVBNNBVCCVBNNMMMMMMMmbvvvnmMNBBBBVCZASSSASSSSSSSSACBNNBCAAAAAAAASSSDSSSSAAZCVVVVVVVVVBNMMNVCCVVBBBVCASSSACVVBVVCCVBMMMMMNNBVCZZCVNMmmMNVZAAZZVVVVVVVVVCZj",
"gBVVCCVVVCASSAZCBNmmMNVCCVNNNBBBNNMmbbbbbbvbbnMBCASDFFDDACVBBBVCCCCBNmvvbmNBVCCZAAAAAAAAZZZAASAAZZZZZZZAAAAZCCCVVBBNMMmmnnmMNBVBBBBVCCCVBNmnbbbbnnmMNBCZAAZCVVVCCVVBBNBBVVCVBBNNNNNNNBBVBBBBBVCCCCBNMMMNNNNMnbcxxccccbmNVCCCCVVNMMMMNBBVCCCVMmnnMBVZASSSAZVNmbvczzxcbnmMMNVCASSACBMmMMNBVCCVNMMMMMMMMMNBVCVVBBBVCCCCZZAAAAAZZCCVCCVBMnbnmMNNNNmbcxxvmBCZZZCBMmmMBCZZZZCCCVBBBVCCCCVBNMmnnnnnbvccvnmMNNNNBVZASSAAZZZAAAAAZCVBVVZZZZZZZAAASDDDDSAAZCVVBBNNMNBBBBBBVVVVBBNBBVCZAAAZCCVVVCCCVBNMMMMMNNVCCCVBNMMMBVZSDDSAZZZZCCCCCCCh",
"hVVVVVVVVCASSSAZCBNNNBCCCBMMNBBBBNmnvvvvvbnnmMNBVZADDFFDSZCVVVCCCCVBNmbvbnMNBBCZZAASSSSSAAASSSAZCCZZAAAAAAZCCCVVBBBBBBBNMmmmNBVVBBVCZZZZVBmnbvvbbmMBVCCZZZCVBBBVVVCCVVBBBVCCVVBBBBNMMNBVVVBBBBVCZZCVVVVVVVVNmbcxxxcccbmBCZZZCVBNMmmMNBBVVVVNmnbnMNVZASDSAZVMnbbvcxcbnMNNNBBVCZAZCBMMMMNNBVVBNMMMMNNNNBVVCCCVBBVVCVBBVCZAAAAZCCCCCCCVNMMMNVCCCVNmvxxvmBCAAZCBMmmNVCAAAAAZCVBBBVCZZZZCBMnbvvbbvcxxcvnmMMMMNBCZAAZCVVVVCCZZZCCCCCZZZCVCCZZAASDDDSACVBBNNNMmnnmNVVVCCCVBNMMNBVCCZZZZZCCCCCCVVBBNMMMMMNBVVVVBBNNBCZSSDDSSAAZZCCCCCCVg",
"hVVVVBBBVCASSDSAZCVBVVZZCBmmMNBBNNmnvcvvbbmMNNNBVCASDFDDSAZZCCCCVVBBBMmnbnmMNBVCZAASDDDDSSSSSAZCVVCCAAAAAAZCCVVVBBBVCCCVNMmmMBVVBBVCZAAACBMnbvvvbmNVCCCCCCVBNNBVVCCZZCVVBVCCCCVVVBNMMNBVVVBBBVVCZZZZZCCCCVVBNmvcccvvbnMVCZAZZCBNMmMMNBBBBBNMnbbnMBCZSSSSACBMnbbbbbnmMNBBBNMNNVCZCVBNNMMMNNBBNMMNNBBBBVCZZZCVVVCCVBNNNBCZZAAZZCCCCCVVBBNBVCZAAZVNnccbmBCZZZCBMmMNVZASSSAAZVBBVVZAAAAZVNnbvvvvvcxxxvnmmmmmNBCZZZCVBBBBBVVCCCCCCCZCCVBBVVVCZASDDSZVNMMMMMmnvvnMVCCCCVBNMMNBVVVVVVCCCZZCCCVVCCVBNNNNNNBVBBBBBBBVZASDDSSAAZZCCVCCCCVg",
"hVVBBNNNBVZASDDSSAZCCZAZCBMmMMNNNMmnvcvvnmMNBBBBVCASDFDDSSAAZZCVVBBBBBNMmmmmMNBVCZASDDDDSAAAAZCVBNBVCZZAAZCCCVVBBBVCZZZZVNmmMNBBNNBVCZAACBMnbbvbnmBCZZCCVVBBBBVVCCZZZZCVVVCCCCCVVBNMMNBVVBBBVVCZZAZZAAZZCCCCVNmnnnnmmMBCZAAAZCVBNNBBBBNNMMMmnbbnNVZAASSAZVNmnnnmmMBBVVVBNMnnmMVCCCVBBNMMMMNNMNNBBBBBBVCZZZCCCCZCVNMmmMBVCCZAZZZCVBVVVVVCZZAASAZVMmnmMBVCZZZVNMMMBCASDDSAZCVBVVCZASSACBmnbvvvvvcxcvbnnnnmNBVCZZZCBBNNBBBVVVVCCCCVVBNNBBNBVZASSSZVNmmmmmmnbbmMBCCCVVNNNNBVCCVBNNBVCZZZCCVCCZZCCVVBBBBBNMMMNBBVZASSAAAZZCCVBBVCCCCh",
"hVBBNMmMNVZAASSDDSAAZZAZCBMmmmmmMMmnvcvbnmMMNBBBBVZSDDDSSSAAAZZCVBBBVBBNMMMMMNBVCZSDDDDDAAAZZCVBNNNBVVCCZZCCCCVBBBVCZAAZCNmnmMNNNNNBVCZZCBMnnbbbnMBCZZCVVVBBBVVCCZZAAZZCCCZZCCVVVVBNNNBBBBBBCCZZZZZZAAAZCCZZZCBNNNNNBVCZAAAAZCVBVVCCVVNMmmmnnnnmNVZZZZZCVBMmnnMNBVCZCCVBNMnbbmBVCCCVVBNNMMNNNNBVCCVBBBCCZZCCCZZCBNmnmmMNNVCZAAZCVBBBVVCZAAAAAAZCBNNNNNBVCZZCBNMMNVZSSDSAZCCVVVCZASSSZVMmnnnnnbvvvvbbbnnMNBVCZZZCVBNNBBNNNNBBVVVVBNNNNNMMBVZSSSZVNMMMMMMmbbnMNBVVVVBBBVCZZZVBMMNBVCZZCVVCZAAAZZCVVBNMmnnmNBBVZAAAZZZZZCVBBBVCCZCj",
"hBNMmmmMBVCZZASSDDAAZCCCCVNmnbbbmMMnvccvnnnnmMNNNBCASDSSAZAAAAZCCVBBBBBNNMMNNBVCZZSDDDDSAZZZCCBNMMMNNNBVCZZZZCCVBBBVCZAZVNnbnmMMMNNBBVVVVBMmnnbbnMBVCCCVVVVVVCCCCCZZZZZZZZZZCVVVVVBBNNNNNNNBCZAZCCCCZAAAZZZAAZCVVVVCCCZZAAAZCVBVCCZZZCBNmnnnmmmNBVCCCVVBBNmmmmMBVCZAZCBBNMmnnmNVCCVVVVVVBBBBBBVCZZCVBBBVCCCCCCCVNMmmmmmmmNVZAAAZVBBBBVZZAZCCZZZZCVVBNNNBCZZZVNMmMBCASSSAAZZZCCCZASSSACBNNMMMMmnnbbnnnnmMBVVCCZZCVBBBBBMmnnMNNBBBBBNNNMMMMBZASSAZVBBBBBBMnnnmMNNBVCVCCZAAAZCBMMMNVCCCVVVCZSSSSAZCVBMnvcvbMNBVCZZZZCZZCCVBBBVCZZAk",
"gBMmnnnMBVCZZZASSSACVVBVVBNMnbvbmMMmbvbbnnbbnmMMMNVZSSAZCZAASSAZCVVBBNNMMMMNBVCCZZASDDDSZCCCCVBNMMNNMMMNVCZZZCCVBBNBVZAZVNnbnnmMMNNNNNNNNMmnnnnnmMBVVVVVBBBVCCCVVVVCCZZAZZZCVVBBVCCVBBNNMNNBCAAZCVVVZZAZZZZAAAZCCCZZZZZZAAAZCVBBCZZAZCVNMmmmMNNBVCVBNNMMMMmmMMNBVCZAZCBBNNMmmMNBBVBBVVCCCCVBBBCZAAZCBNNBVVVCCCVBNMMMNMmmmMVZASAZCVBBVCZAZCVBVVCZZCCVNNNBCZZZVBMMMNVZASSAAAAAZZZZASSAZCVBBNBBBNMmnnnmmmMNVVCCCCCCVVVVBNmbvvnMNNBBBBBNNMmmMBCASDSAZCCCCCVNmnnnmmMNVCCZASSSSACVNMMNBVVVVVVCASSDSSACVNmvcxcbMBVVCZZZCCZZZCVVVVCCZASl",
"gNMnnnnMBVCCCCAAAZCBMMMMNNNMnbbnMNNMmmmmnbvbnmMMMNVZAACCVCZASSSAZCVBNMmnnnmMBVCCZZASDDSAVBBBCCVVBBBBNMmMBVCCCCCCBNMMBCZZVMnbnmMNNNNNMMMmmnnbbbnmMNBVBBBNNNNBVVVBNNBVVCZAAZCVBBNBVCZCCVBNNNBVZAZCVBBVCZZZCCZZZZCVVCZZZZZZZZZCVNNBVCZZZCVBNNNNBVVCCCBNmnnnmMNNBBNNBVCCCCVBVBBBNNNNNNNNBVZAAZCVBBCZASAZVBNNBVCCCVBNMMNBVVBNNBVZASAZCVBBVCZZZVNMMNBVVVVBNMNBCZZZVBNNMNVCAASSSSSSSAAAAAAZCVBBBBVVCVBNMmmMNNBVVCCCVVCVVVVVBMbcxcbmNBBBBBBNMmmmNVCASDDSSAAAAZCBmnnnnnnMBVCZASDSSAZCNMMMNBVVBBVCZASSSAZCBMbczxvmBVCCCCZZZZAAAZZCCCZAASSl",
"gBMnnnmMBVVVVCZZZVNmnbnmMMMMmnnmMNNNNNNMmnvbmMMMMNVZZCBBBVCASSSAAZCVNMnbbbnmNVCCZASSDSAZBNMNVCZZCCCVNMmmMBBVVCCCVNMNBCZCBMbbmMNBNMMmmmnnnnnbbnmMBVVVBBNNMMMNBBNMmmMNBVCZZZVBNMNBVZZZCVBBBBBVZAZCBNNBCZZCVVCCCCVBBVCZZZCCCCCCBNMNBVVCCCCVVVVVCCZZZCBMnbbbmMBBBBNMMNBVVVVVVVVVVBNNMMMNNVCAAACVBBVZSSSACBNNVCZZZCBMMMBVCCVVBVCZAAZCVBNBVCZZCBMmmmMNBVBNMMBVCCCCVVBBNBVCZAASSSDDDSAAAZCVNNNNNBVCZCVNMMMNBBVCCCCCCVVVBBVVBMvxxcnMBVVVVVBNmmmMNVZASSSSSSSSSACNmnnnbbnmNVCZSDDDSAACVNMNBVVVBBVVCCZAAAZCBmvxzxnMVZZZCCZZZAAAAAZZCZZASDDl",
"hVNmmmmMNBBBBVCCCBmbvvbnnmMMmMMNNNNNBBBBMmnnMMMNNBCZCBMmMNCAASAAAAZVBMmnbbbnMBCZAASSSSACBMmMBCAAAAZCNMnnmmMNBCZZCVBVCZZZVMnnMNVVNMmnnbbbnnnmmMNBVCCCVBNMmmmMNNmnbbnmMNVCZCBMmnmNVZAAZCVVVCCZAAACBNMNVCCVBBVVVBNMMNVCCCCCVCCVBNMmMNBBVCCCCCCCZZAAZCBmbvvbmNVVVBMmnmMNBVVVVCCCCVBNNNNNNNCZZZVNNNVZSDSAZVBBCZAAAZVNMNVCZZZCCCZAAZCBNMMMBVCCVBMnnnmMBBBNNNVVCVVVVVCVVVCCAAASSDDDDSAZZCBMnnmMNBCCZCVBMMMNBVCZZZZZCVVVBBVVBmvccbmNVCCCCVBMmmMNBCZAAAASSSSSAZVNnnmmmnnmNBVZSSDDSSAZCVBBVCCVVBBBNBVCZZZCBmvxxvMBZAAZZZZZAAAAAAZZCZAASDSl",
"jVBMmmmMNNNNNBVCCBmnbbnnnmMMMNNBNNNBVCVVNMmMNBNBBVCCVNnbmNVZAAAAAAZCBNmnbbbnmNVCZASSAAZCBMmMBCASSAACBMnbbnnMBCZAZZCCZAAZVNmmMBVVNMnbbbbbmmmMNBVCZZZZCVBNmnnnmmbvvvbbnMBVCCNmbbmNVZAAZCVVCCZAAAACBMmMBVVCVBVBNMmnnMBVVVVVBVVVBNMmmmMNVCCZZZZZZAAZZVNmnbbnMBVCVBMmnmMNBBVVVVCCCCVBBBNNMMVCCVNMMNVZSSSAZVVVCZASAZBNNNVCZZZCCZAAZCBMmnnmNVVVBNmnnnmNBBBBBVCCCVBBVCCCCCCZZAAASDFDSAZCVNMnbbnmNBVCCCVNMMMNBVZAAAZCCVVBNNVVBMbvvnMBCZZZCCBNMMMNVVCCCCZZAAAAACBMnbmMMMmmNBVZASDDSSAZZCCCCZCCVBNMMMNBCZZCBMbvvnNCASSAZZZZAAZZZZZCCZAASSAk",
"jCBNMMMMMNNNNBVCCVBNMMMMmMNNNBBBBBBBCCCCBNNNVVVVCCZCBMbbnMVZZAAAAAZZVBMmnbnnmMBVZAAAZZZZVBNNVZAAAAAZVNmbvvbmBCASSSAASSSACBMMNBVVBMnbbnnmMNNNBVZAAAAAZZVBmbvvbbvcccvbnmNVCVNmbbmNCZAAZCBBCZASAAZVNMnnNBCCCVVBMnbvbmNBBBBBBBBBBBNmnnmMBCCZZZZZZZZCVBMmnnmMBVVCVBNMMNBBBVVVVVCCZZCCCCBNmMBVVBMmMNCZSSAZCBBVCZAAZCBNNNVCCCCVCZAZCBmbbbnmMBVVBNmmmMNVCCCCCZZZCVNNVCCCVVCCZAZASDDDAZVNMmmnbbnmNBBVBBBNNMMMNBCAAAZCVBBNMMBVBNmbnmNVZZZZZCVBNNNBBBBBBBBVCZAAZVMnbbmNBBNNNBVZASDDDSAAZZZZAAZCCBNmmmMNVCZCVNMmmMBCASSAZZZZZZCCVVCCCZZAAAZj",
"jCBNNNMMMMNNBBBVCCCVVVBNNNBBBVVVBBBBCZZCVBBVCZZZZZZCBMbvnMVZZAAAAAAZCVNmnnnnmMNVZAAAZZAZCVBBCZAAZZAZZVNmbbnMVZSSDDDSSSSAZVNNNBVVBNmnnmMNNBNBVZASSSSSAACBmvcxvvvcvvnnmMNVCVNmbbmBCASAZVBBVZASAACBMnbbMBCZZCCBMbvcvnMNBBBBNNNBVBNMmnmMBVCCCCCCCCCVBNmmmMNBVCCCVVBBBBBVVVBBBVCCZZZZZZVNmmBVVBMmMNVZAAACVBBBVCCCVBMMNNVCCVBVVCAZCNnvvvbmMBVVBNmmMNVCZZAAAAAZCVNBVCCCVBVCCZCZASDSACNmnbbbbbbnMNBBNNNNNNMMMNVZAZZCVBMMmMBVVBMmmMBCZAAZZZCVBBNNNNMMmmMNVCZCVBMmbnMBVVBBNBVCASSDDSSAAAAAAAZCVBMmmmMNBCCZCVBNNBVZAAAZZCZZZCCVBBVVCZZZZZCh",
"jCBNNMMMMNBBBBBVCZAAZZVVBVVVCCVVBNBBVCCVBBBVZAAAAAZCBMnbnMVZAAAAAAAZCVBMmmnnmmMBCZAAZZAAZCVVCCZZCCZAAZVNmmMNCASDDDDSSAAAZCBNBBVVVBMMMNNBBBBBCZASDDDSSAZBmvxzcvvbnmNNNBBVCCBNmmNBZASAZVBNVCASAZVNmbvvmBCZZZCVMnvcvnMNBVVVBBNNBVBNMmmMBVBBBBBVVVVBNMmnMNBVVCCCCCVVBBVVVVBBBBVCZZAAAZVNMMBCCVNMMNBVZZZVBNNNNNNNMmnmMBVVVBNBVCZZVNbvvbnMBVCCVNmnMBVZZAASSSSACVBVCZCVBBVVCCVCZASSACNnvvbbbbnnMNNNMMNBVVNMMMBVCCCVBNmmmNVCCVNNNBCZAAAAZZVBBNNMnnbbbbmMBVCVBBNMMNBVCCBNNNBVZASSDSSSAAAAZZCVBNNNNNNBVCZZCCCVVCCZZZCCCCCZZCVBNNBVCCZZCCCh",
"jCBBBNMMNBVVVVBVCASSSAZCCCCCCCCVBNNNBVVVBNBCASSSAAZCVNMmmNVZAAAAZZZZCVBMmnnnnmMBCZAAZZZZZZVVVCCCVCZASAZVNNNBZASDDSSAAZZCCVBNBBVVVBNNNBVVVVBVCZASDDSSSAZVMbxxvbmMNBCCCVVVCCVVNNBVZAAACVNNBVZAAZVMbcxcnNCZAAZCNmvcvbMBVCCCVBNNBVVVNMMNNNNMmmMNBBBNMmnnMBVVVVCCCCVBBBBBBBBBBBVCCZAAAZVBNNVCZCVNMMNBVCCVBNNNMmmnnnnmNBVVBNMNBCZZCNmbbnMNVCZZVNmnMNVZAAASSSAZVVVCZZZCVBCCCVBVCZSSZVMnvcvbbbbnMNNNMNBVCCVNMMBVVVVVNMmmMNVCCCVVVCZASSSAZCVBNNMmbcvvvbmMBBBBNNNBBVCZZCBNMMNVCZAASSDSSSAAZCVBNMNNBVVVCCZZZCZZZCCCCCVVVVCCCCVBNNNBVCCCCCCj",
"jCVVVVBBBVCZCCVCZASSSAZZCCCCCCCCVNMMMNBBNNVCASSSAAZCCVBBBBVZAAAAZZZCVBNmnvvvbmNVZAAAZCCCZCVVVVVVVCCZAAAZVBVVZASSSAAZCVVBBNMNNBVCCVVBVCCCVVBVCZZASSSSAAZCNmbbmMBVCZAAZZCCZZZCVVVCZAAZCBNNBVZAAZBmvxzxnNVZAAAZVNnvvbMBCZZZCVBBVCCVBBNNNMnbvcvnMNBNmbbnMBVVBBVVCVBNMMNNNNNNBBVVCCZZZZCVBBCZAACBMmMNVCCCCVBNmbvvbnmMBVVVBMmMBVZZCVNMMNBVZAAZCNnnmMBCZZAAAZCVBBVZAAAZCCZZCVNNVCAACVMnbvvvvbbnMNBNNBVZAZCVBBBBBBVBNMnmMBCZZZCCZZASSDSSACBNNMmbxxcvbmMNBNMMmMBVCZZAZCNMmMNBVCCZASDDDSAZCVBMmmNBCCZCZZZZZZZZZCCCCVBNNBVVCCBNMMMNVVCCCCZj",
"jZCCCCCVVCZZZZCCZASSSSAZCCVVVCCCVBMmMMNNMNBCASSAAZZZZZCCVVVCZZZZCCCVBNMmbvccbmNVZAZCVBBVVCVBBBBVVCCZAAAACVVCZZAAAZCVVBNMmnnmMBVCCCCCZZZZCVBBVCZZSSSSAZZCVNMMNVCZAASSAZZZZAAAZZCZZZZCVBNNBVCAAZBmczzcnNVZAAAACBmbbbMBCAAAZCVVCCCCVVBBMmbvcxcbmNNMbvcbMBVVBBVVVVBNMMMNNNNNNBBVVCCZZZZCVVZAAAZVNMMNVCZZZCVNnvccbnmNBVVBNMmMBVZZCVVVVCCZZASACBmnnMBCZZZZCCVVBBCZASAAZZAZCVNNVCZZVBNmnbbbvbbnMNBBBVCZASAZCVBBNNBBNMmmNVZAZZZAAASDDDDSAZBNMmnvxzcbnMNBNNmmmMBCZAAAZVNMMMNBVVVCZSDDDSAZCBNMmMNVZAAZZZZZZZZZCVVVVBNNNNBVCVBNMMMNBVVVCZAk",
"kAZZAAZZCCZZZZCCZASSSSAZCVBBBVCCVBNMMNNNMMBVZAAZCCCZZAZZCVBBBVVVVVBNMmmnnbvvbmNVZZCBMmmMNBBBNNBVVCCZAAAACCCCCZZZCCVBBNMnvccvmNVCZZZZAAAZCBNNBVCZASSAZZZZCVVVCZZASSSAAZCCZAAASAAAAAZCBNMMNVCAAZBmvxcbMBVCZAAAZVNmnmMBZAAAZZCCZZZZZCVBMmbvcccvnmmncxxcnNVCVVVVVVVBBNNNNNMMMNBVVCCZZAAZZZAASSACVBBVCZAAAZCNnvvvbnMNBVBBNMMMBVZZCCCCZZZZAASACBmnmMBCZZCCVVVBBBCZASAAAAAACVBBVCZCBNNMMmnnbbbnMNNBBVZASSSAZCVBNNBVBNmMBVZAAAAAASSSDDDDSZVBNmnvxxvnMNBBNMmnmMVCZAAZCBNNNNBBVVBVCADDDDSZCBNMMNVZASAAZZZZZZCCBBNNBBBNNNBBVVVBNNBBBBBVCZAl",
"kAAAAAAZCCCCZZCZZZSSSSAZCVBNNBVVCVBNNNMmmmMNVCCCVVVCZAAZVBNMNNBBBBNMmnmmmmnnnmNVCCBMbvbnMNNNNNBVCCCZAAAZCCCCCZZZCVBBNNmbxzzcnNVCZAAAAAAZVBMMNBVZAAAAZCCZZCCCCZZAAAAAZCCCZZASSSSAAAZCBNMMNVZAAZVMbvnMBVCCZAAAZCBNMMNVZASAAZCCZAAAAZCBMmnbbbvbnmnbxllxbMBCCCCVVVCCVVVVBBNMNNVVCCZZASSSAAASSSSACCCCZAAAAZVNnbvbbnmNBVBBNMMNBVCZCZZAAZZZZASAZVMmMNVCZZCCVVVVBVCZASSSSSAZCBBBVCCCBNNMNNMmmnnnmMNBVCASDDSSACVBNNVVVBMNBCAAAAAAAASSSDDDSACVNMnbcvnMNNBNNMmmMNVCZZZCVBNNBBVVVVVVZADDDDSZCVNNNBCZSSSAZCCZZZCVBNMNBBNNNNBVVCVVBBVVBBBBCZAl",
"lSAAAAZCVVVVCCCZZZASSAZZVBNNNNBVVCCVBNmnbbnmNBVBNBVCZZZCBNmmMMBBBNNMmmmMNNMMMMNNBBMbcxcbMNNNNBBVCZZZAAZZCVCCZZZZCVVBBMnvzllcmBCZASASSAACBNmmMNVZAAZZVVVCCCCVVVCCZZZZCVVVCZZASSSSAAZVBNMMBVZSSAVNnnMBCCCCZZZZZCVBBBVCZASAZZCZASSSSAZVNmmmmmnnmmnvxllzvmBCZZZCCCCZZZZCCVBBBBCZZAAASDDDSSSSSSSSAAZZAAAZCCBNmbbbbnmMBVVVBNNNBVCCZZAAAZCCZASAZVNNBVCZAAAZZZZZCCZASSSSSAZCBNNNVVCCBNMMNBBNMmnbbnMBVZASDDDSAZVBBBVCCVBBCZASSAAAAZZZASDDSAZVBNmmnmNNNNNNNNNNNBVVCCVVBBBBVCCCCZCZASDDDDSACVBBBVZASSAZCVVCZZCVBNNNNNMMMNBVCZCCCCCVBBBBCZAl",
"kAAAAZCCVBBVCCCCZZAAZCCVVBNNNNBVCZZZVNmbvcvbmNBBNBVCZZCBMmmmMMNBBBNMMMMNBBBBNNNNNMnvxxvnMNBBBBBVCZZZZZCVBBVCCZZZZCVBNMbczlzcmBCZASAAAAZCBMmnMBCZAAZVBBVVCCVBNNBBVVCCVVVVCCCZAAAAZCVBNNMNBCASSACBMMBCZAZZZZZCCCCCVVVCZASAZCCZZASSSSZVNMMMNNNMMMmncxzxbmBCZZZCCCCZAAAZZCVVBVCZAASSDDDDDSSSSSSSAAZZZZCVBBNMmnnnnnmMBVCVBNNNBBVCZAAAAZVVZZSAZCBBVCZASSSAAAAAAAASSSSAAZCBMmmMBVCCVBMMNBVBNMnbbnMNVZADDDDSZCVVBBCCCVBBCZAAAAAZZCCCCZASSSZCVBNNNBBBNNMNNBBBBBBBBBBBBBVVCZCCZZAASSSSSSAACVBNBVZASSAZCVVCZZZCBBBBBNMmMNVCZAZZZZZCVBNBVZAk",
"kAAAAZCVBBBBCCZZZZZCVBNNNNNNNNBVCAAACNnvcxcvnMNBBVVCZCVNmnnmNNBBBBBBNBBVVVVBBNMMMmbvccnMBVVVVVVVCCZZCVBNMNBVVCZZZZCBNmvxllxvMVCZAZZZZZZCBMmmNBCAAZCBNNBVVVBNmmmmMNBVVVVVVVVCZZZCVBNMMMMNVCAAAZCVBBCZAAZZZZZCZZZZCCVCZAAACVVVCZASSSACBNNNBVVVBBNMnbvbmMBCZZCVBBVZAAAAZCCVVVZASSDDDDDDSSSSSSAAZZZZCCBNMMmnnnmmmmMBVCCCVBNNBBVCZASAZCBBCZAAZCBBVCASSDSSSSSSSSSSAAAZZVBMnbbmMNVVVBMMNBVVBMnbbnMBCZSSDDDAZCVVBBVCVVBBVCZZZZZZCVBBBVZASAAZCVBVVCVBNmmMNBVCVBNNNNBVVVCCZZCZZASSSAAAAAAZCVNMMBCASSSACVVCZAZCVVVVBNmmmMVCASSAAAAZVBNNBCZk",
"kAAAZCVBNNNBVCZZZZCVNMmmMMMNNBVCZASAZBmbvcvbmMBBVVCZZCBMbbnMNBBBBBBVVVVVVVBBBNNMMmnbbnMNVCCCCCVVVVVVVBMmmMNBBVCCZZCBMbczlzcnNBVCCCVVVCCVNMMMNVZAAZVBNMBBVVBMnbbbnmNBVVVVVVVCZZCBNMmmmmMNVCZAZCCVVVCAAAZZZZCCZZAAZCVVCZAZCBNNBVZASSACVBBVCCCCCVVBNMmMNBVCCCVBNNBCZAAZZCVVBVCASSDDDDSSSSSSSSAZCCCCCVNMmnnnnmMMMNBVCZZCVVBBVVVCZZAZCVNNVZASZCVVVCZASSSSSASSSSSSAZCVVBMnvvbnMNBBBNMMNNVVBNmnnmNBCZASDDSAZCCVBBVCVBNNBVVCCCCCVBNNNBCASSAZCCVCZZCVNmmMBVZZCBNMMNBVVVCCCZZZASSSAZCVCCCCCBNMMNCASDSACVVVZZAZCVCVVBmmmMVZASSSSSAZVNMMNBCj",
"kAZZCCVBMmmMBCZAAZCBmnbbnmmMBVCZASSSACNmnnmMNBBVVCZZZCBmvvnMNBNNNNBVCCCVBBNNNBBBNNMMMNBVVCCZZCVBBBNNNMmnmmMMMNBVCCVNnczlzcnMNBBBBNNMNBBBNNMNNVZAAZVNMMBVCCVNmbbbbmMBBVVVVCCCZCVNmnbbbnmMBCZZCVVVBVZAAAZZZZZZZZAAZCVVCZZZVNmnmMVZAAAZCCVCCZZZZCCCVVVVVVVVCVBNmmNVZZZCVBBNMNVCASSSSAZZZZZAAAZZCCCCVVNMmnnmmMNNBBVVCZZZCCVVCCCCCCCCVBMMBCASACVVVCZZASAAZZASSDSAZVBNNMnbccbnMNNNNNNNNNVVVBMMMMNBCZASDDSSAZCCBBVVVBMMNNBBBBVVBBNNNBCAASSAZCCCZZZCBNMNVZAZCBMmMNBVBBBVCCZAASSAZVNNNBVVVBNMNBCADDSAZCVVCZZZZCZCVBMmMNVZASSSSAACBNmnmMBh",
"jZCCVBBNmnnmNVZAZZVNnbvbnmMNVCZAAASSAZBNMMNBVVVVCCZAACBmvcbMBBNNNNBVCZCVBNMNBVVVVBBBBVVVVVCZZZCVBNNMMmnnmmMMmmMNVCVMvxlzcbMNBBNMMMmmmMNNNMMNBVZAACBNMNBCZZCVNmnnnmNBBVVVCCZZZZVNmnbbbnnmBVCCCVVVVCZAAAZZZZZZCZZAZCVVVCZCVMbvbnBCAAAZZCCCCZZZZCCCCCCCVVVVCVBMmmMBVCCCVBMmnmNVZAAAZZCVVVCCZZZCCCCVVBNMmmmMNNNBVVCCZZZZZCVVCCCCCVBBNMmmNCASAZVVVCZZAAAZZZAASDDAZVNMmmnbvvnMNNNNNNNNNNVVVBNMMNNBVCASSDSSAAZCVVCCVBMmMMNNNBBVBBNNBVCASDSSAZZZZZZZVBBVCZAACBmnmMNNNMNBVCZAASSACBMmmMNNNNMNNVZASDSAZVBBVCZZZZZZCVNMNBCZAAAAAAZVNmnbbnMf",
"jCVBNMMMmnbnNVCZZCVNnbbbmMBVZZAAZZAAAZVBNNBVCCCCVCZAAZBmvcbmBVBNNBVCZZZCBNNNVCZZCVVVVCCVBVVZAAZCVBNMMmmmMMMMmnmMBVBMbxzxvmBVBNMmmmnnnmMMMMMNVCAAACBNNNVZAAZCVBNMMNBVCCCCCCZAAACVNMmmnnnmNVZZZCCCCZASSSAAAAZZCCCZZZCCCCCCBMvccbNCAAAZZCCCCCCCCCCCCCVVVVVCCCBNmmMNBVVVBNMmnnMBCZZZCVBBNNBVCZZZCCCCVBMmmmMNBBVVCCZZZZZZZCVVVVCCVBMMmmnnNVAAAZCVVCCZAAAZCCZASDDAZBMmmnnmnmNBBBNMMMMMNNVVVBNMmmMNBCZAAAAAAAAZCCCZCVNMmMNBBVVVVVVVVCZASDDDSAAAAASAZCVCZAAZVMbvbnmmnnmMBCZAAAAZCBMmnnmMMMMNBCASSSAAZVBBBVCCZAAAZCVBBVCAAAZCZCVBmbvccvbs",
"hVBNMmmmmnnmNBVCVVBNmnbnMBVZAAAZCCZZZCVBNNBVCZCCVCZZAZVMbvbmBVBBNBVCZAZCBNBVCZAAZZCCZZCVVVCZAAAZCBBNNNMNNNNMmmmMBVBNbcxcnNVVBNmmnnbbbnmMmMMNVZASAZVBNBCZAAAZZCVVBVCCZZZCCZZAAAZCVBNMmnbnMBCZZZZZZZASSSSSAAZCVVVCZZZCCCCVBmbcvnNCAAAZZZCCCCCCCVVVVVBBBVVCCCVBMMMNNNBBBBNmnmMBVCCCVBNNMMMBCZZZZZCCVBNMMMNBBVVVCZAAAAAZZCVBBBVVVBMmmnnnNVZAAZCVVCZZAAAZZZAASSSACBMmnnmmMNBVVVNMmmmMMNBVBBMmnnmMBVCCZZCCZAAAZZZZZVNMmMNVVCCVVVCCCZZASDDDDSSASSSSAZCZAAAZVMvccvbbbbnMVCZAZZZCCVNMmnmMMMNBVZASSAAZCVBBBBVZAASAAZCCCCZAZZCVVVVNmbvcccva",
"hBNMMmmmMMmMNBVVBBBBNMmMNVZASSZCBBVCCVBNMMNBVCVVVVCZZZVNnbnmNVVBBBVCZAZCBBVCASSSAAZZAZZCCCZASSACVVVVVVVVVVBBMMmMBVVNmbbnMBVVNMmnbbbbbnnmmmMBCASSSACBBBCZAAAAAAZZZZZAAAAZZZZZZZZZCCVNmbvbmNCZZZZZZZAASSSSSACVNNBVZZZCCCCVBMnbnmBZASAAZZCCCCZZCVVVBNMMNBVCCCCVBNNNNNNBVVBNMMNBCCCVBNNNMMNBCZAAZZCVVBNNNNBBBBBVCZASSAAZCCBNNNBVVVBNMmnmNVZAAZVVVVCZAAAAAAASSSSACBMmnnnMNBVCCVNmnbnnmMNBNNmnbnmMNBBBBBBBCZAAAAAZZCBNMMBVZZCCCCZZZZAASDDDDSSSSSDSAAZZZAAZVMvxxcvbbnMBCZZCVBBVVVVBNMMNNNBBCZAAAZCCCVBBNBVZASSSAZZZZZAAAZCVVVVBMmnnnbbs",
"hVBNNMMMMNNNBVBBBBBBBNMNVCASDSZVBNBVVVBNMMNBBBBBBBVVCCVBMmmMNBVBNNBVZZCVBVCZASSSAAAAAAAAZASSSACVBBVVCCCCVVVVBNNNVVVBMmmMNBBBNNmnbbbnnmnnnmMBCASDSSZVVVCZAAAAAAAAZZAASSAAZZZCCVCCCCVNmbcvnNVZZZZCCCCZAASSAZVNMMNBCZZZCCCVBNmmMNVZAAAAZZCCCZZZCCVVBNMMNBVVCCCVBBNNNNBVCCVVBBBVCCVBMMMNNNNBCZASAZCCVBNNNNNBBBBVCZASSSAZZCBNMNBBVVVBNNMMBCZAAZVVVVCZZZZZZAAAAAAZCBMmbbnmMBVCCVNmbvbbnMNNNMmnbnMNNBNNMMmMBCAAAAZZCVBNmMBVCCCVCCAAAAZAASSSSAAASSSSAZZCZZAZVMbcxcvbnMNVCZZCBNMNBVCVVVVVVVVVCZZZZCCCCVBNNBCZSSSAZZZZZAAAAZCVVVCVBNMMmmms",
"jCCVBNNNNBBVVVVBBBVVBBNBVZASDSACBNBBBBBBBBBBBNMmMMNBBVVVBNNNBBBNmmMNVCVBNBCZSSSSAAAAAASSSSSSACBMmmNBVCCVVVCCCVVVCCCVNMMNNBBBBBNMmmmMMMmnnnMBCASDDSACVBVCZAAAAAAZZZZASSSSAZCBNNNBVVBMnvccnMVCCCCVVVBVVZAAZCNMnnMBVCZZZZZCVBBBBVCZZZZAZZZCCZZZZCCVBNNNBBBBVVVBBBVVVVCZZZZCCCCCZCVNmnMNBBVVCZSSAAZCVBNMmmMMNNBBVCASSSAAZCVBNMNBVVVVVBNBVZAAACVBVVCZZZZZZZZZZZZCVBMmnbbnmMBVCVNmbvvbnMNBBNMmmMNBBNMMmnbnMBZAAZCVVBNMmmNBVVBBVCZAZZCCZAAAZZZZZAAAZCCVCCZZCBMnvvbnMNBCZZZVNmmmNVCZZZZZZZZZZZZZZCCCCVBNNVCASSAZCVVCZZAAAZCCCCZCVBBNNNNf",
"kZCVBBNNBVVCCCVVBBBBBBBBCZASSSACVBBBBVVVVVVBNMnbnmMNNBVVVVBBBBNMnnmMBVBNNBCASDSSAZZZZAASSSSAZVMnvbmNBBVVBVCCCCCCCCCVBBBBNBBVVVBNNNNBNNmnnmMBCZSDDDSZCVVCZAAAAAZZCCZZASSSAZVNmmMBVVBNnbvvnNVCCCCVBBNNBVZZZVNmnnMBVCZZZAAZCCCCCZZCVVCZZZZCCCZZZCVBBBBBVVVBVBBBBVVCCZZZAZZZZCZZZCBMbbnMBVVVCZASSAZCVBNmnnnmMNNBBVCZSSAZZCVBNMNNBVVCVVVVZAASAZVVVVCZCCVVVVCCVVCCVBNMnbbbbmNBVBNmbvbbmMBBBBNNNNBBBNMmnbvvnNCZAZCBBNMMmmNNNMmMNVZZZCCVCCCCCVVVCCCCCVVVVCCCVBNMnnnmMNVCZAZVNmnnMBCZASSSAAAZZZZZZZZCCVBBBCZSSSACVBBBVCZZZZCCCCZCVVBBNNNg",
"kACVBNMMBVCZZZCVBNNNNNBVCZASSAAZCVVVVCCCCCCVNmbvnmMMNNBVCCVBBBNmnnnMNBBNNBCASSSAZVVVCZAAAAAZVNnvccbnmMMNNBVCCCVVCCCCVVVVBBVVCCVVVVCCVBMmmmMNVCASDDSSZZCZZAAZZZCVVVCZAAAAZCBMnnMBCCCBMnbnmNVCZCCVVNMmMBVCCVNMmmNBVCZAAAAAZZAAAACVNMBVCZCCVCCZCCBBNBVCZZCCVVBBBBVCZZZZZZCCCZZZZCBmccvnNBBBVCZAAAZCVBNmnbbbmMNNMNBVZAZZCVVVBNNNNBVVVVCCAASSSACCVCCCCBNMMNBBBBVVVVBNmmnbbbmMBBMmnnnnmNBVVVVBVVVVVBNmbvxcbmVZZZVNMMMMmmMMmnvbmBCCCCVVBBBBBNNNBBBBBBBVVVVVBBBNMmnnmMBCAAZCNMnnnMVZASDSSAZZCCZZAAZZZCCCCZSDDSACNMMMNBVCZZCCVVVVBBBNNNBg",
"jCVBNMMNBCZAAAZVBNMMMNBVCZAAZZZCCVVVCCZZZCCVBmbvnmNNNNBVCCVVBBMmnnmmNNBBVVZASSAZCBNBVCZAAZZCBMnvccvbnnmmMNBVVVBBVVVVVVVVVVVCCCCCCZZZCVNMMMMNBCZSDDDDSAZZZZZZCCVVVVVCCZZZCVBMnmNVZZZVNMnmMBVCZZZCVNMmMNVCZCBNmmNBVCZZAAAAAAASSACBmmMBVCCVVBVCVVBNNNVCZZZCCVBBBBVCZZZZCVVVCZZZZCNncxcbmNNBVCZAAZCCVBNmbbvbmMNNmmmMBVVVBBVVVBNNBBVVVVCZASDDSAZCCCCCVNmnnmNNNNBVVVVBMmmnbvnmMNMMmmmMNBVCVVCCCCCCCVBMnvccbmVZAZVBMMNNNNNMnbcvnNVVVVVBNNNMMMMNNNNNNBBVVVBBBBBBNMnnnmBCAAAZBMmnnmBCASDSSAZCVCZZAAZZZZCZAASDDDACNMmmMBVCCCVBNNNNMMNNMNBg",
"gNMMMMMNVCZAAAZVNMmmMNBVCZZCCVVVVVVVCZZCVVCVBMnnmNBVBBBVVVVBBNMMmmmMMNVVCZZASAAZVNMMBCZAZCCVNMmnnbbbbnnmmMNBBNMMNBBVVCVVVCCZZCVVCZAAZCBNNNNNBVCASDDDDSAZZCCCCCVVVBBVVCCVVVBNMNBCAAACBMmmNBVCZZZZVBNMMNVCZZVBMMNVCCZZAAZZZZASSACNnbmNVVVBBBBBBNMMMNBVCZZZCVVBBBVVCCCVBBBBVCCZZCNmczxcnMMNVCZZZCVVVBNMnbbnMNBNmnbbmNNNNNVCCVVBVVCVBBVCASSDSSAZCCCCBMbvbnMBBBBBVVVBMMMnbvbnMMMNNNBBVCCCCCCCCCCCZCVNmbbbmNCASAZCBBVVVVBNmbccbmNBBBBNMmmMMNNNNNMMNNBVVBBBBBVBNmnbbmBCASAZVNMnbnNVASSAACVBBVCZAAZCCCZZASDDFDSZBNMMNBVVCVBMnbbbnmMNMNBg",
"snbbmMNBCCZZZZCVNMmmMNBVCCCVBNMNBBBVCCCCVBVVVNmmNBCCVVVVVVBBBBBNNNNNNNVCZZZZAAZCVNMMBVZZCCVBNNNNMMmmnnnmmMNNNMmmMMNNBVVCCCZZZCVVCZAAZCVBNNNNBBVZASDDDDSAZCVVVVVVBBBBBBBBBBBBBBVCAAAZVBNNNBVCZZZZVBNMMNVCZZCBNNBVVCCZZZCVVCZASACNmnmNBVBBBNNNMMmMMMMNVCZZCVBBBVVCCCCVBBBBVCCCCVBmvxcvnMNBVCZZVVBBBBNMmnnmNBVBmbccnmMMMNVCZCCVCCCCVVVCASSSSAAZCCCCBMbvbnNBVBBVCCVBNNNMmnnnMNNBBVVCCZZZCCCCCVCCZZCBMnnmNVZSSSAZCCZZZCVNmbvcbnmMNNBNMmmMNNBBBBNMMNBVVVBBBBVBNMnnnMBZASAZCBNmnmNVZAAAZVBNNNVCZZCVVVCZASSDDDSAVBNNBVVCVVNmvxxxvbmMNNBg",
"ixxcnMBVCCVVVVVVBNNMNBBVVVVNmnnmNBBBVCCVBBVCCVNNVCZAZZCVBBBBVVVVVVBBNNVCZZCCZZCCVBNNBVCCCCCVVVVVVVBNMmmmMMNNMMmmmMmMNBVCCCZZCCCCCZZZZCVBNNBBBBBVZASSSDSSAZCCVVVVBBNNNNNNBBVVVVVCZZAAZCVVVVVCCZZCVBNMMNVCZCCVNNBBVVVVCVBNNBCZAZCVNMMNBBBNNNMmmmMMMmmmNBCCVBNNBVCCZZZCVVVVCCCCCVBMbbbnMNBVCZZCBNNNNNMMmmmMBVCBmbccbnMMNVCZZZCCZZZZCCCZAASAAAZCVVCCBNnbnmBCCCVVCCCVBNBBNNMMNBBVVVVCZZZZZZCCVVVCZZZVNMMMBCASDDSSAASSSACBMmnbbbbnmNBBNNMNBVCCCVNNMNBVVVVBBBBBBNMMMNVZASAZCVBNNNBCZAAZCBNMMMBVVBNMNNVCZAAASSSAZVVBVCCCVBNnczllxvmMNNNf",
"uzzcnNVCCCBNNNNBBBBBBBVVVVBNmnnmNBBBVVVVBBCCCCBBVCAAAAZCVBBBCCZZZCCVBBVCCCVBVVCCVVBBBVVVBBVCCCCCCCCBNmnnmMNNMMMMNMMMMNVCCCCVVVVCCZCCCVVBNNBBBBNNVCZASSSSSAZCVVBBBBNNNNNNVVCCVVVVCCZAAAZZCCVVVCCVNNMMNNVCCCVVBBBBNNBBBBMMMNVCZZZCBBNBBVBBBBNMmmMNNMmnmNBVBNMNBVCZZZZZCCCCZCCCCVBMnnmMBVVCZZZCBNNNBNNMMMNNVCCBmbvvnmMBVCZAAAZZZAAAZZZZZAAAAZCVVVCCVNmmmNVZZZCCZZCVBBVVVVBBVVCCVVBVCCZZZZZCVVVCZZZCBNMNBCASSDDDDDDDSSZCBNMmmnnnmNVVVBBBVCCCCVBNNNBVVVVVBBBBBBBBNBCZAAAZCVVVBBVCZZZZCBMmmmMNMMmmmMBVCCCZZAAAZCCCCZZZCVNmvzlzxvmNNBNf",
"ixxvmBCZZCBMmmMNBVVVVVVCCCVBMmMMBBBBBVCCCCZZCVNNBVZASAAZVBBVCZAAAAZCCVCCVBMMMNBVCVVBBBNNNNVCCCVVCCCCBMnbnnmMMMNBVBNMMNBVCCBBNNBVCCVVVVBBNBVVBBMMNBCZASSSSSAZCBNNNBBBVVVVZZZZCVVBBVZASSSAZCVBBBBBMmmMNBVVVVVVVVBNmmMMNNMmmMBCZZZZCVBBVVCCCCVBNNBVVBMmmmBVVBNNBVZZAZZZZZZZZZCVVBNMmmMBVCCCZZCCBNBBVVBBBBBBCCCBMnbnMNBCZAASAAZZZAAAAZZZZAAAZZCVVVCCVBNNNVCAAAZZZZCCVVCCCCCCCCZZVBNMBVCZAAAACCCCZZZCBNMNBVZASSDDDDDDDSAZCVVVBNMMNBCZCCCCCCCCCVBBBBCCCCCVVBNNBVCCVVCZAAZCVVVVVVVVCCZZCVNmnnnnnbbbmMNBBBBBVCZAZZCCZZAZZCVNnvccvnMBBVBg",
"pvvnMBCZZCBMnnmNBVCVVVCCZZCVNNNBBBNNBVCZZZAZCBMmMNCZAAAZCVBVZASSSAAAZCCCVNmnnmNVCCVVBBNMMNVCCCVVVCCCBMnbbnmMMNVCCCVBNBVVCVNMmMNBCCVVVBBBBBVVVBNMNBCZAAAAASSACBNNNBBVCCZZAAAACCVVBVZASDDSACBNNNNNmnnmNBVVVVVVCVBNmnmMNNMmmMBVCZZZCCVBVCCZZZCVBBVCCVNMmmNBVVBBVCZZZZCCZZAAAACCVVNMmMNBVCCCCCCVBBVCCCVBNNNBCCCBMnnmMBVZAAAAAAZZZZAAAZZZZAAAZZVVVVCCVVBBVCZAAAZZZZCCVVCCZCCCCCZZCBMmMBCZSSSAAZZZZZCCVBNNBVZAASSSDDDDDSSAAAAZCVBBVCZZAZZZCCCVVVBBVCZZZCCVBBNNBVCCCVCCZZCCVVVCVVVVVVCCCCBMmnbbccvbmNNNMMMNBVZZZZCCZAAAAZCBMnnnnMNVVVBf",
"snmMNVCZZZVNmmMNBVVVBBVCZZZCVBBVVBNNNVCZAAAZCNmnnMBCZAAZCVVVZAASSASAAZZCVNnbbnMBVCCCVBNMMNVCZCVVVVVVBNnnnnmMNVZAAAZCVVVCCVNmnnMBCCCCVBBBBVCCCVBBVCZZZZCCZAAACBNNNBBVCZAASSSAZZCVVCZASDDSACBMMMNMnbbnMBVVCVCCCVBNmmMNNNMmMMBCCZZZCCBBVCZZAAAZCVCCZCVNmmMBVCCCCZZZCVVVVCASSAZZCVBNMmMNVCCCCCCVVCZZZZVBMMMNVCVBmnnmMBVZZAZZZZZCCCZZZZZZZAAAZCVBVVCCVVVVVCZAAAZCCCCCCCCCCVVVCCZZCBMmMNCZSDDSAAZZCCCVBBNNVVCZZAASSSSSSSSAAASSAZCCCZAAAAAZCVBBBBBVCZZZZCCVVBNNNBVVVVVVVVVBBBVVVVBBBBBVCCVNMmbvxxvnMNNMnbnmNVCZZZZZZZAAAACBMmmMNBVVVVNf",
"smMNBVCZZZVNmmMNVVVVBBVCCZCCVVBBVBNNBVZAAAAZVNmbnmNBCZZCVVBVZAAAAAAAAAZCVNmbbnMBCCZCVBNMMNVZZZCVBBVVBNMmmMMNBCASSSAZCCCCCVNmbbmNCZZCVBBBVCZZZCVVVCZZZCBBCZZZVBNMNNBVCZASSSSAAZZCCCZAASSSZVNmmmMMnbvbmMBVCCCCCVBNMMNBBBNNNNVCCZZZCCVBVVCZAAAAZCCZZZCBMmmNVCCZZZZCVBNBVCASSSAZZCCBMmmMBVCCCCVVCZAAAZVNmnmMBCVBMnnmMNVCZZCCCCVVVVCZCCCCZZAAZZVVCCZCCVVCCZAAAAAZCCCVCCCCVVBBVCZAZVNMMNCZSSSSAZCCCVVVBBBBVVVCCZAAAAAAAAAAAASSAAZCZZAAAAAZCVBNBBBVCZZZCCVBBNMMMMNBBBBBBBBBBVVVVVBNMMNBVCVBMmbvzxvnNBMmbvbmNBCCZZCCZZZAAZVNmmMNVVVVVBMd",
"smMNBVCCZCVMnnmNVCCVBBVVVVVBBNNNBBNNVCZAAAAZVBMmmmMNBBVVBNNBCZAAZZAAAZZCCBMmmMNVCZZZCBNMMBCZAAZCVBBBBBNNBVVVCZAASSAAZZZCCVNmbbmNVZZZVBNNBCZZZZCVVCZZCVNNBVCCBNNMNNNBVZAAAAAAAAZZZZZZZZAZCBmbbnmMnbccvnMBVCCCCVBBNNBVVVVBBVVCCCCCCCVVBBVCZAAAAZZZZZZVNmmmNBCCZZCVBNNNVCASSSAAAZZVMmnmNVCZCCVVZASSACNmbbbmBVCVNMmmmMBVCCVBBBBBBVCCVVBBCZAAAZZZZAAZCCCCCZZAAAAZZCVVVCCVVBBBVCZAAZVBBBVCZAAZZCVVBBBBBBBBBVVVCZZZZZZZZCCCCZAAAZCCCCZZAAZCVVBNBBBBVCZCVBNMMmnbbbmMMNNNNNBBVCCCCVBNmmmMVCVVMmbczzvnNNMnvvbmNBVCCCCCCCCCCCBMnnMBVCVBBNms",
"smNNBBVVCVNmvvnMBVVVBNBBNNMMMMMMMNNNBCZAAAZCVBNMMMMMMNNNNNNBCZZZZCZZCCZCCVBNNNVCCZZCVNMMNBCAAAZCVVBNBBVCCZZCCCZAAAAZZZCCVBNmbbmNVZZZVBMMBCZAZZCVVVCZCVNNBBBBNMMMMMNBVZZZZZZZZZZZZZZCCCCCVNnvvbMMmncxxvmNVCCVVBBBBBVVCCVVCCCCCCCCZCCVBBBVCZAAAZZCZZZCBMnnmNBVCZCVBNNBCZASSSAAAZZVNmnmNVCZCCVVZASSZVMnvvbmBCCCBNMmmmNBVVBNNNMNBVCCBNNBVCZAAAAAASSAZCVVVCCZZAAAZCCVVCCCVVBBBVZASAZCVVVVCCVVVVBNNNBBBBVVBBBVCCCCCCCCVVVVVVZAZZCVVCCZZZCVBBBBBNNBBVCCBNmnbbvccvnmMMNNNBVVCZZCCCBNMmmMVCCBMmbvxxvnMMmnbbnMNBVVVVCVVBBBVBNMnnMBVVVBNMmd",
"dMNBBBBBBNnvzzvmBVBBNMMMmnbbnmmmmmmMNVCZZZCVBBNNBNMMmmMMNNBVCZZZCVVVVVCCZZVVVVCCCCCVNMMMNVZAAAZCCVBNNBCZAAAZCCCCCCCCCVVBBNMmnnMBVCZZVBMMBCZAZZVVBBCCZCVBBBNMmnnnmmNBCZZCVVCCCCVVCZCCVBVVBNnbbnNBNmvcxcnMBVVVBBBBVVVVVVCCCZZZZZCZZCCVVVVBVCZAAZCCCCCCBMnbnmNBVCCCBBBVCZAAAZCCZZZVNMmMNVCCCVBVCASACBMnbbnMBCZCCVNMmmNBVVBNNMMNBVCVBNMMBVZZAAASSSSAZVBNNNNBVZZAAZZCCCCCCVVBBVCZSSSACVVBBNMMNNNMmMNBVVVVBBBBVVVVVVVVBNNMNBVZZCVBBBVCZCVBMMNBBNNNBBVBNmbcxxxxxvnMNNBBVVCZZZZZZCVBNNNBCCCBMnnbvvbnmmmnnmMNNBBBBBVBNMMMNNMmmmNBVVBBNNNf",
"dMNBNMMmmnvzklcnNBBNMmmmbvccbnnnnnbnMBVVCCCVVBBBBBNMmnmmNBVVCZZCVBNNNNVCZZZCZZZCCVVBMmmMNVCAAAZCCVBNBVCASSSACVVBVVVBVBNNMmmmnmNBVCZZVBNNBCZAZZVBBBCZZZCCVBMmmnbbnmMBCZCCVBVVVBBBCCCVBBVVVNmnmMVVVNnvccnMVVVBNNBBVVVVVVCCZZZZCCCCCCVVVVVVVVCZAZCVVVCVBMnbbnMBVCZCVVVVCZZZZCVVCCVVNMmMNBVVBBNBCZAACBMnnnmNVCCCCVNMmmNBVVVBNNNNVCCCBNMMNVCZAAASSDSAZVNmnnnmNVCZZZZZZZZZZCVBNBVZASSAZCBNMmmmmmnnbbmNBVCCVBBBVVVVBBBBNMmmmMBCCCVBBBBVCCBNmmNBBBNNBBBBNmvxzzzxcbmMNBVVCCZAAZZZCCBBBBBVCZCBMmmmnnnnmmmmMMNNBBNNNNBBMMmmMMMMNNBBBBBNNNBg",
"dMNNmnvvvczljkxbMNNMmnmnbcccvnnnnbbbmNBBVVCCCVVVVBNMmnnmNVCCCCCVNMmmmMBCZAAZZAZCVBBNmmmMNBCZZZCCCVBBBVZASSSACVNNBBBBBNmnnbnnnmNBCZZZCBNBVZAAAZCVBVCAAAAAZVBMMmnbbnNVCZCVBBBBNNNNVCCCCCZZZCBBBVZAZCNmbbMBVCVVBNBBBBBNNBVCZZZCCCCVVBBBVCCCVVVCZZCVBBVVBNmnnmMBCZZZCCCCZZZZCVBBBBBNMmnmMMNNMmmMBCZZVBMMMMNBVCCVBNMmnmNBCCCCVVVVCCZCVBMMBVZZAASSSSSAZBmbcxxvnNBCCZZZZZAAAZCBNNBCASSAZCBNMmnbnbvxzxvmNVCCCCVVBBBBVVBNMnnnnmNVCCVVBBBVCVBMnnMNBVBBBVVBBMnczzxcbmMBBVCCZZAAAZZCCBBBBVVCZZCBMMMNNMMmmMMNBVBBBNNMMNNNMmmmmMNNBVVBBNNNMNVh",
"fNNMnvxxxxzlklxvmMMmnnnnnbvvbnmmnnbnmNNBVVCZZZCCVBBMnbbnNVCCCVBNmnnnnMBVZAAAAAZCVBNNMmMMNBVCZZCCCVVVVVZZAAAZVBNMNNBBBNmnbvbbnmMBVCZCVBBBCZASAZVVVCZASSSAZCVBNMmnnmNVZZCVBBBBNMNNBVCZZAAAAAZZZASSAZVNmmNBCCVBBNBBVBBNNNVVCCCVVBBBNNNNVCCCBNNNVVVVBNBBNNMmnmNBCZZZZCCCZZZCCVBNNNNmnbbbnmMmnbbnNCZZVBNNNNBVVVVBMMmmmMNVCZZZZZCCZZAZCVNNBVCZAASSSSSAZBmclklzbmNVVCCZZZZAAZCBNNBCASAACVNMmnbvvczlklxvmNVZZZCVBBBVCCVBMmmmmmNBVCVVBBBVVVBMnnMNBVBBVVVVVNmbcxcvnMNBVVCCZZAAAAZCVBNBBVVCCCCVNNNBBBNMMMNBVCVVBNNMNNNNMMmmMNBVCCVBNMMMMNVj",
"hVBMbczzccccxxcvmMMmnnmmMmmmMMNNMMmmMNBVCZAAAAZZCBBMnbvnNVCCVBNmbbbnmMBVCZAASAAZVBBBNNNNNNBVCCCCCCCCVCCCCCCVBNMmMNBVVVNmnbvvvbmMBVCVVBBVCASAZCVVVCASSSAAZZCCCVBNMNVCZZCVBNBBNNNNBVZAASSSSSSSSDDDSACBMMNBVVVBNNBVVVBBNNBVVVBBNNNNMMMNVCCVNmnnMNBNNMNNNNMMmMNBCCCCCCCCZZZCCVNMMmnbcccvbbnbvccbNVZZVBNNBBVVCVBMmnnmMNBVZAASSSAAAAAAZCBNBBCCASSSDSSAZVmcljjlvmNBBBVVCCZZZZCVBBVCAAZCBNmnbvcccxljhjlxvmBCAAAZCCCCZZCVNNNNMMNBVCVVBBBBBBNNMMNBBBBBVCCCVBNmbvvbmNNBVVVVVCZAAAZCBNNNBVVVCCCCBBBBBBBNMMNBCCCVVBNNNNBNNNNNNBVCCCVNMmMMMNVj",
"jZVNnvccbnnbvvvbmMMMmmMNNNNNNBBBBNNMNNBVCZASSSAZCVBNnbbnNBVVBNMmbvbnMNBBVCZAASAZVVVVVBBNNMMNBVVVCCCCCCCVVBBBNMmmMBVCCCBNmnbbbbnMNBBBBBBVZASAZCBBVZAAAAAZZZZZZCVBBVCZAZCBNNNBBBBBBVCZAASSDDDDDDDDDSZVMmMNVVVBNNBVCCVVBBBBBNMmmmmmmMMNVVVBMnbbnmNNMMMNNNNNMMNBVVVVCCCCCCCCVBNMmbvcxxxxccvvcccbMVCZCVBBBBVCCVNMnnmMNBVCZAASSSSSSSSSACBNNNBVZASSSSSAZVMvljkzvmNBNNNBVCCZZZCVVVCZAACVNmnbccxxcxlkjjkzxbNCASAAZCCZZZCVBNBBBNNBVVVBNNNNMNNNNNBBBBNBVCCCCVBNmnnmNBBVVVVVBVCZAAZCBNMNBVVVVVCCVBNNBBBNMMNBCCCCCVVBBNNNMMNBVVCCCCBNMmMNNBCj",
"lAZVMmnmNNNMmnnmMNBBNNBBBVVVBBVVVBNNMNBVCZAAAAAZCVBNMmmmNBBBBBNMnbnmNNNNNBVZAASAZCCCCVVBMmnnMNBVCCZZZZCBNMMMMMMMNBVCZCVBMMmmmnmmMNNNNNVCASSACVBBVCZAZZZCCCZZZCCVVCZAAACVNNNBBVVVBVVCCZZASSDFDDFDDSZVmnnmBVVBNNBCZZZZCVBNMmbvvvvbmMNBVVBNnbvvbnMNMMMNNBBNMNNBBBBBBVVVVVVVVBNMbvcxxxxxzzcccccvMBCZZCVVBBVCCVNMmmMBVCCCZZZASSSSSSSSACVNmmmNVZASSSAAZVNbxlzcbMBBNNMNBVVCZZCCCCZAAZVNmbvcxxxxcvcxzlllxbMCASAACCVCCCCVBBBVVVVVVBNMMMMmnmMBBVCVBNmmNVCZCCVBNMNNVVCCCVVBNBVZAAAZBNMNBVVVVVCCVBMMMNNMmmmNVCZZZCCVBNMmmmNBVCZZCVBNMMBBVCZj",
"lSAZVBBBCVBNMmMMBVCCCVVVVVVVBBVVVVBNNNBVCZZZAAAZCVBNMMMNNNNNBBBNMmMNBBMMmMBVZAAAAZZCCCVNmbvvnMNBVCZAAACVMmmMMMNNBVCCZCVVBNNNNMMMMMMMMNVZASAZCBBBVCCCCVVVVCZZCCVVVCZAAACBNMNBBVBBBBBBBBBVZADDDFDFDSZVmbbmBVVVNNBCZAAAZCBMmbvvcccvmNBVVBNMnbvbbmMNNMMMNBBBNNBBBNMMNBBVBBNNBBBMnvxxcccxzzcvvvvnMVCZZZCVBBVCCVNMmMNVCCZCCCCZASSSDDDSACVNmnnmBCAASSAAZCNmvcvbmNBVBNMNNBVCCZZZCCZZZCBMnvcxxxcvbnnbvcxxcbNCASAZCVBBVVVBNBVVCCCCVBmnnnnnbnMNVCCVBMnnMVCZCCCVVVVCZZZCCVVBNNBCAAAZVBNNBVVVVVCCVBMmMNNMmnmMVCZZZZZCVNmnnmMBCZZZCVBNNBVCZZZj",
"lSSAZZZZZCBMnnMBVZZAAAZZCVBNNNBVCCVBNBBVCCCCZZZCVBBNNNNNNMmMNVVVVBBVVBMnbnmNVZAAAZCCVVBMbcxcbnMNBVZASAZVBNMNNNBVCCCCCVVBBBVVVVBNNMMMMNVZASAZVBNNBBBBNBBVCCZZVBNNBCZAAZVNmmMNBBNMMMMmmnmMBCADDDFFDSZVmbnMBCCVBBBCZASSACBMmnbbbvvbmNVVVBNMmnnnmMNNNMmMNBBBBBBBNNmmMNBBNMmmNBVBMnvcvvvcxxvnmmmMBCZAAAZCVVVCCVBNMNNBVCCCVVVCZASDDDSAZCBNnbbmNVZAASAAZCBMnnmMBVVVVBNNBVVCZZZZCCCZZCBMbvcccvnmMNNMnbvbbmBCAAAZBNmmMNNNNBVVCZZCVMbvvvbbvbmNBVVVNMnnMVZZZCCCCZZAAAZZCVBBNNBVZAAZCVBBVVVVVCCCCVBNBBBNmnmMBCCCCZZZVBMnnmMBCZAAZCVVVCZAAAZj",
"kAAAAAAAACBMnmNVZASSSSSAZVBNNNBVCCCVBBVCCCCCZZZCBNMMMNBNMMmMBVCZCCZCCVMnbbnmNCZAAZVBBNMmvxzxvnmMBVZAAAACVBBBBVCCZZZZCCVVVCZZZCVBNMMMNBVZASAZVNMMNNNMMMBVCZZCBNmmNVZAACBMnnMNBBMmmnnnbvvbmBCADDFFDSZVMmmMVCCCVBVCZAAAZCBMmmmmmnbbMNVVVBNMmnmmMNNNNMmmNBVVVVVBNMmnmMBBNMnmNVCCBMmnnnnbvbnMNBBBVCZZZZZCVVVVCVBNNMMMNBBBBBVCZASDDDSACVBNmnnmBVZAAAAZCVBNMNBVCCCVVBBBBVVCZZZZCVVVCCBMbvvvbmMNVVVBMmmmMNVCAAACBMbbmMNBBBVCCZZCBMbvvvbbvvnMMNBBNMnmNVZZZCCZZASSSAAZCVBBNNNBCZZZCVVVCCCCCZZZCVVVVVBNmmmMBBBVVVCCCBNMmMBVCASSAZCCCZASSAZj",
"hZZAAASAZCNMmMBCASSDDDSAZVNNNBVCCCCVVVCZZZZZZCCVBMnnmMNNNMMNVCZAAAAAZVNmnbbnNVZZZCNMMmmnvczxvnMNVCZZZZZZCCCCCZZZZZZZZCCCCCZZZZVBNMMNNBVCAAZCBMmmmmmmmMNVCZZCBMnnMBCZZVMnbnMNBBMmnnbbvvccbmBCSDFFDSAVNMNBVCCCVVVCCZZCCVNMMNBBNMmmMNBBBBNMmnmmMNNNMMmmNBVCCCCVBNmnmMBBBNmMBCAAZVNMMMMMMMBVCCVVVVVVCCCVVVVVVVBNMnbbnmMNNBVCASSDDSSZVBBNMMMNVCCZAAAZCVBBBVCZZZCVVVBBBBBVCZZCVBBBVVBMnvbnMNBVCCCVBNBBBVCZAAACBMbbnMBVVCCCCCCVBNmnnnbbvvnnnmMMNNNNVCZZZZZZASSSSAZCVVVBNNNNVCZZCCCCCZZZZZZCVVVVVVBNMMMNNNMMMNBVCVBBBBCZZASSAACCCZASSSAj",
"gVCZAAAZCVBNMNVZASSDDDSAZVBNBBVCCCVVVVCZAAZZCCBNMmbbnmNBNNBVCZAAAASAACVNmnnmMBCCVBMnnnnnvczxvnMBVCCCCCCCCZZZZAAAAZZZZZZCCCZZZCVBNMMNBBVCCZCVNMmmmmmmmMBVZZZCVMnnMBCZCVMnbnMBVBNMMmmnbvccvnMVASDDFDACBBBBVCCCCVCVVBBBBBNNNBVCVBMmMMNNNNMmbbbnMNBNNMmmNBVCZZZCBNmnnMBVVBNNVZSSAZCVVVVVVCCZZZVBBNBBBBVVBBBBVVBNMnvcvbnmNBCZAASDDSAZVBNNNBBVVCZZAAAZCVVVVCZZZCVVVBBNNNNBVCCVNNNNVVVNmnnmNBVVCCCVVVVCCZZZAAAZBMnnmNBCZZZCCCCVBNMmmnnbbbnnnnnmNBVCCZZCCCCZASSSAZCCCVVVBNNNBVVVCCZZZZAAAZCVBBBVBBNMMMNNNMmnnmNBVCVVCCZZAASSAZCCCZAASSAk",
"dMBCCZCCVVBBBVCZAAASSSSAZCVBBVVVVVBBBVCZAAAZCBMmnbvvnMBVVVVCAAAAAASSAZCVBNMMMNBBNMnbbbnnbvxxvnMBVCVVNNVVCCZZAAAAAZCCZZZZZZZZZCBNMMMNNBBVVVVBNMmnmmmmMNVCZAAZVNnnmNCCCBMmnmMBVCVVBBNMmnbvvbMBZSDFFDSACVVVVVVCCCCVNmnnMNNBBVCCVBMmnnmMMmnvcxcbmNBBNNMMNBVCZZZCBMmmmMNVCCCCZASSSSAAAAAAAAAAZCBNMmMMNNBBNNNNNNBNMnvcccvbMBCZZASSSSACVNNNNBVCCCZAAAAZCVVCCZAZZVBNBBNNNNNNBVVBMmMNVCCVNMMNBBVVVVVVVVCZZZAAASAZVNMMNBCZAAZZZCVBNMMMmmmnnnmMnnbnNVCZZCVVBBVCZAAZCVCCZZCVBNNNNNMMBVCZZAAAAZVNMMNNMMmnmMNNNMbvvbmNBVVVCZZAAAAAAZCCVVCZASSl",
"dMBVCCVBVVVVVCCZZZZAAAAZCVVBVVBBBBBBBVCZAAAZVNmbbbvbmNVVVCCZAAAAAAAAAAZCVBNNNNNNMmnbbnnmnbccbmNBVCVBMMBVCCCCZZAAZZCCZZZZZZZZZCBNMMmMNNBBBBNNMmmmmmMNBVCCZAAZVNmmMBCCCBMmnmMBCZZZCVBNNMnbnmMBZASDDDSAZCCVBBVCZZCBmbcvnmNBVCZZCBMmnnnmMmbczzxvmNBVBBNMNBVCZZCVNMMmmmNVZAZAAASSSSSSSSSSSSAAZVBMMmMMNNBBNNMMMNBBNMnbvvvbMBVCCZAASAZCVBNNBVCZZZAASAAZCVCZZAAZCVNNNNNMMMMNBBNNmmmNBVCCVNNNBBBNNNNBVCZZAAASSSAZVBBNVCZAAAAAAZCBMmmMMMMMMMNNMnbnMVZZZCVNMMNBCZZCBBVCZZZCVBNNMmnnmNVCZASSACBMnnmMmmbbnmMNNMnbbnmNNBBVCZZZZZZZZZCVBNNBZASl",
"gBVVVBNNBVCCCCCCCCCCZZZCVBBBBBNMNNBBBVCZZZZCVNnbbbbnMBVCCCCZZZZZZZAAAAZCCVBBNNMMmnmmmMMMMmbbmMNBVVBNMMNBVVVVVCCCZCCCCCCCZZZZZCVBNmnnmMNBNNMMmmmmMNBBVCCZZAZCVBNNNVCZCVMmnnMBCZAACVBNNMMMMNBCZASDSSAZZCCCVBVCZZVNbxzzcbmNVCZZCBNMnnmmMmbczzxbmNVCCVBBBBVCZZCBNMMmnmMBZAAAAAASSSSDDDDDSAZCVBBNNNBBBBBBNMMmmMBBBBNMmnnmNBVVVVCZAAZCVBNNNBCZAASSSAAZCVCZAAZCVBBNNNMMMMMMNNNMmmMNBVCCVBNNBNMmmnmNVCZZZAASSSSZVVVVCZAASAAAAZCBMmmmMNBBBVVVNMnmMBCZZCBMmnmMBVBBMMNVZAAZCVBNmnvvbmMBCASSACNmbbnmmmnbbnmMNNMMMNNNNNBBVCCCCVVVVVVBMmnMVZSl",
"hCCCVBNNBVCCCVVVCCVVVVVVBBBVVBNMNNBBVVCCCCZCVNmnnnmMBVCCCCCCCCCCCCZASAZZCVBBBBMmmmMMNNNNNMmmMNNBVVBBMMBVVVBBBVVVVCCVVVVVCZZZZZCVNmnbnMNBBNMMMmmMNBVCCZCZZZZCVBBBBVZZZVNMmnmNCZAACBMMMMMNBVCCAAAAAAZCCCCCVVVVCCBMvzllxbmMBVCCCVBNMMMMNMbcxxvnMBCCZCVBBBVVCVBNMMmmnnMVZAAAZZZZAASDDDDDSZVBNNBBVVCCCVBBNNMmMMBVCCVVBNMMBVVBNBVZAAZZCVBNBBCAASSSSAZCVVCZAZCVVBBBBBNMMMNNNNNMMMNNBVVVBBNNBBNmnbnmBCZZCZASSSAZCVVCZASSAAZZAZCVMmnmNBVVCCVVNMmmMBCZZCVNmnnmNBNMnnMBCZZZCCVBMnvcvnmNVZAAZVMnvvnmmmnnbnmMNNBBVVVBNNBBVVVVVVBBBBBNmnbnBZSl",
"kAZCVBNNBVCCCVVBVVBBBBBBBBVCCCVBBBBBBVVVVVCZCVBNBBBVCCCCVVBBBBBVVVZASSACVVBBVVNMmmNBVVBBBBNNNNNBVVCVBBVVCVVBBNNNBBBBNNNNVCZZZZZCBMnnnMNBVBNNMMMMNBVCZZZZZZZCVVVBVVZAZCVNMmMNCZZCBMnbnnMNBVCZAAAZZCVVBBVVVVBBBBNmczzzcvnmNBCCZZCCVVVVBNmbvbmMNVCZZZCVNNNBBNNMMmmnbnNVZSAZCVCCZAASDDDSACNmmmNVCZZZZCBNNNNNNBVCZZZCVVBVVVVBMNBCZAAZZCVVVVZAAASAAZZCVVCCZCVBBVVCCVVBBBBBBBBBNBBBVVBBNMMNBVBMnbbmNVCCVVZASSAZCZZZAASSAZCCCZCVNMmmNVCCCVBBMMmmMNVZZZCVNMMNBBNMnbmNVCCCCCCVNmbvbnmNVCZZCVMnvvbnMMMMmmMMNBVCZZCVBBBBBBBBVVBBNNNNmnbnNCAl",
"lSAZCBNNNBVVVVVBBBNMMNNBBVCCZZCCVBBBBBVVVVCZAAZCCCZZZZZCVBNMMNNNBVCASSZCVBBBVVBNmmNBVVVBVVVBBBNNBVCCVVVVCCVBBNMMNNNMmmmMBVCZZZCCBMmnmMBVVVBNNNMNBBVVCCZZZZZCCCVVVCZAAZCVNNNBCCCVNnbvbnmNVCZZZZZCCCVBNBVVVVBNMMmncxxxvbnnMNVCZAAAAZZCCVNmmMNBVCCZAZZVBNNMmmnnnnnbbnNVZAAZVBBVCZZASSSAZVMnbnNVZAAAZVBBBBBVBVVCCZZCCCCCCVBMmmNVZAAAZZCVVCZZAAAZZCCVBBVCCVBBBVCZZZCVVVVVCCVVVVVBBNNNMmMNVCVBmnnmNBVVBVCZAAZZZZZAASSAZCVVVCCCBNmmNVCCVBNMMMMMNBCZAAACVBBBVVBMnbmMNBVCCZZZVNmnnnmNBVVCVBNmnbnmMMNNMMMMMNVCZZCCVVVVBNNNBVVBNNNMmnbnNCAl",
"lDSACVNMMNNBBVBBBNMmmmMNBVCAAAAZVBNNBBVVVCZASSSSSSSAAAZVBMmnmMMMNBCASAZVNNNBVVBNmnMNBVBBBVVVVBMMNBVVVVVVCCCVBNMMMMmmnnmMNBVCCCVVNMmmmNBVVVNNNNNNNNNBVCCZZAAZZCCVCZASSAAZVVVVCCVBMnbbnnmMBCCZCCCCCCVVBBVCCVNMnnnbvccvnmmmmMBCZASSSSAAZCVBBVCZZZAAAAZCVNMmvcxxcvbbbmBCAAAZVBBVVCCZZZAACVMnbnNVCZZZCVBBVVCZZCCCVVVVCCCCCBNmbnMBCZAZZCVVVCCZZZZCVVBBBBVVCVBBVCZAAAZZCZZZZZZZCVBNMmmmnmMNCZZCBMmmNNNNNBCZZZCCZZAAAAAAZCBBBVCCBNMMNBVVBMmmmMNBVCZAASSAZCCCCCBNmnmmMNBVCZAACVMmmMMNNNNBBNNNMMMMMMNNNMmnnmNVCCCCCCCVBNMNBVVVBBNMMmmMBZSl",
"zDDAZVNMMmMMNBBBNMmmnnmMNVCASSAZCBNNNBVCCZASDFDDDDDSSAZVMnbbnmMMNBCAAAZVMmMNVVBNmnmNBVBBVVCCVBMmmMNBBBBBVCCVBNMMMMmnnnnmMBVVVVBNMmmmMNBVVBNMMNNNNNMMNBVCZAAAAZCCCZASSSAZCVVBVBNMmnmmmmmMBVCCVVVCCCCVVVCCZCBMmnnnbbbnmMMmmMBCZSSSSSAAAZCCCCZASSAAAAZZCBMnczllxcvnnMVCAAAZVBBVVVVVVCZZCVMnnnNBVCCVVBBBVCZAAZCVBNNBVCCCCBMnbbmBCZZCCVBBVVVCCCCVNNNNNBVVVVBVCZAAAAZZZZAAAAAZCVNmbvbbbnMBCAAZCBMmMMMMNBVCCCCCZAAAAAZZCVNNNBVVBNMMNBVVNMnnmMBVCCZAASSAZZCCZCVBMMMMMNBVZASSACBNNNNNMMMMNNBBBBNNMMNNMMnvvvnMBVVCZZZCBNMNBVCCVVBNMMMNVZSl",
"zDDSZVNMmnnnMMMNNNMMmnmmNBVZASSACVNNNBVCZASDFFFFFDDSSZCBmbvbnmMNBVZAAACVMmmMBVBMnnmNVVVVCZZZCVMmnnmMMNMNBBVBNNMMMMmmnnmmMNVVVBMmnnnmmMNBVBNMMMNNNMnmMNBVCASSAAZCZASSSSAZVBNMMMMmmmMNNMMNBBVVVVVVCCCCCCCZZCVBNNNMmmmMMMMMmMBVZASSAAAZZZCCCZASSSSAAZZZZVNmvxllxcbmMBCZAAZCVVVVCVBBBVCCCVNMmmNBBBBBNMMNBCZAAZCBmnmMBVZZCVMnbnMBCCCVBNNNNBVVCCVBMmmMNBBVVCCCZAAAZZCZZZAASSAZCBmbcxcvbnNVZASAZVNmmnnnMNVVCCCCZZAAZZCVVBNNNBVVBNNNBVCVBNmmmMBVCZZZAAAZCCVVCCCVBBBBNNBVZASSAZVVVVVNmnnmMNVCCCVBNNNMMnvxzzcbmNVCZZZVBNNNBVCZZCVBNNNBCZSl",
"zDDSZVNMmnnnmmmmMNBNMMmMNNBVZASAZVBNNBVZZASDFFFFFFDDSZCBnbvbmMNBVCZAAZCBMmmmNBNMnnMNVCCCZAAAZVMnbvbmMMMMMNNBNMMMNNMMmmmmMNBVBNnbvbnmmMNBBBNNNNBNMmbbnMNBCZASAAZZZAASSAZCBMmnnnnmmMNBBBNNNNBBVVVVVVVCCCCCZZCVVVVVNNMNNNMMmMNVZAAAZZZZZZCCCZASSSSSAZAZZCBmbcxxcbmMBVCZZZZCVVVCVVNNNNVVCVNMMMNNNNNMMmmMNVZAAZBMbbbmNVZZZCNMmmNVCCVBNMMMMMNBCCVNmnnmMNBBVVCCZZZZCVCCZAAASSAACNmvxxccbnNVZASAZVNmmnnnMNBVVVCCZZZCCVVBBBNNNNBBBBBBVCZCCBNMMNBCCZCCZZCCVBNBBVVCCCCVBBBBZASSAZCCCCCBMnnnMNVZZZVBNNMMmnvxkkzcbMBCZZCVBNNNNBCZZZCVBBBBCZAk",
"zDSAZVNmmnnnmnnmNBCCVBNNMMMNCZSSACVBBBVZASDDFFFFFFDDSACBmnnmMNBVCCZZZCVBMmnmMMmmnnMNCZZAASSSACNnvvbnMNMMmmMMMMMNNBNNNNNNMNBBNmvccvmMMNNBVVVVVVBNmnvvbmMNVCZAAAZZZZAAAAZVNnvccvbnmMNBVBNNMMNNBVBBNNNBVVVVCZZZZZZZCVBBBNMMMMBVCCZZCCCCCCVVVCZASSSSAAAZZVNmnbbbnmMNBVCZZZZCCVVVVBNMMMNBVBBNNNNNMmMmmnnmNVZAZCMnvvbmBCAAAZVBNBVCZCVBNMmnnmMNVVBMnnnmMNNNBVCCZZCVBBVCZAAAASAACBMnbvvvvnMVCZAAZCBMmmmmMNNBBVCZZZCVVBNNNNNNNNBBBBVCZZAAZCVBNBBVVVVVVVBNMmmmMNBVCZZCVBNNVZAAZZCCZZZVNmnnMNCZZCVBNNMMMmbclklzvmBCZZVBNNNNNNVCCZCCVVBBVVCh",
"lSSACBMmmmmmmnbnNVZAZCVBNMmMVZSSAZVBNBVZASDDFFFFFFFDSSZVNMMNBBVVCCVVVBBNMmnnnnbbbnMNCZASSDDSACNnvvbmNBNMmnmMMMMNBVBBBBBBNNBNMncxcbMNNNNBVCCCCCBNmbvvbnMNVCCZZAAZZZZZAZZVMnvccvbnnmNBVVNMmmMNVVBNmmMNBVVVVCZZASSAZCVVBBNNNNBBVVCCCCCCVVVBBVCZAASSSAAACVMmmmmMMNNBBVCCCZZZCVVVBNMmnnmMNBBBBBBNMmMMMmnmNVZAZVmbccnMVZASSAZCCCZZAZVBNMmnnnmMNBNMmnmmMNNNNBVCCVBNNNVCZAAAAAAACVNMmnbbvbMBCZAAZCBNMMMMNNNNBVCZZZCVBNNNBBNNNNBBBVCZAASAAZCVVVVBBBBNNNMMmnnnmMNBCZZZVBNNBCZZZCCCCZZCBNMMNBCZZZVBBNNNNMnvzllzvnNVZCBNNNNNNNBVVCCCCCVVBBNf",
"jAAZCBMmmmMMmmbnNCASAZCVNMmMBZASAZBNMNVCZASDFFFDFDDDSSACBBBBVVVVVBNMMMMMmmnbvcxxvbmNVZASDDDSZVMnbbnMBVBNmnmmMMNBVCCCCVVVVBBNmbvcbnNBNNNBVCZZZZVNmbvvbnMBVVVVCZZZCCCCZZCVNmnbbnnnnmMNBBNMmmNBVVBMnnmNBVVVVCCZASSSAZCCVVBBBBBBBBVVCCCCVVVBBBVCZZAASSAACBMmMMNNBBNNBVVCCZZZCCVBNMnbcxcbmMNBVVBBNMNNNNNNVCAACBnvvvmNVZAASSAAAASSAZCVBNMmmmMMNNMmmmMNNNNNNNBBNNMMMNVCZAAAAAAAZCBNMmnbvbMBCZZZZCVBBBBBBNNNBVCZZZCVBNNBBVBBBBVVBVZAASAAAAZZCCVBNMMmmmnmmmmmnmmNVZAZCVBNBVCCCVVVVVCCCVBBVCZAAACVVVBBVBMnvcxcvnNBCCVBBBBBBBBNNBVCZZCVNMms",
"hCZCVNMmmmMMMMmMBZSSSAZCBNMNBCAAACBNMNVCZASDDDDSSSAAAZZCVVVVCCCVBNmnmmMMmmnbcxzzcbmNBCZASSSACBmbbnmNVVVBmmmMMMNBVCCCCCCCCVBNmnbbnMNBNMMNBVZZAZVBmbvvbmNBVVVVCCZCCVVVCCVVNMMMMMmmnnnMNBNNMMBVVVBNmnMNVVVVVCCZASSSAAZCCCVVVBNNNNBVCCCCVVVBBNNBVCZZAASACBMMMNBBBBNNNNBVCZAAZCCVNMnvzlzxvnMBVCVVBNBBVVVVCZAACBnbvbmNVCZZAASSSSDDSACVVBNMNNNNNNmmmMNBBBBNNNBNMMmmMNBVZZAAAAAZCVBNMmnbvbMBCZZZZCCVVVVBBNNNBVCZZZCVBNBBVCVVVVVVBVCAAAAAAAAAZCVBNMmmmmmmMMMMmmmNVZAAZCVBVVCVBBNNNBVVCCCCZZASSAZCCVVCCVNMnbvvbnMNVCVVVVVVBBNMMMBVZZCVNmba",
"hVCVBMmnmMMNBBBBCASDSAZCVBBBVCZZZCBNNNVZASSDSSAZZCCVVVVVVVVCCZCCBMnbnmMNNMmnvxzxcnmNBVCZAAAZVNnbbnmNVCVBMMMMMMMNBVVVVVVVCCVBNMmmMNNNMmmMNVCCZZVBMnbbnmNVCCCCCCCVBBNBBBBNNNBBBNMmbbbnNBVVBBBVVVBNMMNBCCCCCCZAAASAAAZZZCCCVBNMMNBVCZZZCVVBNMMMNBVCZAAAZVNNNBBBBNMmmMNBCZAAAAZZVBmbzklzcbmNVCCCVBBBCCZZAASACBmnnnmMNBVVCZASDDDDSACVVVBBVVVVBNmnmMNBVVVVBBBBMmmmMMNBVCZZAAZCVBMmnbbvvbMBCZZZCCCCVVVBNNNNBVCCZZCVBBVVCCCCCCVBNBCZAAZZZZAAZZCVBNNNNNMNNBBBNNNNVCZAAZCVVVVBNMmmmmMBVCZAASSDDSAZCVCCCVNMmnnbbnmMBCCCVVVBBNMmmMBVZZCVNmba",
"hCCVBMnnnmMNBVVCZADDSAAZCCVVVVCZZCBNNBCZASDDSAZCBNNMMNNBBBVCCZZCBMnbmMBVBBNmbcccbnMNNBCCZZCVNmbvbnmNVVCVNMMMMMMMNNBBBBVCZZCVBNNNNNNMmnmMNBVCZCVBNmnnnMNVCZCCCCVVBNNMMMMNNNVCVBMmbbvnMBVCVBBBBBBBNBVCCZCCZZAAAAAZZZZZZCCCVVNNMNBVCZZZZCVBMmmmMNBVCZAAZCBBBBBBNMmmmmMBCZASSSSAZVNnxllzxvnMVCZZCVBVCZAAAAAACBMmmmMMNNNNBCASSDSSAZCCCCCCZZZCBNnnnMBVCCCCCCVBMMmMMMMNNBCZZZCVNmmnbbbbbnMBVCCCVVVVVVBNMMMNBVVCCCVVBBVCZZZZZZCBNBVCZZZZZZAZZCVVBBBBBBBBBBVVBBBBBVZZZZCVVVBNMmnnnnmMBCZASDDDSSZCBBCCCCBNMmmnbbnMVCZZCVBBNNmmmMBVZZCVNMns",
"jZZCBNmnnnmMNBVCZSSDSSAAAZCVBBVCCCVBNBVZSSDDSACBMmnbbnMNNBBVCZZZVNMmNBCCCVBNmnbnmMMNNBVCCCVBMnvcvbmMBVVVBNMMmmmMMMNNNBVCZAZZCVBNNMMMmmMMNBVVCCCVNMmnmmNVCZCCCVVVVBNMmnmMNBCCCVNmnbbmNVCVVBNMmmMNBVCZZZCZZAAAAZCCCZZZCCCCVVBNBBBVCZAAZCVNMmnmMNBVCZAAAZVBBBBBMMmnmmNBCZAASSSSAZVMbcxxxvbMVZZZCVBVCZZZZZZZCVBNNNNNNNMMNBCZASSAAAZCZZZAASAZVNnbnMBCCZZZZZCVNMMNNNMmMNVCZZVNmbbbbnnmmmMNBVVVBBNNBBNMmmmMNBBVVVBNNBCZZAAAAZVBNBVCZAZAAAAZCVBBVVCCCCBBNNBVVVBBNBVCCCVBBNNMmnnnnnnmNVZASDDSSZVBMNVCCCBNMmnbbbnMVZAAZVBNMMmmMNVCCCVBBNMd",
"kAAZVNmnnnnmMNBVZASDSSSASAZCVBVVCVBNNNBCASDDSACBMmnbbnMNNNNBVCZZVBMMBVZZZCVBNMMMMNNNNBVCCVBNMmbvbnmMNBVVBNMmnnmmMMNNBVCZAAAZZVBNMMMMMMNNBBVVCCCVBMmmmMNVCCCCCVCCVBNMmnmMBVCZZVNmnnnmBVCVBNMmnnmMBVCZCCCCZAAAZCVVVVCCCCVVVVVBBBBVVCZZZCVBMmmmMBBVZAASAACVBBBBNMMMMMNVVCZZASSSSACBmbvvvvnMBCZZZCVVCCZCCCCCZCVVVBBBBNMmMNVCZAAAAZZZZAASSSSACBmnmMVCZZZZZZCBNMNNBNMmMMBCZZVNnbvbbnmMMMmMMNNNNMMNNNMmnnmMMNNBBBNMMNVZAAASAZCVBBVCZAAAAAZCVBNNBVZZZCVNMMBVCCVBNNVVCVNNMMMMmnnnmmmmMBCASDSSZCBMMMVCZCVBNMmnbnMBCASSACBNNNNNBVCCZCVBBBBg",
"lSSACBMmmnnnmMNBCASSAAAASSAZCVVVVBNMmmMBZSDDSAZVBNMMMMNBNNNNBVCCBNMMNVCCCCCVBBBBBNNNNBVCCCVBBNmnnmmMNNBBNMmnbbmMNBBVVCZASSAAZCBNMMMNBBVVBBVVCCCVBNMmMMBVVCCCCCCCCVBNMMNNBVCZCVNMnnnMBVVBMmmmnnmMNVCCCVVCCZZZCVNNNBVVVVVVVVVVVVBBBVCCZZCVNMmmNBCZZASSAACVVVVVVBBNNBVVVCCCZASSSAZVNMmnnnmMBCZZZZCCCCVVVVCZZZZZCCCVVBNMMNBVCCCZZZZZAASSSSSAZVNMNBCZZZCCCCVNMmNBVBBNNNVCCCVBMnbnnmNNNMnnnnMMmmMMNNMmmnmmmMMNNNMmmMBCAASSAZCVBBBVCZAAAAZCBNNNBVZZZCVNMMNBVVBBNNVVVBMmmmmmnnnmMNNNNBVZASAZCBMMMNVZZZZCVNMmnmNCASDSSACVVVVVVCZZZZCVVVVg",
"lSSAZVBMMmmmmMNBCZASAAZAASSACVBNNMmnnnmNCASDSSZCVVVVVVVBBNMNBVCCBNMMNBVVVVCCVVCVVBNNNBCZZZCCVBNNMMMMMNBBNMmnbnmMNBVCZZASSSSAZCBNMNNBVCCVBBVVCCVBNNMMMNBVCCCCCCZZZCVBBNBBVVVCCVNMnnnMBVBBMMMMmnnmMNVVVVVVVCCVBNMMMNBBVVBVVVVVVVBBBBVVCCCCBNmmNBCZAAAAZZCVVVCCCVVBBVCCCVVVCZASSAZVBBNNMMMNBCZZAAZZCCVVBVCZAAAAZZCCCVBNNMNBVCCZZZZZAASSSSSAZZVVVVCCCVVVVVBNMMBVVVVVBBBVVVVVNMmmMMNBNMnbbnmmmmMMNMMmmmmmmmmMMMmnmMBCZAAAAZCCVBBVCAASAAZCVBNNBVCZZCBNMMNBVVVBBBVVVBMmmmMMmmmMBVVBNNBVZAZCBNMMNBCZAZZCVBMmmMBCASDDSSAZZZCCCZAAAZCCVVVh",
"lSSAAZCBBBNNNBBVZAAAZZCCZASACBMnnbbbbbnMVASDDSAZCCZZZZCVBNNNBVCCVNMMMMNNNNBVCZZZCVBBVCZAAAAZCCCVVBNNNNBBBNMmmmMMNBVCZASSSSSAZCVBBBVCCCCVBBBVVVBNNMMMNBVVCCCZZZZZZCCVVVCCVBBBBBNMnbbmNBBBNBBBMmnbmMBBBBBBBBBBNMmmmMNNBVVVVCCCCCVVBBBBVCZCVNmmMNVCZZZZZCCCCCCCCVVBBVCCCVBVVCZAAZCVVVCVVBBBVVCZAAAAZCVVVCZAASAAZZCCCVVBBNNNBVCZAAZZZZAAAAAAAAZZCCCVVBNNBBBBNBVCCZZCCVBNNBVVVBNNMMBBBNMmnnmmmmMMMMmmMMMmnnnmMMmnmMNVVCZZZZCVVBBVCASSAAAZCVBBBVVCCVBNMMNBVVVVVVCCVBNMMNNBNNNVCCCVNNNBCCCCBNMMNVCZZZZCVNmnnMBCASSSSSSSAAAAZAAAAZZCCCVh",
"lSAAAAZCCCVVVCCCZAAAZCVVCZAZCNnvvvvbbnmNVZSSSAZCCCZAAAZCBBNNBVCCCVNNNMMmmMNVCZZZZCVVVCZASSSAZZCCCVBNNNBBBNNMMMMMMNBVZASSSSSAZCBBBVCCZZZCBNNBVVBNNNMMNBVCCCZZZZZZCCVVVCCCVNMMNNNMnbnmMBBVVVVBMnbvnmNBBBBBBNNNNNMMMMNNBBBBBVVVCCCVBBBBVCZZCBmmmMBVCCCCVVCCCCCVVBBBBVCCCVBBBVCZZCVVVCZZCCVVVVCZZAAAZCCCCZAASSAAZCCCCCCVVBNNNBCZAAZZCZZZZZZZAAAZZCVVNMmmMNBVVCZZZAAAZCNMmMBVCCVBNNBVVBBNMMMMMMMMmmmmNNNMmnnmmmmnnmNBBVVVCCVBBNNBCZAAAAAZZCCVVBBBBBBNMMNBVCCCCCCVVBNNNBVVVVCCAAZCBNNBVCCCBNNNBVVCVVVVBMnnnMBCZAASSSSSSSSSAAAAZZCCCCCh",
"kAAAAAAZZZZZZZZZAAAZCVNNBVCCBMbcxcvnmMMBCZAAAZCVBVCZAAZCVBBBVCZAZZCVBNMmmmMBCZZAZZCVVCZSSSSAZCCCVVNNNNBBBBNMMmmnnnMBCZASSSSACVNNNBCCZZZCVBNNVVVBBNNNNBVCCZCZZZZCVBBBBVVVNMnnmMNNMmmMNBVCCZCBmbccbmNBBVBBNNNNBBBBNNBBBBNNNNBVZZZCVBBBVCCCCBMmnmMNBVVVVVCCCCVBNNMNNVCCCVBBNBVCVBNNBVZZZZCVVCCCZZZZZZCCZZAAAAAZVVCCCCCCVVBNNNVCAAZZCCCCCCCZAAAZCVBNMmnnMNVCZAASSSSAZVMnbnMVCZCVVBVVVCCVBNMMMMMmnnmMBVVBMmmmmmmnnmMMNNNBBBNNMMMNVZZAZZAAAAZCVBNMMNNNMMNBCZZZCCVBBNMMNBVCCZAASAZCVBBBVCZZCVBNNNBBBNBNNmnnmMBCCZZZAAAASSSSSSAACVVVCCCj",
"jZCCZZZZZZZAAAAAAAAZCBMmMMNBBMbvcvbmMMNBCZZZZCBBNBVCZAZCVBBBVCAAAAZCVBMmmmMNVCZZZZCVVVZASSAZCVVVBBNNNNBBBBNMmnnnbnmMBCZASSAZCBMMMNVCCZZCVBNNVVCVBNNNNBVCCZCCCCVBNMmmNBBNMmnnmMNNNNMNNBVCZZCNncxxbmNBBBBNMMMNBVCVVVVBBNmmmMNVZAAZVVVVVCCCVBMmnnmMNBBBBVCZZCBNNMMMNBCCVVBBNBVVVBMMNVCZAZCCVVCCCCCCCCVVCCZAAAZCVBVCCCVVCVBNMMBCZAZZCVCCCCVCZZZCVBNMmnbbnMBCASSSSSSSZVMbvbMBCZZCCVVVCCZZCVBNNNMmnnmNVCCVNMMMMmmmnnmMNNNNNNMMmmMNVCZZCCZAAAZZCBNMMNBBMMNVCZAZZCVBNNMNBVCCZAASSAZCVBBVCCZZZZVBNNNNNNNNNMnnMNVCCCCZZZAASSSSSAAZCVBBVCCj",
"hVVBBBVCZZAASSAAAAAZCBmnbnmMNNMmnmmMMNBVVCVVVBNNMNBVCZZCVBBBVCZAAZCCVBNMMMNNBVVCCCVVBVCASSZCVBBNNMMMNNBBBBMmnnnnnnnmMNVCZAAZCBMnnmNBCCZCVNNNVCCCVBNBBVCZZZCVVVBMnbvbnMMmnnnnmMMNNNNNBBVCCVBMvxzxbmMNNNNNmmmMBCCCCVVBNmbvvnNVAAAZVVCCCCVVVBNMMMMMMNNBBVCZZCBNMMMMNBVVVBBBBBVVVBNMNBCZAAZCVVVVVVVVVBNNNVCZAAZCBBVVCVBBVVBNmmMBCZZZCCCCVVVVCCCVBNMmnbvcvnNCASSSSSSSZVMnbnNVCZZZCCVVVCZAZZCVVBNMnnMBVCCVBNNNMMmmnmmMNNNNNNMmmmMBCZCCVVCZAAZCVBNNNBVVBBBVCZAAZCBNNNNNBVVCZZAAAZCVVBVCCZAASACBMMNNBBBBBNMNBVCCVVCCCCZAAAAZZZZZCVBNBVCj",
"hBNMMMBVCZASSSSSAAAZCNnvvvnMNBBBNNNNNNBBBBBNBBNNMNNBVVVVBBBBVCCZZCVVVVBBNNNBNBBBVVVBNBCZAAZCBNNMMMMNNNNBBBMmnnnmmmmmmMNBCZZZVBmnbnmNBVCVBNMNVCZCVBBBVCZZZZCVVBMnvxxcbnnnnnmMMMMMNNNNBVVVVBBMbcxcbmMNNNNMmmnmBVCZCCVBMncxcbNCAAZCVVCCCCVVVVBNNNMMMMNBBVCZZCBMmmmMBVCCVVVVVVCCCVNNNBCZAAZCVBBBVVVBBMmnmNVCZZCVNNBBBBMMNBBNmnmNVCCZZCCCVVBBVVVBNMMmnbvcvbNVZAAAAAAAZVNMMMBVCCZZZCVVCZAAAAAZZCBNmmNBBVBNNNNNNMmmmmMNBBBBBBNMMMBVZZCVBBVCZZCVVVBBVCCCCVVVCCZZZCVBBBBBVCCCZZZZZCCVVVCCZZASSAZVNMNBVVVVVVVVCCCCVVVVVCZAAAZCCCCCCVNMMNVj",
"gBMmnnmNVZASSDDDSSAACBnvcvnMBVCCCCVBNNNNNNMMNNBBBBBBBBBBBBBBBBVVVBNNBVVCCVVBNMMMNBBBNNVCZZCVBNMMMMNNNNNNBBNMmmMMNNNNMmmMBCCCCBMnvvbmNBVBNMmMBVCCVVBVVCZAAZZCVNnvxllzvbnnnnMNNNMmMMNNBVVVBBBNmnbbmMMMMMMMmmnmNVVCVVVNmbxxcnNCAAZVBBCCZCCVVVBBBBNNNNNBBVCCCVNMmmmMBCZZCCCCCCCCCCVBVVZASAZCBNBBBBBBMmbbnmNVCCVNmmMMMmbbnMNNMmmMNBVCCZCCCVBBBBNNMMMMmnbbbnNVCZCCCCZZZCVBVVVVVVCZZZCCCZAASSSSAZVBNMNNMMmmmmMMMMmmmMNBVCCCCCVVVVZZAACVNNBVCVBBBVCCZZZZZCCVVCZZCCVVVCCCCZZZCCVVBVVVVCCZZZAASSZCBNBVCZZZZZZZZZCCBBBBVCZAAACVBNVVVVNMmMBh",
"gBMmnnmMVZASDDDDSSSACBnbvbmNVZZAAAZCBNNMMMMMNBBBBBVBNNMMNNNNNBBBBBNNBVCZZZCVNMmmMMNNMMNBVCVVBBNMMMNNMMMNNBNNNNNBVVVBNMMMBVCCCBMnvvbmNBBNMmnmNVCZCVVVCCZAAAZCBMbczlzxvbnnnmNBVBMMMNNBVVVVBBBBNMMMMNNNMMMMMMmmNBBBNNNNmbvvvmBCZZCVBBCZZCCVVVVVVVBBNBBBBVCCCVNMmmmMBCZZZZZZCCCCCCCCCZASSSACVBBBBBNMmnvvbmNBCVNmbbnmmnccvnMNMMmmMNBVCCZZCCVNNMMMMMMMMmmnnmNVCCVBBBVCCCCCZZCVBBVCZZCCCZZASSDDSACVBBBNmnbbnnmmMMMMMNBCZZZZAAZZZZASSACBMMNBBBNNBVZZAAZZZCCVVVCCCCCCCCCCZZZZCVBNNNBVCZZZZZAASSACBNBVCZAAAAAAAZCVBNNBVCZASACVNMNBVBMmnmNg",
"jVNMnnmNVZASSSSSSSSACBmnmMBCZAASSAAZVBNMMMMNBBBBBVVVBNmmmmMMNNBBBBNBVCZZAAZCBMnbnmMMmmmMNBBBBBBBBBNNMMNNBVBBBBVVCZZCVBNBVCZZCBMmbbnMBBBNmnbnMBCZZCVVCCZAAZZVBmvxxxcvbnnnnMBVVVBBBBBVCCCVVVVCVVBBNNNNNMNNNNNNNMmmmmMMMmnnmMBCZCVBBBCZZCVBBBBBVVBBBBBVBVVVVVBNNMNNBVCZAAAZCVBBBBVCZASSSSAZCVVVVBMmnbvbnMBVVBmbccbnnbcxcbMNNMmnmmMNVCZZZZVBMnnnnmMMMMMMNNBVVVBNMMNBVCZZZZCVBNBVCCCCCCZASDDDSAZCCVBNnbbbbnnnmMMNNBVZASSSSSSSAASSSACBMmMNNNNNBCZZZZCCCVVBBBVVVVCCCCCCCZZZVBMMMMBCZAAAZZZASSACVBBBCZZZZZAAAZCBNNNBVCASSAZVBNNNNNMmmmBg",
"kZVBMMNBCZZAAAAAAAAAZVMmMNCZASSSSAAZCVBNMMNNBVBBVVCCVNmnmmMMNBBVVVVVCCCZZZZCBMnbnmMMmnnnmMNNBBBBBBNNNNBVVVVVVVVCZAAZCVBVCZAZCVNMmmMNBVBNmnnnMBCZZZCCCZZAAZCVNmvcvbnnnnnmMNVCCCVVCCCZZZCCVVCCCCVBNNNNNBBBVBBNMnbvbbmMNNNNNBVCCVBNBVCCCVVBBBBBBVVVBVVVVVVVVVBBBBBBBVCZAAAZCVNNNBVZASSSSSSZZCCCCBMmnbbnmNVCVNnvxxvbnnvvvbMNNmnbbnmMBCZZAZCBMnbbnmMMMNNNBBVVVBNMmmMNBVCZAZCVNMNBVCCCCCZASDDDSAZCCCVBmbbbbbbnmMNBBVCASDDDDDSSSSSSAACVMmmMMNNBVCZZZCCVBBNNNNBBBVVCCCVVVCCCVBMMMNVZAAAAAZZAAAAZVBNBVVVVCCAAAACVBBBVCZASSSACBNNMNMmmmMBh",
"lAZCVBBVCCCCZZZZZZAACVMmMBCAASAAAAAZCVBNNNNBBVVVVVCCCBNmmMNNBVVCCCCCCCVVVVVVNMnnmMMMmnbbbnmMMNBBBBNNBBCCCCVVVVVCZZZZCVVVZAAAZVBNNNBVVVBMMmmMBVZAAAZZZZAAZCVBMnbbnMNNMmmMNVCCCCVCZZAAAZCCVVCCCCVBNMNNVVCCCVBMnbvccbmNBVCCVVVVVVNNBVCCVVBBBBNBBVVVVVCCCCVVBBBBVVBBBBVCZAAACBNMMNVCASSSSSAAZZZZZVNMnnnmNVCCVNnvccbnmmmnnmNNMmvvvbnMBVCZZZZVNmnbnmMMNNNBVVVVVBNMmmMNNBVCZZCBMMMNBVVCCCZSDDDDSAZCCCCVNmmnnnnnmMBVVCZADDDDSSSASSAAZZCVNMmmmMNBCCCCCVVBNMMmMMNNMNBVVVBBBBVVVVNNBVCAAAAAZZAAAAZCBNNNNNNNBVZAAZCCVVCZAASSSSAZVBNNNMmmMBCj",
"lDSZCCVVCVVVVVCCCZZZCVMMNBCZAAZZAAAAZCBNNNNNNBVVCCZZZVBNMNBBVCCCCZZZZCBNNNNNMmmmMMNNMmbbbnnmMMNNNNNNVCZZCCVVVVVVCCCCVBBVZASAZCVBVVCCVVNNMMNBVCCZAAAAAAAAZCVNMmnnMBVBNMMNVCZZCVVCZASSAZCVVVCCCCVBMMMBVCZCCVNMnvcccbmNVZZZCCCVVVBBVVVVVBBBBBNBBVCCCCCCCCCVBBBVVVVBNBVCZAAAZVBNNBCZASDDDSSAAAAAZCBMmmmMBCZZVNnbbbnmMNNNNNBBNmvcvvnmNVVCZZZCBMnnnmMMMMNNBVVVVBNMMMMMNBVCZZCBMMMNBBVVCZASDFFDSAZCZZZCBNmmnnnmmNBVCCZASSSSSAZZAAAZZCCVBMMmMNBVCCCVBBNNMMmmMMMmmmNBBBNMMNBBVBBBVCZAAAZCCCZZAZCBNMMMMMMMNBCZZZZCCCZASSDSSSZCVBBBNNMNBVZj",
"zDSAZCCVVBNMNBBVCCZZCVNMNBVCZCCCZZAAZCBNNMMMMNBCZZAAZCVBNBVVCCCCCCZZCVNMmnmmmmmMNNNNMmmnmmmmMMMMMNNBCZAZCCVVBBBVVVVBNNBVZASSAZCCCCCCVBNNBBVVVVVCZAAAAAAZCVBNMmmMBVVVNNNBCZZCCVVVCASSAZVBBBVVCCVBMMMNVZZCVBMnbbvvbnMBCZAAZCVVCCCCCVVBBBBBBBBBVVCCCCCCCCCVBBBVCCVBBBVCASSAZCVVVCZASSDDDDSSSAAAZCBNMMMNVCZCVNmmMMNBBBBVVVCVNMbvvvnmNBBVCZZCVNmnmmMMMmmMNBBVVBNNNNNNMNBVCCCVNMMMNBBVCZSDFFFDSAZZZAAACBMmnbnmMNVCCCCZAASAZCCCZAAZCCVVBNNNNBVCZZCVNMMMNNNNNNMmbnmNNNMmmmMNBBBVCZAAAZVBBVCCCVBMnbnnmmmMNVCZZZZZZAASSSDSSAZCVVVVVBBVCCZj",
"zDDSZCCVBNMMMNBBVCCCCVBNNBVVCVVVCZAAZCBNNMmmmMVCZASAZCVBBBVCCCCVVVCCCVNMmnnnnmMNBBNNMMMMMNNNMMMMMMBVZAAZCVVBBBBBBBNNNNNBCASSAZZZZZCCBNNNBVVVBBBVCZASSAAZVBNNMMNBCCCVNNNBVCZCCVVVCZAAZCBNNNBVCCVBMMMNVZZCBNmmnnbvbnMBCZZZCVVVCZZZCVBNNNBBVVVVVCZZZCCCCCVVBBBVCCVVVVCZSSSSAZZZZZAASSDDDDSSSAAAZCBNNNNBCZZCBNmMNBVCCCCCCCCCVNnbbbnMNBBVCZZZCBMmmMMMMmnnmMNBBBNNBBNNMNBVCCCVBNMMNBBVCASDFFDSAZCZZASAZCNmbbnMNBCCVVBBVCZZCCVVCZAAZCVBBNNBBVCCZZCBMmnmMNBBBBMnbbnmMMmnnnnmMNBVCZAAAZVBNBVVVNmbccvbnmmMBVCCCCZZZAASSSSSAAZCCCCCVCCCZZCj",
"zDSAZCVBNNNNNNNNBBBBBBBBVVVVVBBBCZAAZCBBNMmmmNVZASSAZCBBBBCCZCVBBBVVVBNNMMmmMMNNBBBNNNNNBBVVBBNNMNBCZAZZCVBNNNNNMMMMMNNBCZAAZZZZZZZVBNNBVVVBNMMBCZASAAZCBNNNBVCCZZVBNMMNBVCZCCVVCZZZCBMmmMNBCCVBMmMNVCCVNMMmmmbbbnmNVCCVBNNBCZAZCBMmmMNBBBBBVVCZZCVVVVBNNNBCCZCCCCASSDSSAAAAZZZAASSSSSSSSAAZCVNNNBBVCZZCBMmMNVCZZZZZZZCCVBMmnnmMNBBVCZAZCVNMMNNNMmnnnnMNBBBBVVVBNNBBBVVVBNMMNNBVZASDDDSAZCVCZASSAZBMnbnMBVCCVNmmMBVCCVBVCZAAZZVBMMNBVVCCZZCBmbbnMBVVCVNmbvbnmmnnbbvvbnMBVCZZAZVBBBBBNMbczzcbmMMNBBVVVVCZAASSSSSAAZZZZZCCCCZZZCVg",
"lSSZCVVBNNNNNNMMMNNNNBVVCCVVBBNBCZZZVBBNMMmmmNVZSSSACVBNBVCZCCBBBBVVVBBNNNNNNNNBBVBBBBBBVCCCVBBNNNVCZZZZCVBNNNNMMmmmMNNBVCZCCVCCZZZCBNBBBVBBMmMNCZASAAZCBNNBVCZZZZVNMmmMNBCZZCCCCCZCVBMmmMNBCCCBMmMNVVVVNMMMMmnbvbnMNBBBMMMNVZAZCBmnmMBBBBBBVVCZZCVVVBNMmMBVZZAZAASSDDSSAAAAZZZZZZZAAAAAAZZCVBNNBVVCZZCVBMmMNVCZZZZCCCCCCVBNMMNNBBBVCZAAZVBNBBBBNMmnbbmMNBVVCCVVBBBBBBBVVBNMNBVCZASSSSAZVBVVCZASAZVMnbbmNVCCBMbvnmNVVVBVZASSAZVBMMNBVVCCZZCBmnbnNBCCZCBMnbnmmmnnnbvcvbmNVCZZAZCVBBBBNmvxllxvmMNNNBBBBVCZASSAAZZZCCZZZZZCCZZZZCBf",
"kZZCVBBNNNNBBNMMmmMMMNBCZZCVBBNBCZCVBMMmmnnmMBCASSACBNMNBVCZCVBNNBVVVVBBBBBBBBBBBVVVVVVVCCZCCVBBBBVCCZCCCVVBNNNNMmmmMMNBVVVBNNNVCZZZVBBNNNNNMMNBCZASAAZCVVVVCZAAZCBNmnbnMBCZZZCCCCCCVBMmmMBVCZCBMmMMBBVBNNNNNMmbvvbnMNNNMmMNBCZZVNmnMNBVBBBBBVCCZCCVVNmnbnNVZASSSSSSSSSAZZCCCCCCCVVVCZZZCCCCVVBBVCZZZZCVBNMMNVCZCCCVBBVVCCVVBBBBBBBBCZZZCVBBVVCCVBMmvvnmNBVVCCCVVVBBNNBVVVBBNBVVCZAAAZCBBNNBVCAAAZVMbcvbMBVVBmvccbMBVVVVZASSAZCBMMNBBVCCZZZVMmmMBCZZZZCBNMMMmmMMMmbvvbnMBCZAAAZCBBBBNMbcllxvmMMMMMNNNBCZSSAAZCVVVVVCZZZCCCZZCVNf",
"hVVVBNNNMMNBBBNMMMMMMNVCZZCVBNNBVCVBMmnbbnnmMBZASSZVNmnmNBVCVBNNNNBBBBBBBBBVVVVVBBVVVVVVCCCCVVBBBBVCZZCCCCVVBBBNNMmmmMNNBVBNMmMNCZAZCVBNMMNNMNNVCZAAZZCCVVVVCCZZZCBMmnnmNVZAAZCCCCCVVBMMMNBVCCCBMmmmMNNNNMNNBNMnbvbnmMNNMmMMNVCCVNmmMNBBNNNNBVVCCZCCVNmbvbMBZSSDDDSSSAZZCCCCCCCCVBBBVVVVVVVVVVVCCZZAZZCVBBNNBVCCCVBNMMNBCZCCVVVVBBBBVZZZCVBBVCCCCVNmbvnmMBVVVVVVVVBBNBVCCCVVBBVVCZZZCVBNMMNBVCZAZCBMbccvnMBBNmvccbmNBVBVCASSAZCBNNNBBBVCZZZCBNNBCZZZZZCCVBNNMMNNNNmnnmmNVCZAAAZCVBBBBMnvzlxvmMNNMMNNNBCASSAZCBBNNNBVCCCCCCCCCVBf",
"fNNBNNNMmmMNBVBBBBBBBBCCZZVBMMMNVVBNmbvvvbnMBCZSSACBnvvvnMNBBBNMMMMNNBBBBBBVVCVVBBBBBBVVVVCVVBBBBBVVZZZCCCZCCCCVBNmnmmMBBVBNmmmNVZAAZCBNmmNNBBBVCZZZCVVVVBBBBBVCCVBNMMNBVZASAZVBVVVVBBNNNBVCCCVBMnbbnnmmmmMNBBNMmnnnmmNNNMMMMNVVVBMMMMNMMMMNBVVCCCZCCBmbvbmBZSDDDDSAZZCCVVVCCCCCVBNNNBBBBBVCCCZZZAAZZCVVVBBBVVCCVNMnbbnMVCCCCCCCVBBBVCCZCVBBBVCZZCBMbbnmNBVVBBBBBBNNBVZAAAZCCVVVCCZCVBNMMNBVCCZZZCBMbvvvbbmMNMnnbnMBBBBBCZAAAZCVVBBBNBBCCZZCVVVCZAZZCCCCVVVBNNBVVVBBBBBVCZASAAZCVBBBVNmbxxcbmNBBBBBBBVZASSAZVBNMMMNBVCCZZCCCCCBg",
"smMNNNNMmmmNBVCCCCCVVVCCCCBMnnmMBBNMnbvcvbnMBCZAAZVMbxzxvnmMNNNNMmnmMNBBBBNBVCCVBBBBBBBBNBBBBBBBBBVCZZCCZZZAZZZCVBMmmMNBVVBNMmmNVZAAZCVNmmNBVVVVCZZCVBBBBNNNMMNBVVBBBBVCZASSACBBBBBBVBBNNBVVCVBNMnnbnnbbvbmMNBBNNMmmmMNBBBNNMNBVBBMMmmmmmMNNBVVVVCZZCVMnbbMVADDDDDSACVVVVVCCZZZZVBNMNNNNNNBVCZZZZZZCCVVVVVVVVCCVVNmnccbmBVCCCCCCVBBBVCCCVVBNNBVCCCBNmnmMNBBBNNNNBNNNBCASSAAZCCVVCCZCVBNMNBVCCZZZCCBMmnbbvvbnMNMMmmNBBNNNBCZZZZCCVVBBNNBVCCCCCCCZAZCVBBBVVVVBBBVCZZZCCCCCZZAAZCVVBBVVVBMnvvvnMNBVCCCCVCZASSAZVBNMMMMNBVCZZZZZZCCh",
"snmMNNNNMmMNBCZAAZZCVVVVVBMnbvbnMMMmnbbvvvbmNVVCCVNnczkkzcbmMNNNMnbbnmBVBBBBVVVVBBNNNNMMMMMNNNNNNBVCZZCCZZAAAAAZZCBNNNBVCCCVBNNBVZAAAZCBMMBVVVVVCZZCBNNNMMmmnnmNBVVVCZZASDDSACBNNNBBVVBBBBBVVVBNMMMmmnvcxxvnMNBBVBNMMNBVCCVVBBVVBNMmnbbbmMBVVVBBVVCZCVBMmmNCSDDDDSAZVVVVCCCZZAAZCBNNNBBNNNBVVCZZCCVVVBBBVVVVVCCCVBNmbbnMBVVCCCCVVVVVCCCCVBNMmMNVVVBBNMMMNNBBNNNNBNMMBCASSSAZZCCCCZZZCVBBVVCZZZCCCVBBNMMnvccvmNBBNNBNMMmmNBVCCVVVVVBBNNVVVCCCVVCCZCVNMmMNNNBBBBVCZAAAAZCCZZZCVNMMNBVVVBNMmmmMNBVCZAAZZZASSSAZVVBBNMMMNBVCZZZZAAZj",
"abnmNNBNMmmMNVZAAAZCVBNNNNmncccvnmmmmnbvccvbmMNNMMmbczklxcbmNBVBNmbbnmBVVBNNBVVVBBNNNNMmnnmMMNNNNBCZZZCCZZAAAZZZZCVBBBVCCCCCVBBVCZZZAZCVBBVVCCVVCZZCBNNNNMMmnnmMNBVVCASDDDDSZVMMMNBVVCCVVVVVVVBBNNBNMmvxlzcbMNBVCCVBNBCZAAZCVVVVBNMmbvvbmNVCCVBBBVCZZCVNMNVZSDDDSSAZCVVCCZZZZAAZCVBBBVBBMMNBVCCCCVBBBBBBVVVCCCCCCCBNmmMNVVCCVVVVVVCCCZCCCVNMmmNBVVVBBNNMNNBBBBBBBNmMBCASSSAZZZCCZZAAZCVVCZZAZCVVVVVVVBBMnvvbmNVCVVBNmnbnMNVVVVBBBBNNNBVVVVVVVVVVVBNMnbnnmmMNNBVCZAAAAZCCZZCBMbbbmNVVVBNNNNNNBVVCAAAAAAASSSAZCCVVBNMMNBVCCZZAAAAk",
"pbnMNBBNMmnnMBVCZZCBNMmmMmmbvcccvbmMMmnvxzzxcvbbbbbbvcxcvnmNVCZCBNnnmMBVBBNNNBVVVBBNNNMmnnmMNBBBVCZAAZCCCZZZCCCCCCCVBBBVVVVVVVVVCZZZAAZZVVCCCCCCAAZCVBBBVVBNMmmMNBBVCZSDDDDSCBmnmNBVCZZZCCVVVVVVVVVVBmvxllcbmNVCZZCVVVZASSAAZZCCBNMmbvvnMBCZZCVVVCCZZCVBNNCZASSSSSAAZZZZAAZZZCZCVVVVCCVBMMMNBVVVVBNNBBBBBVVCCCCCZZCCBVVCZZCCVVBBVCZZZZZCCVBMmmNBVVVVVBNNMNBVVVVVBMmmNVASSSAAAZZZZAAAAZCZZAAACVBNVCCZZCCVNMmmMBCZZCVNnbvvmNBVVBBNNMmmMBVVVVVVVBNNNNMmbvvvvvnmMNBVCCCCCCVVCVBmczlxbMBVBBBBVVVVVVVCZAAAAAAASSAZZZCCVBNNBVVCVCZZZAAk",
"anmMNBBNMmnnmNBVCCVBNMmnnnnbvccccvmMMMmbxzllzxccccvbbbbbmMNBCZAZCBMmMNBBBNNNBVVCCCVBBNMMmmMNBVVVCCAAAZCVCCZCVVBBVVVVBBNBBBVVBBVVCZZZAAAZCCZZZZZZAAAZCCCCZZCCBNNNNNNBCZASDDDAVNnbnMBCZAAAAZCCCCCCCCCVBmvxzzcbMNVCZZZCCCZASDSSAAZCVBNmbvbnNVCZZCCVCCCCCVBBNBVZZAASSSSSSAAAAAZCCVCCCCCZAZCVNMNNBVVVVBBBBBBBNNBVCZCCZZZZZCZZAAZZVVBBVCZZZZCCCCBNMMNBBVVVCVNNNNVCCCCVBMmmMBZASSAAAZZCZZAAAAZAAASACVNNBVCZZCCCVBNNBVZAAZCBmbbbmNVVVVBBNMmmMBVVVVVVVBNMmmmnbvccccvnmNBBBBBBBBBBVVNnxkklvMBVVBBVCCZZCCVVCCZZZZZAAAAAAAZZCVVVCCVVBBVCCZZj",
"dMNBBBBNNMmmmMNBBBBNNNMmnbvvcccccvmMNMmbczllzzxxzxvbnmmMNNBBCZAAZVNMNNBBNNNBVCZZAZZCVBNMMNBVVCCCCZAAAZVVVCCVBNMNNNNNMMMMNNBBNBBVCZZAAAAACCCZAAAAAAAAZAAASSSAZCVBBNMMNVASDDDABmvvbmNVZASSSAZZZZZCCCCVNmvcccbmMBVVCZZCCCZASSSSAAZCCVBMnbnmNBCCCCCCCZCVBNNMNNVCCZZAASDDDDSSAACVBBVCCZAASAZCBBBBBVVVCVVVBBNMmmNBCZZZZAAZZZZAAAAZZCVVVCZZCCCCZCVBNMNNBVCCCVNNNBCZZCVBNMmmmNVZAAAAZZCCCCZAAAAASSSAZVNMBVCCVVVCCCCCCZAAAAZVNMMMNBCCCCCVBNmmMNVVBBVCCVNMmnnnbvvvvvbnMNBBNMmmmMNBVBNnxllzbMVCCVVVCZZZZCBNBBVVVVCCASSSSSAAZZZZZZVBMMNBVVVg",
"fNBBBBBBNNMMMMNNBBBBBBNNmbcccccvvbmMNNMnbcxzzxxxxxvnMNBBBBBBCZSSACBBBBBBNNBVZAASSSAZVBNMNBVCCCCCCZAAAZCVVVVVBNMMMNNNMMMMNBBBNNBVCCZASSSAZCCZZAAAZZAAASSDDDDSSAZCBMnnMBCASDSZBmbvbmNVZASSSSAAAAZZCCVBNmnbbnnmNBBVVCCCCCZASSAAZZCCCVBNmnmMNVVVVBVVCCVBMmnnmNBVVCCZASDDDDSAAZCVBBVCZASSSAZCCVVVVVCCCCVVBNMmbbnMVCZAAAZZCCZZAAAZCCVVVVCCCCVCZZCVBNNBVCCCCVNMNBCZZCVBNMMMMNVCZZZZZCVVVCCZZZZASSSSZVNMNBVBNNNBVCCZZAAAAAAZCVBBBVCZZZZCVBMMNBVVVVCCCVBNmmmnnbbbbbnmMNBNMnvvnmMNBVNmvxxcnMBCCCCCCZAAZCBMmmMMNNBVZASDSSSSAAAAAZVNnnMNBBBg",
"gVVVBBBBBBNNNNNBBBBVCCCVMncxxccvbnMNNNNMmnbvvccccvnMBVVCVBNNVCASAZCVVBBBBBVZASSDDSSZVBMMBVCZCVVBVCZZAZCCVBBBBBNNNBBBBBNBVVCVVBBBVCZASSSAZCCCZZZZCCZASSDDDDDDSSAZBMnbnMVZASAZBMnnnmNVCZASSSSSAAAZCVVBNMMMMMMNNBBBBVCCCZZAAZCCVVVVVVBNmmMBVCVVNMNBVCVMbcxcbMNBBBVCASDDSSZZCCCCCCCZASSSSAZCCCZCCCZZZCVBMmnbvvbmNCAAAAZCVVVCZZZZCVBBBVCCCVVCZZZZVBBBVCZZCBMMNVCZZCBNNMNNNNVCZZZCCCVVVCCCCCZZSSSSZCNNNNNMnbbnMNVCZAAAAZZZZZCCCCZZAAAZCVBBBVVCCCCZZCVBNMMMmmmnbbnMNBBNmbccbnMNBVBNmbbbmNBVCZZZZZAAACBmnbbbnMBVZASDDSSSAAAAAZBMbbnMBVVh",
"hVVBBBBBVVBBBBBBBBBVCZZCNmvxccvbnmMNBBBNNNmmnbbbbnMNVCZZCBNNBCASAACVBBBVBVCZASDDDSAZVNMNVCZZCVBBBVCZAAZCVBBBVVVVVVVCCCVCZZZZCBNNNVCASSSAZCVVCZZZCCZASDDSSSSSSSAZVMbvbnNCAAAZVBNMMNBVCZZASSSSSSAZVBBNNNNNBBNNBBNNNBVCCZAAZCBBNNNBVVBNMMBVZZCVNMMNVVBmczzxbmNBBBVCZASSAZCVVCCZZZZZZASSAACCCZZAAAZZZCBMmnnbvcvnNVZAAACVBNBBVCCVBNMMNBVCCCVCZAAZCVVVCZAZCBMMNVCZZCBNMMNBBBVCCZCCCCCVVVVVVVCZASSAZCBNNNNMbcxcvnMBCZAAZZZZZAZZCCCZAAAZZCVVVCCCCZZZZCCVBBBBNMMmbnmNBBBNncxcbmMNVVVBNMmmMMNBCZZZZZAAACBmbcccbnMBCASDDSSAAAAAACBMbvnMBVCh",
"jCBNNNBBBBBBBBBBBBVVCCZCBMbccvbnmMNNBBBBBBNMMMmmmmNBVCZZCVBBVCZAAZCVBBBVVVCZAASSAZCVBNNBCAAZVBNNVCZAAAAZCVBBVCZZZZZAAAAASSSAZVNMMNVZASSAZCBBVCCZZZZASSSAAZZZZZZZVMnvvbMBCCZCCCCVVVVCVCCZSSSSSSACBNMMNNBVVVBBBBNMMNBVCZAACVNMmmMNBBNNNNVZAAZCBMMNVVNmczzxbMBVBBBVCZAAZCBBBVCZZZCCCZAAAZCVCCASSSAAZVMmnnnnbbbnMVZAAZCBNNNNBVVBMnnnmNBCCCCCAAAACCCCZAAZCBMMBVZZZCBNMMNBVVCCCZZZCCCVVVVBBBVCZAAAZCVVVVVNnclklxbMBCZZZCCCZZZCVBVVZZZCCVVVCCCZZZZZZZCCVVCCVBMmbnmNBVNmvcxcnMBVVCVVBNMMMMMNVCZZZCZZZCBMnvxxcvmNVZASSSAZZCZZZCBMbvbMBCZj",
"jCBNMMNBBVBBBNNNBBVVVVCCVNnbbbnmMMNNBBBBBBNNBNNNNNBVCCZZCVBBVCZZZZCVNNBVVVVCZZZZCVVBNNBVZAAZVNNNVCZZAAAAZCVVCZAAASSSSSSSDDSSZVMmmNVCAAAAZCBBVVCZZZZAAAAZCVVVCCZCVMbvcvmNBVVCCZZZZZCCVCCZASSSSAZCNMmmMNVVVVBBBNMmmmMNBCZAZVMmmmMNBBBBBVZASSSZVNNNVVNmcxxcnNVVVVBVCZZZCBNMNVZAAZCVVCZAZCVBBVZASSSACBmnbnmmnnbbMBCZZCVNMMMNBVBNnvvvnMBCCCCZAAAAZCCZAASACBNNVCZZZVBNMMNVCCCCCCZZCCVVVVBBBBVCZZZZCVVVCCCBmckhhkcnNVCCCVBBVVCVNNBBCCCVVBBBVCCCCCCCCCCCCCZZZCBMnnmNBBNncxcvmBVCCCCVBNMMMMMNVCZCVVCCCVBNnvxzzcbmNVZZAZZCCCCCZCVNnbnMBCZk",
"jCVNMMBVVVVBNNMNBBBBNNBVBNMmmMNNNMMMNBBBBNBBBVVBBBVVCCCCVVBVVCCZCCVBBBBBBBBBVVVVBBNNNBVZASAZVNMNBCCZCZAAZZCCZZAASSDDDDDDDDDACBmnnMVCZAZZZCBBBVCZAAZZAAZVBNNBVVZCVMbcxcnMNBBVZASSSAAZCCZZASSAAZCBNmmmMNBVVVBNNMmbvvbnMBZAZCNMmmMNBVVVCZASDDSACVBBVVBMbvvbMBVCCCVVVCZCVBMMNVZAZCVBBVCZZCBNMNCZSSSACBmnnnmMmnbbmNVCCVBMmmMNVVBMbccvnNVCCCCZAASAZZCZAASACVBBCZZZCVBNMMBVCZCCCCCCCVBBBBBBBVCCZZCVBBNBCZZVMvlhhkcnNVVVVBNMNNBNMMMNVVVBNMMMBBBBBBVVCCVCCZAAAZVNmmMNBNMncxcbNVZZAZZVNMnnmMNBCCCVBNBBBBBNMbczlzcbMBVCCCVVVVBVVCVBmnmMBCZk",
"jCVNNNBCCZCVBNMNBBBNMMNBBNMmMNBBNMMMNBBBNNNNBBVVVVCCCCCVVBBVCCZZCCVBBBBBNNNNNBBBNNNNBVCASSSZVNMMBVCCVVZZAAZCZZAASSDFFFFFDDDACBmnmNVZZZCVVVBNBVCZAAZZAZCBMMMNBVZCVMbccvmMNNBCZSDDDSAZZCZZAAAZCCVBMmnnnmNBBBNNMmnbcccvmNCZZCBNMMNBVVCCZASDDDDSZCVVVVBNmnnmMBVCZCVVVVCCVNmmNVZAZCBNNBCZZCNMmmBCZAAZVNmnnnMMMmnnmNBCCVBMmmNBVVBMbvcbmNVCCCCCZASAZCCZASSAZCVCZAAZCVBNNNBCZAZCCCCCVBNNNNNBBVCZCCBNmmmNVZZCNblhhkcmNBBBNMmmmmmmmmMNBVBNmnnmNNNMMMNBBVVVCZAAAZVBNNNBBNmbccvnNVZAAAZVNmbbnMBVZZCBMMMNNNNNMnvxzzcbmNBBBBBBBBBBBVVBNMMNVCAk",
"hVBNMNBCZAAZVBNBVVBBMMMNMMnnMBVVBNMNBVVBNMMMMNBVCCZZZCCVNNNVCZZZZCBBBBBBNMMMMMMMMNBVVCZASSSAVBMMNBBBNBVCZZZCCCCZASDFFFFFDDDSZVMmNBCZCVBNNNMNNBCZAAAAAZVNMmNBVCZCVNmnnmNBBVVZASDDDSAZCCCCZZZZVBBNMmbbbnmMNNNNMMnbcxxcnNCZZCVBBBBBVVCZAASSDDSSZCVBVCCVNmmmMNVCZZCVVCCCBMnnNVZAZVBNNBCZZVNmbbmNVCCVBNmmnmMMMMMMNBVCCVBBNNBVVVBNmnnmNVCCVVCCZAAAZCVCAASAZCCZAAAZVBBBBBCZASAAZCVVBNMMMMMNBVCCCBMnvcvnNCZCNbljjlvmNNNMMmmnnbnnnmMBVVNMnbbnmMmnnmMMNBBVCZZZZCVBBBBVBNmbvvbmNVCZAZCBMnvvbmBCZZVNmmmMMMNNNmbvccbnMNNNMMMNBBNNNNBBBBBBVCAk",
"hVBNNBCZAAAZCVBBBVBBNNNMmnbbMNVVBBNBCZCVNMmmnmNBCZZAZZCVNMNBCAAAZCVBBBVBNNNMMMmmMNVCCZAASSSACBMMMNNNMNBBVCVVVVCCZASDDFFFFDDSACBNBCZZVBMmmMMMNBCZAAAAACBMmmMBVCCVBNMmMNBVCCCZASDDDSAZCVBBVCZCVBNNMmbvvbnmmMMNNMMnbvvbmNCZZCBBBVVBBVCZAAAASSSSZCVVVCCVNMnnmMBVCCCCCCCCBMnmNVZAZCBNBVCCCVNmbvbnMBBBNMmmmMNNBBBBVVVVVVVVVVVVVBBNMMNBVCCCVVCCAAAAZCVCASAAZCZZAAAZVVBBBVZASSSAZCVBNMmmMMMNBVVVVNnvxzxvMVCCNnzkkzbMNNMmmmmnnbbbnmNBVVNMmnnmMMmnnnmMMNBVCZCCVBBBBVVVVNmnbbnmMBVCZCVBMnvvbmBCZCVNmnmmMMNBNNnbvvbmMNMMmmMMNNMMMMNBBVVVVZAl",
"gBBVVCZZAAAZVBNNBBVVBBBNmbvvmNVCCCCCAAZCBNmnbnmNCZAAAZCVNNNVZAAACVVVVVCVVBBBNMmmMNVZZAAAASAZCBNMmMMMMMMMNNNNBVVCZAASSDDFDDDDSACCCZZCBMnbnmmMNBVZASSSZCNmbnMBBVBNNMMNNBCZZZZZAASSSSAZVNMNBVCCVVBNMmnbbbnnnmMMNNNNMMmMBVZZCVNNBVVVBBVCZZCCZASSAZCVCCCVNmvcvnMBVCCCZZCVNMmMNVZAZCVBVVCCVBNmbvcvnmMMmmmmMNBVCCCZCCVBBBBVCCCVBNMMMNVCZZCCCCCZAAAAZCCZASSAZCZASSAZCVBBVVZASSSSACVBMMMMNNNNNNBBNMnczlzcmBVVNnczzxnMNNMmmMMMmnbbmMBVVVBNNNNNBNMmmmmmmMNBVCVBNNMNBVCCCVNMnnnmMNBVCVBNMmbbbmNVCVNMnnmMNBVVBNmnbbbnmMNNMmmMMMMmmmMNBVVCCZAl",
"gBVCCZZAAAZCVBNNNBBVVVVBMnbbmNVCZZAASSAZVBMmnnMBCZAAAAZCBNBBCZZZVVVVCCCCCVCVBNmmMBCZZZZZZZZCVBMMmMMNMmnnnmmMBVVCCZZAASSDSSSSAAZZZZZCBmbbnmMMNBVZASSSZVMnvbMNBNMMmMMNBVCZZZCCZZZZAAZCBNMMBVZZCCVBBNmnnnmmnmMNNBVVVVBVCZAZCBNNBVVVBBVCCCVVZASSAAZZCCCBNncxcbmNBVCZZZCVNMMMBVZZZCVVVVVBBNNMnbvvbmMMmmmMNBCZZAAAZCBNMMNBVCVBMmnnMNVZZZZCCCZZAAAAAZZASSAZCCZASSSAZVBBBVCZSSSSACVNMMMNBBNMMMMMMmbczlzcmBVVBMbvcvmNBBNMMMNNNMmnMNVVVBBBBBVVVVNMmmmmnmMBVCVBNMMNBCZZZCVBMmmmMMBVVVBNMMmnnmMBBBMmnnMNBVCCVBMnbvvvnmNNMmmmMMmmmmMNVVVVVCAk",
"gVCZZAAAZCVBNNMMNNBBVVCVBNMMNVCZASSDDDSAZVBNNNBVZAAASAACVNNNBVVVBBVCZZZCCCCCVBNMNVCZZCVBVVVVNMMMMNNNMmbvvvnMBVCCVVVCZAAAAAZZZZCCZZZVNMnmMNBBVVCZASDSAVMbvvmMNMnnnmMMNBVCCCVBVVVVCCCCBNNBVCZZZZCCCVBNMMMMmMNBVVCZZZZAASSAZVNNBVCCVVCCVVVVZASSSSAZZCVBMncxcvnMBCZAAZCBMmMNBVCCCCVBBBNMmMNNNMmnmMNNMMMMBVCAAAAACVNMmmMNBVBMnvvvnMVCZZZZZZZZAASSSAAASSAZCCZASSSACVNMMNVCASSSZCBNMMNBBBNMmnnnmmbvxxcbMBVVBNMnnnMBVVBNNNBVBBMMNBVVBNNNBVCZZVNMMmMmmmNBCCCVBNNNVZASSAZCVBNNMNBVCCVBBNNMmmMMNMmnbnMNVCZZCBMnbcxxvnMMMmmmmMMmmmMNVVVBBVZk",
"gVCZZAAAZCVVBNNNNNBVVCZZCVVVVCZASSDFFFDSAZVVVVCCZZAAAAACVNMmMNNNMNBCZZZZCCCCCVBBVVCCCVNNNNNNMMMMNBBBNmvcxcbmBCCCCVVCZZZZCCVBVVVVCCCVNmmMNBVVCCZZSSSSZVMbvbmMMmnbbnMMNBVVVBNNNNNNBBVVBNBVCZZAAAAZZCVVBBBNMMNBVCZZAAASSSSSZCBNBVCCCCCCVVVVZASSSSSAZCVBNmbvvbnMBCZASACBmmMNBVCCCVBBNMmnnmNBVBBBBBVVNNMNBVCZASAZCBMmmmMNBBNmvccvnMBCCCCZZZCCZASSDSSSSSAZCCZZSSSACBMmnmNVZASAZVBNNNBBVBNMnbbbmmnbvvnmNVVVVVNMmmNBVVBNNBVCCVBNBBVVNMMNBCZZZCNMMMNNMMBVZZZCBNNBCZSSDDSAZCVBNNBCZZCVBBNMmmmmMMmnnmMBVCZZCBMnvxzzcbMMMMmmmMMMMMNBVVBNMNVj",
"gVCZZZZZAZCCVVVVVVVVVCZZZZZZZZAASDFFFFDDAZCCCZZZZZZZZZZCBMnbbnmmmMBCZAZZCCCCCCCCCCCCVBNMMMmmmmMNBBVBBMbczxvmBCZZZCCCZZCVBNMmMNNBVVVBMmMNBVCCCZZZASAACBMmnmMNNMnbnmMNNNBBNNMMMMmmMMNBBBVCCZZZAAAAZZCCCVVBNMNNBVCCZZAASSSSZCBNBBVVCCZCVVVCZASDDSSSAZCVBBMmmmmMBCZSSACBmnMNBVCCVVBNMmbbvnMBCZZZZZZCVBNNNBVCZAACBNMMMNNBBNMnvccvnMBVVVCCCCVVCZSSDSSSSSZZCCZZSSSACBMnbnmNCAAAZCBBNNBVVVBNMmnnMMmmmmMBVCCCCVBNmMNBBBNNNBCZZZVVBVVBNMmMNVZZCVNMMNBVVVCZAAZCBNNNCZSDFFDDSACVBBCZZZCVBNNMmmmmMNMMMMNBVCCCVBMbcxzzvnMNNNMMMMMMNNBVVBMmnmBg",
"gBVCCCZZAAZZCCCCCCVVVCZAAZZZZZAASDDFFFFDSAZZZAAZCCCCCCCVBMbvvvnmmMBCAAAZZCCCZZZZZZCCVBNMMMmmnmMNNBBBBNnvzzcnBCZAZZZZZZCVNmnnmmMNBVBNMmMNNBCCCCCCZZZCBNmmmMNBNMmnmmNNNNNNMmmmmmnnnmMNNBVCZZZZAAAAZZZZZCCBNMMMNBVVCCZZAAAAZCVBNNBVCCCCVBVVCZASSDSSAZCCVVBBNNNNBCASSACBmmMNVVCCVBNMMnbbbnMVZAAASAAZCBNNMNNBVCCVNMmmNBBBBNMmbvbnMNBVBBVCVBNNVCASSDSSSAAZCZZASSSACBMmbbnMVZAACVVBBBVVCVBNNMMMNNNNNNVCZZZZCVBNMMNNNMmMNBCZZZCCVVVBNMmmNVCZCVNNNBCZZZAAAZCVBNMNVZSDFFFFDSZCVVZZAZCVBNMmmmmmMNNNNNBBVVCCVBmbvxxcbmMNNMMMmMMNNBVVVBMmnmNg",
"fNBBVVCZASAAZZZZZZVVVCZZZZCCCCZASSDDFFDSAAZZAAAZVBBBBVVBNMnvvvnmMNVZASSAAAZZAAAAAZZCVBBBBNMMmmMMMMNNBNMbxzxbNCZAASSAAZCVNmnnnmMNBBBNMmMMMNVVCCVVVVBNmnnnmNBBNNmmmMNBBNMmnbbnmmnbbnmMMNBVZZZZAAZZCCZZZZCBMmmmmMNBBVVVCZZZZCVBBNNBVVCVBNNBVVCZASSSAZCCVVVVVVBBVCZASACBMMMBVCCCVVNNMMmmnmNBCAASSSAZCVBNMmmMNBBNmnnmNVVVBNNMmmMMBVVVBBVVBNmmMBCASSSSSAAAAAASDDSSZCBMnnnMVZZZCVBBBBVVVVBNBBBBBBBBVVCZZAAZCVNMmmMMmnbnMBVCZZZCCVVBNMMMBVCZZCVVVCAASSSAZCBNMMMNVZSDFFFFDAZCCCZAAZCBNNMmmnnmMNNBBBBBBBVVVBMnbbbbmMNNMmmmmmMNBBVCCVBNMMNg",
"smMNBVCAASAAZZZZZCVBBBVCCCVVVVCZASSDDDDSAZAASSAZVBNNNBBBNMmnbbmMMNCASDSSSSAASSSAZZCCVVVVVVBNMmmmnnmmNBNmcxxvMVZAASSSAZCBMmbbnnmMNBBNMmmnnmNBVVNNNMMmnbnmMNBBBNMmmmNBBBMmbbbnnnnnnnMNNBVCCZCZZZCVVVCZZZCVNmnnmMNBBBBVVCCZZCVVBBBBVVCVBNNNNNBCZASSAZCVBBBVCCVVVCZAAACBNMNBVCCCVVBBNNNNNNNBCZASSSAZCVBNMmnmMMMmnbbmNVCCVBBBNNNBVCVVNNBBNmbvbmNVZASSAAAAASSDDDDSACBNmnnMVCZZVBBBBBVVVBNNBVVVBVVVCCCZZAAZCBNMMMMMnnbnmNBVCZZZCCVBNNNNVCZZZZCCZAASSSSACBMmMMMNVZSDFFFDSACCCCAAAZVBNMmnnnnnmMNNNNNNNBBVVBNMMmmMNNNMmnnnmmMNBVVVCVVBNNBg",
"abmMBVZAAAZZCCCCCVBNNNNBBBBBBBVVCAASDDDSAZAASSAZVBNNNNBBBNMMMmMMMNVZSDDDDSSSSSAAZCCCCCCCZCCVNMMnbvvnMBBMbccvmNVCZAAAZCVNmnbvbbbnMBBBMmnbbnMNBNMmmnnnbnnmMNNBBNMnbnMBVVNMmnnnnnnmMNBVVCCCCCCCCVBBNNBCZAZCBMnnmNBVVVVVVVCZCCCCVVVVCCCCBNMMMMNBCASSAZCBMMMNVCCCVVCZZZCBNNBBVCCCVVVVVVCVVBBBVCZAAAZZCVVBMmmnmmnbbvbnNBCCCVVBNNNNVVVBNMNNMncxcvnMVZAAAAAAASSDDDDSACBNMmMNCZZZVBNNNNBBNMmmNBBBBBVVVVVCZZZCVBNNNNNNMmmnmMNNVCCZCCVBBNBBVCZZZZZZZZASSSACBMmnmmmMVCSDDFDDSZVVVCAAAZCBNmnnbbvbnmmMMMmmMNBVVCVVVBBBBBNmnvvbnmNBBVVVVVVBBBVh",
"anmNBCZAAZCCVVVVVVBNMMMMMMNNBBVVCZAASSSAAAASDDSACBNMNNBBBBBNNMMmmMVZSDDDDDSSSAAZCVVVVVVCZZZCBNMncxcvMBBBmbvbnmNBCCZCVBNMnbvvcvvbMBBBNmbvcvnmMMmnbbbnnmMMNNNBBNmbccnNVVVBNMmnnnmMBVCZZZZZCCVBBBNMmmNBZAAZVNmmMNVVVVCCCCCCCCCCCCCCCCCCVBNMMMNBCZASSZCBmnnMBVCCVVCCZCVBBNBVVCCCVVVVVCZZCCVVVVCCZZZCCVBBNMmmmmnbvvvnMBVCCCVNmmmMBBBNMmMMmnvxxxvnNVZZZZZZAASSDDDSZCVBMMNBCZZCBNMMMMNNMmnnMNBBBBVVVVBVCZZCBNNNBBBBNMMmmmmMBCZZZCVVBBVVCCZZZZZZCCZAAACBMmnmMMMMBCZSDDDSAZVBVCAAAZCBMmnbbbvvnmmmmmmmmMNBCZZZZCCVVBNmnbvbmMBVVVBBBBBBVVCj",
"dMNBCZZAZCBBBBBBVVVBNMMmmmMNBVCCCZZZSSSSAASSDDSAZVNMNBVVVBBNNMnbbnNCADDDSSAAAZZCBNNNNNBBVCCCVNmbxzzcmNVVNmnbbbnMBVVVNMmnnbcxxxcbMBVBMnvxzzvbmmnbvbnmMNBBBBBBNMbcllvmBCCCVBMmnmMBCZASSSSACVNMNMmnvvnNCAAACBNNNBVVCCZZZZZCVVCCCCCCCCCCVBBBNNNBVZASSACNnvvnMBVVVVCCCCVBBNBVCCCCVVBBVCZAAZCVBBBVCCVVVVBNMMMMNMMmbbbbmNVCCCBmvcvbMNMMmnmMMmnvcccbmNVVCCCZZAASSDSAZCVBNNBVCZZCNMnnnmMMMmbbmMNNBBVVBBNBVCCVBNNBVVVVBNMmnnnmBCZAAZCCVVVCCZZZZZCVBBVCCCBMnnmMNNNNBVCZASSSACBBVCAAAZVNmnbbbbvbmMNNMMmmnmMBCZAAAAZCCVNMmmnmMBVCCVBNMMMNBVCj",
"fBBVCZAZCVBNNNBBVVCVVBMmnnmMBVCZZZZZAAAAAASSDDDSACBNNBVCVVVBNmbccbMVZSSSAAZZZZCVNMmmMMMNBBVVVNmbczzcnNVVBNmnbbnmNBVBMmnnnbvcccvnNBVVNnvxzzcbnmnnbnMNBBBVVVBBNMbxkkxnBCZZCBNMmMBCASDDDDSACNmmmmnvccbMCASSACVBVVVVCCZAAAZCBBVCCCCCVVCVVBBBBBNNVCASSACNbccbmNBVVVCCCCVVBBVVCZZCVVBNBVZAAAZVBNNBBBBBBBNMMMNBBBNmnbvvnMVCCVMbxzxvnMMMmmMNNNMmbvvbmMNBBVVCCZAASSSAZCCVBBBVCCVBMbccvbmMMmnnmMMNBVVVBNMNBVVBNMNNVCCCVNMmnnnMBZASAAZCVVCCCCCCCCVBNNBVVVMmnmMNBBNNNNBVCZAZZVBNBVZAAZVMnbbnnnbnMBBBBNMMmmMBCZASSAAZCVNNMMMMNBCCCVBNMmmMBVCj",
"gVVCZZAZCVBBNBBVCCCCCVBMmmmMBVCZZCZZAAAAAASSDFDDAZVBBVCCCCCVNmvxxvmBCZAZZZZZZZCVMmnnmmmmMNBVBNMnvccvmNBVVBNMmmmMBVVBMmmmmmnnnmMNVCCVNmvcxxvnMNMMMMBBVVBBBVVBBMbxkkxnBCZCBNMMMNVZSDDDDDSZBMbbnnbvxcnNCASSAZCCCCVVVCZAAAZVNNBVCCCVBBBBBBBBBBNNBVZSSACNbccvnMBVCCCCCCCVVVCCZZZCCBNNBVZAAAZVNMMMNNNNBBNNNNBVCVBMbvccbMBCCBmbxzxvnmMNNBBVCCVBNmmnmmmMNNBVCZAASSSAAZCCVVVVVVNMbcllxcnmMMMMMMNBBVCCBNmmMNNNMMMNBVCCVBMmnmMBCASSSAZCVVVVVVVVVBBNNNBVVBMMMMBVVBNMMMMMNBCCVBNMNBCZZCBMbbnmMMMMBCZZCVBNMMNBCZASSSAZCBNNNBNNBBVVVVBMMMNNVCCj",
"gBVCZZZZCVBBBBBVCCZZZCVBNMMNBVCCCCCZZZZZZASDDFFDSACVBVCZZZCVBmbccbMBCZZCCVCZZZCVMmnnnmnnmMNBBNmnvvvnMNNBVVBNMMMNBVVBNMNNNNMMNNBVCZZCBNmbvvbmNBBBBBVVBBNNNBBBBMbczzcnBCCVNMmMNBCASDDDDSACNnvvbnbvxcnNCASSSAZZZCCVVCCZAZCVNNBVCZCVBNBBNNNBBNMMNVZASACNnvvbnMBVCCCCCCCCCCZZZZZZCBNNBVZAAAZVNMMMMMMMNBNNBVCZZZBMbvccbMBCCBMbcccvnmMBVCCZZZCCVNNMMmMMNNVCCZAASSSSAAZCCVVVVBMnczkkzcbmNBBNNBBBBVCVBMnnmMMMMMMMNBVVVBMmmMNVZASSAZCVVBVVBBNNNNNNNBBVVVNNNBVCVBNMMmnnmMBBBNMMMNVCZCBmbbnMNBBBCZAAZCVNNNNVCZASSSAZVBNNBBBBBBBVVBBNNNBVCZZj",
"fNBVCCCCVVVVVVVVCCCZZZZCVVBBVVVVVVVCCCCCCZASDFFDSACBBBVCZZZCVNmnnMBVCCCVBBCZAAZVNmnnmmmmmMNBBNmbvvbmMMMNBBBBNNMNBBVCVVVVVVBBVVCZZZZCCVNNMMMNBVVVCCCVNMnmMNNBBNmbvvnMVCCBMnnmNVZSDDDDSSZVMnvvnnbvcvmBZAAAAAZZZZZCVVBVCZCVBBVCZZZCBBNNMMMMMMMMNVZZAZCBmnnmMNVCCCCCCCVVCCZAZZZZZCVBVCZAAAZVBNBNNNMMNBVVCCAAAZVMnvcvnMVCCVNmnnnnnmNBCZAAZZCCVBBBNNNNBVCZZZZASSSSAAZCCVCVVNmvczzzcvnmNVVCCVVVVVVVNMnnnmnnmmMMMNNBBBNMNBVZAAAAZZCVVVVBNMmmnnMNBVCZZCVVCZZZZVBNMnbbnmMNNNMMMMBCCVNmnnMBVCVCZASSACVNMMNBVCZASSAZVBMMNNNNNNBBBBBBBBVCAAAk",
"fNBVCCCCVVCVVVVVVCCCZZZZZCCCVVBBNNBBVVBBVCASDDDDSACBNNVCCZZZCVNNNBVCCCVVNBVZAAZVNMmmMMNNNNBBBNmbbbnmMMmmNBBBNNmmMNVCCCZCCCVVCCCCZZZCCCVVBBBBBVVCCCCBMnbbmMMNNNMmnnmNVCVBmnnmNVZSSDDDSACBmnbnmmbvcvmBZAAAAZZZZZZZVBMNVCZCVVCZAAZCVBBNMmmmmMmMNVCCCCVBMMMMBVVCVVVVVVBBVCCZZZZZZCCVVCZAAAZCVVVVBNNNBVVCZZASSACBmbbnmNVCZCBNNMMmmMNVZAAZCVVBBBBBBBBVCCZAZZZASSSSSAZCCVCVBMnvccccbnnMBVZZZZZCVVVVNmnnmmnnmmMmmmmMNNNNBVCZAAAZCCVVVVVVNMmnbbmNVZZAAZCCZAAAZCVNNmnbbnMNNNNMMNBVVVMmnmNVCZCCZASSACVNMMMNBCZAASSZVBMMNNNNNNBBVVVVVCZAASAk",
"gBVCCCCCCCCCVVVVVVCCZZZZZZZCCVNMmnMNNNNNBVZASSDDSZVNMMNBCCZZZCCVCCZAZZCBNNVCAAZVNMMMNNBBVVVVBNmbbbmMNMmnmMNNNmbbbmBCZAZZCCVVCCVVVVVCCCCCCVBBNBVVVVBNmnbbnmmMMMmnbbnMBVCVNMmMBVZASDDSSZVNmmmMMMbvxcmBCAAZZCVVZZAZVNmmBCZAZZZAAAZCCVBNmnnnmmmMNBVVVBBBNNBVCCCCVBBBBBNNNBVVVVCZZZCCVCZAAAAZCCCCVVBBVVCCZZASDSACNmmmmNVCZZCVVVBNMMBVZAZCBMmmmMNBVVVCCZAAZZZASSSSAAZZCVVBNMnbbbnmmmmMBCZAAAZCCVVBMmmmMMmmMMMmbvvbmMMNBVCZZZCCVVVVVVVVBNMmbbmNCAAAAZZZZZAAZCVVBNMmmMNNBBBBNBVVVBMnnMBCZZCCZZAAZCVNMMmmNBVZASSACVNNNBNNBBVCCCZZZZASSSSk",
"hVCZZZZZZZZCVVVVVVVCZZCZZZZZVBNmbvbnMMMMNBVZAASSAZVNMmMNBVCCZZZZZZAAAZCBNNVCZAZCBBBBBBVVVVVBNMmnnnMMNMnnmmMNNmbvbnNCZAAZZCVCCCVBNNBVVCCCCVBNNNBBBBNMmmnnnmmMMMmbvvbmBVCCBNMNBVCZASSSAZBNmmMNNMnvccmNCZZZVVBBCZAZVNmmBCAAAAZZZZCCVVBNmnnnmmmmNBBBBNBBNBVCZZZCBBBBBBNNNNNNNBVCZZCCCCZAAAAZZZZCCVVCCCCCCCZSDSAZVNMmmNVCZZZZZCVBNNBCZAZVMnbbnmNBVCCCZZZZZZZZSSSAZZZCVVBNMmnnnmMNNNMMBCAAAAZZCCVBMMMNBBNMMMMmbcccbnmMNBCZZZCVVVVVVVVVVBBMmnMNCZAAAZCCCCZCCCCCCVBNNNBBBBVVBBVBBNmnmMVCZZZCZAAZCVBNMmnnmNBCZAAACBNNNNNBBVCCZZZZZAASSSSl",
"hCZAAAAAAAZCVVCCCCCCCVVVZZZZVBMnvccvnmmMMNBVCZAAZCVNMmmMNBVCCZZZZZAAAZCVNNBVCZZCCVCCCCCCVVBNMMMMmmMMMmnbnmMNBNmnnmBVZZZZCCCCCCBNMMNBVVVVBBNNNBBBNNNNNNMMMMNNNNmbccvmBCZZCVBBVVVCZASSACBMmmNNNMnbcvnNVZZCBNNNCZAACVNNVCAAZZCVVBNBBVBBMmmmmmmmMNBBBBBBBBVCZZZCVBNNBBBBNNMmmMBVCCCCCCZAAAAAZZCCCCCZZCVVBVCASSSZVNMmmMBCZZZZZZCVVVCCZZCBmbccbmNVCCCCCCCCCCCZAAAACCCVBNMmmnnmMNBBBNMMBVZAAAZZZCCVNNBVCVBNMMmnvcxxcvbnMNCZZCVVVVVVVBBBVCCVNMMNVCZZZCVBBVVBBBVCZZCVVBVVVVVVVVBBNmnnmNCZAAZZAAZCBNNMmnbbnMNVZAAZVNMMNNNBVCCZZZZZZZAASSSl",
"jAASSAAAAAZCCCCCCCVVVVVVCZAZCVNmvxxcbnmMNNBVCZZZCCVBNMmMMNBVCCCCCZASAACVBBBVCCZZCZZAAZZCBNMMMMMMMmMMMmnbvbmNBBMMmMBVCCZZZZZZAZVNMMNBBBBBBNNNBBBBNMMNBBBBNNBBVBmbccvmBCZZCCVVVVVVCZAAZVNmnmNBBNmnbbmNVVVBNMMNCZSAZCBBVCZZCVBNMmmMNBVBNNMMNMMMNNBBBBVVBVVCCZZCVBNNBBVVBNMmnmBVCZCCCZZZAAAAZZCCCCZZZCVBBBCZASAZVNMmnmNVCZZZZZCCCCCZZZCBmvxxvmNVCCCVVVVVVVVCAAAZCVVVBMmnnnmmMNBVBNMMNBCZZZZZZZCCVBVCCCBNMmmnvxzzxcbnMNCZZCVBVCCCVBBBCZAZVBNNBVCCCVBBBBNNNBVCZAZCCCCCVVVVVVBNMmnnMBCAAAZZAZCVNMMMmnbbnmNVZZZCBNmmMNNBVCZZZZCCZZAASSDl",
"kSSSSAAZZZCCCCZZCCVVVVBVCZAAZCVNncxcbmMNBBVVCZZCCVVVBBNNNBVVCCVVVCZAAAZCCVVVVCCCZZASSAZVMmmmmmMmmnnmmnbvccbmBBBNMMNBVVZZAAASAACVBNBVVVBBBBBBVVVBMMMNBVVVBBVVCVNnvvnMBCZCCVVBBBBBVCCCVBmnnnMBBBNMmmmNBBBMmnmNCZAAZCVVVVVBNMmnbbbnMBVVVBBBBBBBBBVVVVCCCVVBVVCCVBBNBBVCCVNMMNBVCZZZZZCCZZZZZZCCCCZZZCVBBVCZAAAZVBMmnmMBVCZZCCVVCCZZZZCVMnccbmBCZZCVBBBVVVVCZAAZCCVBNMmmmmmmmMNBNMmmmMBVCCCZZZZZCCCCCVNmmnnbczllxvnMNVCZCVBBVCZZCVBBCASSACVBBBBVVVVBBNNNNBCZAAZZZCCCVBNBBBBNMmnmMBCAAAZZAZVBMmmmmmnnnMBVZZZVNMmmMNNBVZZZZCCVCCZASSDl",
"lSSSAZCVVVVVCCZZCCVVVVVCZZAAAZCBMbccbmNBBVVVCCCCVVCCCVBBBBVCCVVVVCZAAAAZZCCCVVCZZASSSAZBmnnnmmmmnnmmmmnbccbmNBBNMMNBBVCAASSSSSZCVVCCCVBBBBBVCCCVNMMNBVVVBBVVCVNmbbnMBCCCVBBNNNNBBVVVBMmnnmNBVVVBNNNNBBNmnnmNVZAAZCCVVBNMnbvvvvvnMBCCCVVBVVVVVVCCCCZZZCVBNBVVVBBNBBCZZCVBBBVCCCZZZCVVVVCCCCCCCZZAZCVBVVCZZZZCVBNMmmMNVCCCCVBBVCCZZCCVNnvvbmBCZZCVBBBBVVCCZAZZZCCBNMmmMMMMMMNNMMmnnmMNBVCCZZAAZZCVBNmbbbvcxzlzcbMNBVZZCVBBVCZAZCVVZASDSZCBBNNBVCVVBBNNBVCZAAZZZCCVBNNNBVVBMmmmMBCZZZCCCVBNmmmMMMMmMNBVCZCBNMmmMNBVCZAAZZCVVCZASSSl",
"zDSAZVBNMNNBVCZZCVVVCCCCZZAAAAACBmbbnMNBVVVVCCCCVVCZZZCVVVCCCVVVVZAAAAAAAZZZZCZZAASSSSZVmnbbnnbbnnmMMMmnccvnMNNNMMNBVCZASSSSDSSAZZZZZCVBVVCCZZZVNMMNBBBBBBBVVBMmbbmMBVCCVBNMMMNNBBNNMmmmMNBVCCCCVVVBBBMmnnMNVCZZZCCCVBMnvvcvvbnmNVZZCVBBBBVCCZZZCCZZAZCVBNBBBBNNNBCZAAZZCCCCCCZZZCBNNNBVVCCCZZAAZCVVCCZCCCCVBBBBNNNBBVCCVBMMNBVVVVVVNmbvvnNVZZCVVBBVVCCCZZZZZZCVNMMMNBBBNNNMMmmmnnnnMNVCZAAAZCVBMmvccxxxzllxvmNBVCZZCVBBVCAAAZZZASDDSACVNNNNVCCCVVBBVCZAAAZCCCVNMMMNVVVVNMmmMNVCCVBNNNMMmmMNNBBBBBBVVVBNMMMMBVVCAASSAAZCCZASSSSk",
"lSAZVNmnnnmMBVCCVVVCCZZZZZAAAAACVNMmMNBVVVVVVCCCVVZAAAZCCCCCCCVCCZAAAAZZAAAAZZZZAASSDSAVMnbbbbbbnMNNBNMmbvbnMNNNMMNBVCZAAAASSSSSSAAAZCVBVCCZAAZCBNMNNNBBNNBBBNmnbnmMNBVVVBNMMMNNBBNMmmmMNBVCCCZZZCCVVBMmmmMBVVCCZZZCVBMnvccvvnmNBCZZCVBNNBVCZAAAZZZAAAZCVBBBNNMMMNVZAAAAAAZZCZZAZVNMmmMNBVCZZZZZZCCCZZZCCVBBBBBVVVBBBBVVBMmnMMNNNBBBNMnbbnNVZZCCVVVVCCZZZZZZZZCVBNMNVCCCVBNMMmmmnnbnmNVCZAAZZCBNmbczzzzzzzxvnMBBVVCCCVVVVCZAAAZASSDDSACVNNNNVCZZCCVCVCZAAAZCCVNMnnmNVCCCBNMmmMBVVBNMMMmmmmMNBVVCVVBBBNMMMMMNBCCZASSSSAAZZZSSSSSk",
"lAZVMnvvvvbnMBVVVVVCZZZCCZZAAAZCVBBBBVVCCVVVVVVVVCZAAAAZZZZZZCCZZASSAAZZZZAAAAAAAASSSSACBmbvvbbmMBVVVBBMmnmMBBBBNNBVCCCCCZZZAASSSSAZCBNBVCCZZZZCBNMMMMNNNNNNMmbbbnMMNNVCCVBNNBBVVVNMnnmMBVCZCZZZZZZCVBBNNNNBBVCCZZAZZVNmbvcvbmMNVCCCCVNMMNVCASSSAAAASSAAZCVBMmnnmMBCASSSSSAAZAAAZCNmnnmMNVCZZZZZCCZZZZZCVBNNNNVVCVBNMMNNMmbbnmmmmmMMNMmmmMBVCZCCCCCCZZAAZZCCZCCVBNNBCZAAZCVNMMMMmnnnMNVCZAZZCVNMnvxlllzxcvbnMNNBNBBVVVVVVVCZZZZZASDSSZCBNNNBCZZZZZCCVVCZAAZCVBmnbbnMBCCCCBNmnnMBBBMmmmmmMMNNBVCZCVNMMMmmmMNBVCZZASSSSAAZAASSSSSk",
"jZVNncxxxcvnMBVVVVCCZCCVCCZZZZCVVVVVCCCCCCVVBVVVVCZAAAAZZZAAAZZZAAAAAZCCCCZZAZZZZAASDDSAVMnvbbmMBVCZCCVBNNBBVVBBNBVCCCVBVVBVVCZAAAZCBNMNBVCCCCCVBNMMMMMMMMMMmbbbnmMMNNVCCCVVVVCCZCBMnnmNBCCZCCCCCCCCVVVBBBBBBVCCZAAAZCBMnbvbnMNBVVVVVBNMMNVZSDSSSSSSSSSAZCVBMnvvbmNVZSSSDSSSSSSSACNmnnnmNBVCZZCCCZZAAAZCVBBNNNBVCVBNmmmmmnbbnnnnnnmmMNNNMNBVCCCCZZZZAAAAZZCCCCVVNNNBCASSAZCBNMNMMmmmNBVCZAZZVBMmnvxlllxcvnmMNNNNNNNBVVVVVVCCZZCCASSSAZVBNNBVCZZZZZZCVVCZAAZZVNnbvvnMVCZZZVNmbbMNBBNMMMMMNNNNBVZZCVMmmmmmMNNBCCZZAASSAAZZZASSSSAk",
"hBNmczllzxcnMBVCCCCCCVBBVVCCCCBBNBVCZZZAAZCCVVVVBVCZAAZZAASSSAAAAAZZZCVBBBCCZCCCCZAASDDACBmnmMNBCZAAAZZZCCCCCVBNNBVVVBNMMMmmMNVCZZCVNMMMBBBBBBBBNNMMMMMMmmMmnnbnnmMMNNVCZZCCCZAAAZBMnnmNBVVVVVVBBBVVVVVVVVVVVVCZAAAAZVBMmnnnMBVVVBNNBBBBNBVZADDDSSSDDSSAZCVBmbcxcbMVZASSDDDDDDDSACBMmnmMNBBVCCCCZZZAAAAZCCVBMMNBBBNMnbbbbbvbnmmnnnnmMNBBBBVVVCCCZZZAASSAZCVVVVBBNMNBCASSSAZVBNNNNMMMBVCZAAAZVBMmnbczzzcvbnMNNBNNNNNNBVCCVVVVVVVVZAAAAZCBNNBVCZZZZZZCCCCCZZZZVBmbvbnNVCZZZCBMbbMNBVBBBBBBVBBBBVZZCVNmmmmmMNBVCZZZZAAAZZCCZAASAAAk",
"gNmbxllzxcbmNVCCCCCCVBNNBVVCCVBNNNBVCZAAAAZCVVVVVVCZZZZZZASSSSSAZCVVVVVBNNBVVVVBVCZASDDSZVNMNBVCZAAAAAAAZZZZCVNMNNBVVBNMMmnbnmNBVVBNMMMMNNMMMMNBNNNNNNMMmmmmnnmmmmmmMNVCZZCZZASSAZBMmnMNBVVBBNNNMNBVCCCCCCVVVVCZAAAZCBNMmnmMVCCCVBMMNBVVBBVZASSSSSSDDDSAZCVBMbxzcbMVZASSSSSSDDDDACBMmmmMNNBBVVCCCZZAAAAAAZCBNMMNBBNMnbvcvvbnmMMmmmmMNBVVVVVVVVCCZZZAASSAZCVVBBNNMmMNVZASSSACVBBBBNNBVCCZAAAZCVNMmnvcxcvbbnMNNNNNNNNNBVCCCVVBBBBVCCZZZCVBNNNBVCCCCCCCCCCCZZZZCBMmnnmNVCZZZCVNmmMBVCCCVVCCCCVVVVCCCBMmmmMNBBVCZZZZZZZZZCCCCZAAZZZj",
"dmnvxzxcbnMNBVVVVCCVNMMMNBBVVVBNMMNNVCZAAACVBBVVCCCCCVVCZZSSSSSACBMMNBVBNMNNBBNNBCZADDDSACBBVVCZZZAAASSSAAAZCBMmMNBBVVBNNmnbvbmMNBNNMMNNNMnbnmNBBVVVVBNMmnnmmMMMmnnnmNVCZZZZASSSACBMmmNBVVBNNMmmnmNVCZAAZCCVVVCZAAZCVNmnnmMBZAAZVBNNBVVVVVVCZZZZAASSDDSACVVBMbcxcnNVZAAZZAASDDDSZVNMmmMMNNBBBVVCCCZZAASSSAZVBNNNBBNMmbcccvbmMNNNNNNBVVCCCVVBBVCCCCCZAASACCVVVBNmnbnmBCASSSACVBBVVVVVCCCZZAAZZCVBMmbvbbbbvbmMMNMMNNBBBVCCVVBNBBBBVVVVVVBBNNMNBVVVVVVCZZZZZZZZZCBNMMNBVCCZZZCVNNBVCZZZZZZZAZZCCCVVBNMmmMNBVCZZAAAAAAAAZZCCCCCCCVVh",
"dmnbvvbnMNBBBBNNBVVBMmmmMNNBVVBNMmmmNBCAAZCBNBVCZZZCVBBVCZZASSAZVMnnMBVBNMMMNNNNBCZSDDDDSZCCCZZZZCZZASSSAAAZVNMmMNBVCCCVBNmnbbbnmMMMmMNNNMbbnmNVVCCCCCVBMmnmMNBBMnbbnMVCZZCZAASSACBMmMBVCCVNMmmnnmNVZAAAAZCVBBVZZAZCBMnnnmBCASSZVBNBVCCCVVVVVVVVCCASDDSACVVBNmvvbmBCZZCCVCZASSDSZVNMmmMMNBBBBBBBVVCZAASDSAZCVBBBBVBNMmbvvbnmMNNBBBBBVVCCCVBBBVCCCCCCZAAAZCCCVBMmnbnmNCZASSZCBBBVCCCZZZCCCZZZAZCVNMmnmmnnvvnmMMMMNBBBBVCCCVBNBBBBBNNNNNNNNMmMNNBBBBVCZZZZZZZZAZCVBNNNBBVCZZZCCVCCZZZAZZZAAAAZZCVNMmnnnmNBCCZAAAAAAASAAZCVVVBVBBVg",
"fMmmmmNBVCCCBNmmMNBNMmmMMNNBBBBNmnbbnMVZZZVNMNVCAAZCBNNNVCCZZZZVNmbbmNVVNMMMNNBBVZASDDDDSAAZAAAZCVVCZASSSAZCBNMMNBVCZAAAZCBNmnbvbbnnnmNNNmnbmNVCZZAAAAZCNMnmNBVVNmbbbmBCCCVVZASSAZBNMNVCZZCBNMMMMNVCZZAAAZCBNNVCZZZCVNmmmNVZASAZVVVVCZZZCVBBNNNNBVCASSSACVBBNNMmMBVCZCVBNNBVZSSSACBMmmmMNBBBNNMNBVCZAASDSAZCCCVVVCVVBNmnnnnmmMNNBBBBBBVVVVBBBVCZCCVVCZZAZZZZCVNMmmmMBCZASAZVNNBVCZZZZZCCCCCZAAZCBNMMNNMmbbnmMMMMNBVVVVCCCCVBBBBNMmmmmmMMMmnnmMNNBVVCZAAAAAZAAAZCBNMMMMNBCZAAAZZZZZZZCZZASSSAZCNMnvccvnMBCZZZAAASSSSSAZVBBNMMNNBg",
"gBNNNNVCCZZCVNmmMNBNMMMMMNNNBBBNMnvcvnNCZZVBNNVZAAZVNMMNBVVVVVBNMnvvmNVVBNMMNBVVCZASDDDDDSSSAAAZVVBVCZASSAACVNMNBVZZASSSSACVNmbvvvvbnmNNNMmmMBVZZAASDDSZVNMMNVCCBMnbbnNVCVBBVCAAAZCBBBCZAACVNNMNNBVCCZZAAZCBNBVCZZZCVBMmMBCASSAZCVCCZAAZCVNNMMmmMBCZASSACVBNBBBVCCZZZVBMMMMBCASSAZVNMMmMNBBBNMmMNBCZAASSSAZZCCCCCCCCVBNMmmMMmMNBBBBNNNBVVVBBVVCZZCVVCCZZZZZZCVBNMMMNBCZAAZCBMNBCZAAAZCCCVVCCZAZZVBBBVVBNmmmMNNMMNBVVVVCCCCVBBNMmnbbbnmMMMmbbnmMNBVVCCZASSAAAAAZCVNmnnmMBCZASAAAZCCCCVCZASSSAZVNmbvcccbMBVCCCZAAASSSAZCVNNMmmmMNg",
"jCCVVVVCCCZZVBNNNBBBNNNNMMNBBVVBMncxcbMVZZZCVVCZAAZVNMNNBVBBNMMmnbvbmNVVVBNNBVVCZAASDDDDSSSSSAZZVBBVCZAAAAAZCVBBVCZASDDDDSACBmbvccvbnmNBBNNNBVVCZZSSDDDSZVNNBVCCVNmbvbMBVBNNBVCZAZZCVCZZAZCVBNNNBVCCCCCCZZCVBBVCCZZCVBMMMBCASAZCCCCZAAAACVNMmnmmMBVZAASACBNNBVZZAAAZCVNMmmmMBCASSACVNMMNBBVBNMmmMBCZAASSSAZZCCCCCCCCCVBBBBNNMMNBBBMmnmNBVCVVVCZZAZCCCZZZZZZCCVBNNNNBBVCZZZVBNNVZASAZCCVVVVVCZZZZVVVVCZCVBNNNBBNNNBBBVVCCCCVBNmnvccvbmMMMmnvcbmNBVVVVCZASSSAAZZCVBMnbbnMBCAAAAAZZCVVBBVCASSSAZVNMmbvccbmNBBBBVCZAAAAZZCVBNMmnnmMd",
"kAZCVVBBVVCZCCVVVVBBBBBBNNNBVVVVMncxcbMVZAAZCCCZZZCVNMNNBVBNMmnnnnbnmNVCCVBNBVCZZASSDSSAAAASSAZCVBBVCCZZAZZZZCCCCZASSDDDDSACBMnbbbbnmMNBVVVVVVBVCZSDDFDSACBBBVCCCBMnbbmNBBNMMNBVCZCCVVCZZZCVBNNBBVCCVVVVCZCCVCCZCCCCVBNMMBCASAZCVVCZAAAACVNmnnmMNBVZAASACBNNBCASDSSZCBNMmmnmNCASSSZCBNNNBVVVBMmmMBCZZASSSAZCVVVVCCVCCCVVCCVBNNBBBBMmnnMBCCZZZZAASAAZZZZZZZCCVBBNNBBBVVCCCVVBBBCASSAZVVVVVVCCZZAZCVVCZZZZCVBBBBBNNNBBBVCCCVBMnbcxxxvbmMNMmbccbmNVBBBBVCASSSSAZCVBNMnbbnMBCZAZZZCCVBBBBVCASSSAZVNMmmnbbnMNNNMNBCZZAAZZCCVBNNmnnbbs",
"lSZCBNMMNBVCZZZZCVBBBVVVBBBVVCCVNmvccbMBZASSAZZCZZCBMMMNVVVBMmnnnnnmMBCZZCVVVCZAAASSSSZZCCZAAAZCBBBVCCCCCCZZZAZZZAASSSSSSAZCBMmmMMNBBBVVCCCCVBNNVCASDDDDACVBNBVVVVNmbbmMNNNMmmMNBVBBBBBVCCCVBBNBBVCCVVBBVCCCZZZZCVVVVBNMMNCZAAZCVVVCAAAZCVNmnnMNBCCZAASAZVBBVZSDDDSACBNMmmmmNVZSSSAZVBNBBVVVBNmmMNVZZAAAAZCVBBBVVVVVCZZZZZZCVBVVBBNMmMNVCZAAAASSSDSSAZCCCCVVBNNNNNBBVVVVBBBBVCASSAZCVBBVVCCCZZZZCVVCZZAZCCVBVBBNNNNNBVCCCVNncxzzxvbmMNNMnvxcbMBBNMMMNVZASSSACVVBNMnnnMNVCZCVBBVVVBBBBVZASSSACBNMMMmmmMNNNMmMBVZZZZCCCCCCVVNmbvci",
"lSZVNMmmmMVCZAAZCVNNVCCCVBBBVVCVNmvcvnMVZASDSAZCZCVBMmMNVCCVNmnnmmmMNVCAAACCCCZASSDSSACVVVZAAAZCVBVVCCCVBBVCZAAAAAASSSSAAZCVBNNBBVCCCCCCZZZZVBNNBCASSDDSAZVBNNNBVVNMmmMNNBNNmmmmMMMMMMNBVVCVVBNNBVCCCVBBBVCCZZAZVBBBVVBNNBCAAAZCVBVVZZAZCBNMmmNBVCZZAAAAZCVVZASDDDSACBNMMMmMNVZASSACVBNNBBVVBNmnmNVCZZZAAZVBNNBBVVVVCZZAAAAZCVVVVBBNNNBCZASSSDDDDDDSAZCVVVBNNMMMMNBVCCVBNNBVCZSSSACBNNBVVCCCZZZZCCCCZZZZCCVVVVBBBNNBBVVVCBMnxllzcnmMNNMmnvcvnMNNMmnmMBCASDSACVBNMmnnmMBVCCBNNMNBVVBBVCZASSSACBMMMNNNNBBBNMMMBCZAAZCCCZZZZCBMbczu",
"lSZVNmnnnMBCZAAZCVBBVCCVBNMMNBVVNmbbnMBCASDDSAZZZCVNMmNBCZZCBNMmMMNNBVZAAAZZZZASSDDDSZVBBVZASAZCVVVCCCVBNMMNVCZZZZAASSAAZCCVBBVCZAAAZZZZZAAACVBBVCZASSSSAZCBNMMMNBBBNNNNBVVBNMMmnnbbbnmMBVCCVNMmMNVCCVBNBBVCZAAZCBNNVVVCVCASSAZCVBNBVCZCVBNNMMBVCZZZAAAZZZCZASDDDDDAZVBBBNNBVCZAAZCVNMMMNNBVBNnnnMVCCZZZZCVNNNBVVVVVVCZZAAAZCVBBBBVVVVCCASSDDFFFFFDSAZVBBNNMmmmMMNBVCZCVNNNVZASSACNMmMNVCCCZZZZZCCCCCZZZCVVVCCVVVBBVVVVCCVMnxzzcnMBBBNmnnbbnMNNMnbbnMBCASDDSZCBNMmnnnmNBVVNMmmMBVVVCCZASSSSACBMMMNNBVVCCVBNNVCZAAZZZZAAAACBMbczu",
"lACBMmnnmMBVCZZZCCVVCCVBMmnnmMBVBMmnMNVCASDDSSAZZZVNmmNVZAAZVBMMNNNNBCZASSAZZAASDDDDSZVBBVZASSAZCVVVCVBNMmmmNVCCCZZAAAAZCCVVVVCZASSSAAZZAAAAZCCCCCZZAAAAAZCBNMmmMNBBBBBBVCCCVBNmnbvvbbnmNBVVBNmnmMBCCCBBBBVZAAAACBNNVCZZAASSSSAZVBNNBVCCVVBNNNBVCCZZZZCCCZZZASDDFDDSZCVBBBBBCZZZCVBNMmmmmMNBBNmnnMBVVVVVCCVBNBVCCVBBBVVCZAAZVBNNNBVVCCCZAASDDDFFDDDSAZVBBNMMmnmMMNBCZZZVBNBVZASAZBmnnmNVVCCCCCZZZCCCZZZZCVVCCZCCVVVVVVVVVBNmvcvbNVCVBMmnnmmMNNMmbvbmMBZASDDSZCBNmnbvbnmMBBNNMmMBVCZZAAASSAAZCBNMNNBBCCZZCVBBVCZZAZZZAASSAZVMnvci",
"lAVNMmMMMNBVVCZZZZCCZCBMnvcvbmNBBNMMNBVCZASSSSAAAZCBMMBCAAAZVNMMNNNNNVZAAAAZZAAASDDDSAZCCCASSSAZCVVVVVBNmnnnMNBVVVCZAAAAZCVVVVCZASSSSAAAAAAZZZZZCCCCZZAAZZVBMmbbnmNBVVVVCCZZCVBMnbbbnnmmMBVVBNmnnMBCZZCVVVCZASSACVNBVZASSDDDDSSAZVBBBBVCCVVBBBVVCCCCCVVBVCZAASDDFFDSAZVBNNNBCCCVBNMmnnnnnmNNNNmmmMBBBNNNVCVVVCZZCVBNMMMBCZZCVNMMMNBVCCCCZASDDDDDDSSSAZCVVBNMnnmMNBVCZAAZVVVVZAAZVNbvbmNBVVBBBVCZZZCZZZZZCVCCZZZCVVVVVVVVVBNMmmMNVZZVNmnnmMNNBBMmbbnMBCASDDDSZVBMnvcxxcbmNBVBNNNBCZASSSSAAZCCVVNNNNBBVCZAZCVVBVVCZZZAASSSACVNMmna",
"kZVNMMMNNNBVVCCZZZZZZCBMbvccbmNBVVBBVVVCZZAASSAASAZCBBVZASACBNMMNNMMMBCZAAZZZZZZASDDDSZZCZASDSSZCVBBBBNNmnnnMNBBBBVVZAAAZCVVVVCZSSSSSSAASAAAZZZZZCCCCCZZCCBNmnbvbnNBVVVVCZZZCVBNmnnmmmmmMNBBBNmmmMBCAAZCVCCZAAAZCVBBCZSDDDDDSSSAZCVBBBVCCCVBNNBVVVVVVBNNBVZZAASDDFDDACBNMmMBVCVBMmnnnnmmmmMNNNMMMNBNMmmMBCCCZZAZCVNMmmmMBCCCBMmmmMBBBBBBCZSSDSSSAAAZZZCCCVBNmnmMNBVCAASAZCCCZAACBMbvbmNBBBNMMNVCCZCZZZZCCCCZAAZZVBBBVVVBBNNNNNBVZZZVMnbbmMNBVBNMnnMNVZAASSAZCVNMnvcxxcvmNVCCCVVVZASDSSAZCVBBVVBBBNNBVCAAZCVBNNBVCCZZASSAZCVBNNMf",
"kCBNMMNBBBVVCCCZZZAAZCBMnbbbmMBVCZCCCCCVCCZZAAASSSAZCCZASSZVNMMMNNmmmMVCZZZCCCVCZASSSSAZZZASDDSZVBNNBBBNMMmMNBVVVBBBVZAAZCCVVCCZASSSSSSSSAAZZZZZZCCCCCCCVBNMnbvvbnMBBVVVCCCCCVBNMMMMMMmnmmNBBBNMMNVZAAZZCCCZZZZCVBBBCZSDDDDSAAAAZZCVBBCCZCVBMMNBBBBBBBNNBVCZZAASDDDSZVMnbbnMBVBMnnnmMMNNMMNNNNNNNNNMnnmMVCZAAAAZCBMmnnnmNVVVNMmmmMNMMmmMBCASSAAAZCCVCCCCZZCVNMmMNBVCZASSAAZZZZCVNmbbnMNBBNmmmMNVVCCCZZCCCCCZAAZCBNNNBBBNNNNBBVVCZZCBmbvvnMBBVBBNMMNBVCZZZCCVVBBNmnvvvbmMVCAAAZZZASDDSACVNMMNBVVVBBNBVCAAZCBNMMNBVCCZAAAAZCVVVVVg",
"jCNMmMNBBVCCCCCCZZAAZCBMmmmMNBVCZZAZZZCVVVVCZAASDDSSAAASSAZVMMMNNMmmmNVCCCCCVVVVCZAAAAZZCCZASDSAVBNNBBBNNMMMBVCCVBNBVCZZZCVVVCCZASSSSAAAZZZCCCZZCCCCCCVVVBNMmnbbbnMNNBBBVCCCVBNNMMNNMmnnnmMBVVBBNNVCAAZZVVVCCZCVBBNBCZSDDDSAZCZZZCVVBVCZZZVNMMNNNNNNBBNBVVCCCZZASDSACBnvvvnMBBNMnnmMNBBBBNNNNNNNBBNMnnnMBCZAAAZCBMmnbbbmNVVBMmmmMMmnbvbnNVZAAZZZCVBBBBVCZAZCBNMMNBBVCZASAAZZCCVBNmnnMNBBBNmnnnMNBVVCCCCCCZZZAAZCVBNNNBBNNNNBBVCCZZVNnvvbmMBBBBBBNNNBVVCCVBNNNNNNMmmnmMNVCZASSSAASSDDAZBNmnmMNVVVVBBBVCZZZVNmnmMNBVVCZAAZCVVCCCCh",
"jCNmnmMBVCZZZZCCCCZZZVBNNNNBVCZZAAAAAAZCVBBVCZASDDDDSSSSSACBMmMNNMmmNBCCCVVBBBBBVCCZZCVVVCCZASSACVBBBBBNMMMNVCZCVBBBBVCVVVBVVCCZAAAAZZCVVBBBVCCCCCCCCCVVVBNNMMmnbbmMMMNNBVVBBNMmMMMMmnnmMMNBVCVBMMBVZAZCVBBBVVVVBNNNVZASDSAZVBVVVVVVVVCZZCVBMMMMMmmmNNBVVVVVVCCZASAZVMbccvmNVVBNMMNBVCCVVBNMMMNBVVBNmnmMBVCZZCVBMnbbbbnMBVVBMMMMMmnvxxcbNVCZZCCCVBNMMNBCZZZCVBMMNNBVCZAAAZCCVVVBNMMMBVVVBNmnbnnmMNBVVVVVCZAAAAZZCVBBBBBBNNBBBBBVCCBMnbbnMNNNNNNBBBBBBBBBNMmnmMNNNNNNBVCZZAAASSSSSSSSZVNmbbbmNVVVVBBBBVCCVBMnbbmMNNBBCZZCVVVVCCCh",
"jVMnnnMBCZZAZZCCCZZZCVNMNNBVCCZZZAASSAZCVBBBVCASDDDDSSSSAZCBMMMNMMMNBCZZCVBNNNBBVVVVVVBNNBBVZAAAZCVBBBNNMMMBCZZCVBBBBBBBNNNNBVCZZZCCVVNNMmMMBVCCCCCZZCVVVVBBBNMmnnmmmMMNBVBBNMmmmMMMmnmMNBBVCCCBMMNBCZZCVBBBVVVVVBNBVCASSSAZVBBBBBBVVVCZZCVBMMMmnbbnmNBVVBBNBVCZZAZCBmvcvbMBCCVBBBVCCZCCVBNMmmNBVVBNMmMMNBVCVVNMnbvvbnmNBVBBNNNNMmbcxxvnNVCCVVVVVBNMMMBVVCCVBNMMMNBVCZZZZCVBBBBBBNNBVCCCVBMmnbnnMNBBVVVVCZAAAAAAZCVVBBBBBBBBBBBVVVNmnnmMBBBNNNNBBBNNNNNNMnbbnmMNBBBVCCZAAAAAASSSSSSACBMnbbnmNVVVVBBBBBVVVBMmbbbnmMNBVCZCVBBVCCVh",
"jVMnbbmBCZAAZZZZZZZZVBMmMNVVCCVVCCZAAAAZCVBBVCZASDSSAAAZZCVBNNNNMMNBCZAACVBNMNBBVBNNNNMMMmmNBCZAZCVVBBNNMMBVZZZCBBBBBNMMmmmMNVCZZCVBNMnbvvbnMBVCCCZZZCCVCCCVVVBNMmMMmMNBVVBBNMMMMMMMmmNBVVVVCCCBMmMNVZZCVBNBVCCCCVVVVCZASSSACCCVBBBBVVCCCVBNMmnbvcvbmMBBBNMMNNVCCCCVBMbbbmBCZAZZCCCZZZCCCVNMmmNNBVBNNMMMMNNBBNMnbbvbnmNBVVBBBBBBNMnvcvnmBVVVVVVVVBBNNNNNNNNMMMmmMNVCZZZCCBMmmMNBBBBVCCZCCVNMnnnmMNBVVCCCZAAAAAAAAZCVBBNNBVVCCVVVVBMnnmNBVCVBNNNNNNNNMMMMMmnbbnmMNBBVVCZZZZZZAAAAAAAZCBNMmmMNBVVVVVBBBBBBVBNMmbbbnmMNBVCVBBBBVVBg",
"hVMnnnMBCZZAZZZZAAAZVNmmMNVCVVBNBVCZASAZCVVVVCZASSSAZCCCVVVVBBBNNNBVZASAZCBNNNBVVBMMMMmmmmnnMBCZZCVBBNNNMNVCZAZCVBBBBNMnnnnmNBCZZCBNMnbvccvnMBCZZCCCZCCCCCCCVVBBNNNNMNBVCCVBNNMMMMMmmMBVCCVVVVVBMMMNVZZCVBBBVCZZZCCVCCZASSSSAZZCVBBBBBVVVBBNMmnvcxcbmMNNNNmmmNBVCVBBNMmnnMBCASAAAZZZZZCCVVNMnnMNBBBBNNNNMMNNNMnbbbbnmNNBBBBBVVCVBMnbbnMNVVVVBBVVVVVBNNNMmnnnmmmmMNVCZZZCVNnbbnMBVVVVCCZZZCBNmnmmMNBVCCCZZAAAAAAAAZCVBBNBVVCCCCVVBMnbnmBCZZCVNNNNMMMmmmmmmmnnbbmmMNNNBVCZZZCCZZZZCCCCVVBNNNBVCCVVVBVVVBBBVVVBMmbbnmMNNBVVVBBBBNMs",
"hBNmmMNVCZZZCCCZASAZVNmmMBVVBNMmMNVCAASAZCVVCZZASSAZVBBBBBVVVVVVBBVCASSSSZCVBBVVVBMmmMMMMmbbnMVCCCBNNNMNNBVCZAAZCVCVVNMnnnmMNVCZZZVNmnbvvvbmNBCZZCCCCCCCZCCCVBBBBBVBBBCZZZZCBBNNNNMmMNVCCCVBBBBNMMNBCCCCVVBVCZZZZZCCCCZAASDDSSAACVBNMMNNBBBBNMnvccvnmMMMNMmmmMBVVBNNNNMMmMBCASSSAAAZZCVVVBMmbbmMBBBBNBBBBBBNMmbvbnmMNNNBBBBVCCZCBNmmMNBVCCVVBBVCCCCVVBNmbccvnmMNNBCZAAAZCNnvcvMBVCCVCCZZZZVBMmmMBVVCCCCCZZZZZZZAAZVBBBBBVVVVVVBNmnvvbMVZAACVNMMmmnnbbbbbnnnbbbnmmmmmMNVCZZZZZZCVBBVCVVBBBBVCCCBBNNBVVVVVVCCCVNMmMMNNNNBBVVVVNmvi",
"hVNNNNBVCCCVBBVZASAZVNMMBVCCBNMmMNVCZASAZCVVCCZZAAZVNMMMNNBVVCCCCCCCZASSSSZCVVCCVNmmmMNNNmbvbmBCCCVBMMMMNBVCZZZZZCZCCBNMmMNNBVCZZZVBMnbbbnmMBVZZCCVVCCCZZZCCVVBVVCCCCCZAAAAZVVBBBNMmMNBCCCVBNNMMMMNBVVVVVBBVCCZZZZZZZCZZASSDDDSAZCBNmmmMNBBVBBMnbbnmmMMMMMmmMNVVVBMmMNNNMMBVZASSSAAZZCBBBNmbcvnMBBBBBBVVVVVBNmbbnMNBVVBBBBVVCZZZVNNNBVCZZZCCVVCZZZZCCBNmbccvnMNBBBVCASSACBnvcvmBCZCCCCZZAZCVMmmMBVCCVVVCCCCVVCZZZCVBNNBBVVBBBNMmbcxcbMVZAAZVNMmmnbvccccvbnnnbbnmmmmmmMBCCZZZZCVBNNBVVCCVVCCZCCBNMMNBVCCCVCCCCVNNNNNNNNVVCCCVNnxy",
"hVVVVVVCCVVBMMBVAAAZCVBVCZZZVBNNBVCZAAAAZCVVCCCCZZCVNmmmMNBVCCZZZCCCCZSSSSSAZZZZVNmnmMBBBMbvbnNVZZVBMmmmMNBVVCZZZZAZZCBBBBBVBVVCZZCVNmnnmMNVCZZZCVVVCCCZZZZZCVVVCZZAZZAASSAZCVVVVBMmmMNVCCCVBNMmmmMNNNNNNNBVCCCCZZAAZZZZAASSDSAACVBMmnnmMBVCCCVNMMMMMmMMMMMNNVCCVNmnmMNNNNBVZASSSAAZCVBNNmbcxxvmNBVVVVCZZZZCBMnnMBVCCVBBBBVCZZZCVBBVCZAAAAAZZZAAAAZCCVNMnbbnMBVVBNBVZASSAVMbcvmBCZCCZZAAAAZVNmmMBVCVBBBVVVBBBBCCZCVBNNNBBBMMMmbvcxxcbMVZAACVNMmmnbcxzzxvbnnnnmmMMMmmmMBVZZZZCVBMmMBVCZZZCCZZCCBNMmMNVCCVVVCCCCVBNNBBBVCZZAZCNblt",
"hVCCCCCCVBNMmmNVZAAZCCCCZAAAZVBBCZAAAAAZCVVVVVVVCVVBMmmmMNBVCCZZZZCVVCASDSSAAAAZCBMmMNVVBNnbbnNVZZCVNMmMNNBBVVCZAAAAAZVVBVVVBBVCCZCVBMmmMBVCZZZCVVVVCZZZAAAZZCCCZAAAAASSSSAZCVVVBNMnnnmNVCCCVBMmmmmMmmmMMNBVCCCCZAAAAAAAZAASSAZCVBNMnbbnMBCAAAZCVBBNMMmmMMMNBVCCVNmnmMNBBBBVZAAAAZZCVVBNNmbvxcbmNBBVVCZAAAZCVNMMBVZZZCBBNBVCZZZZCVVCZASSSSSSAASSSAZCCVBNMMmMBVVBNMNBZASSSCNnvvMBCZZCZZAASAZVMmnmNVCCBBBBVVBNNBVCZCVBNMNNNNMmmnbccccvnNVZAACBMmmmmncxzxcbbnmmmmMMNMMMMMBVCCCVVBMmmmNVCZAAZZZZZCVBMMMNBVVVBBVCCCVBNNBVVZZAAAACBnzt",
"hCZZZZCVBNMmnmNVZAAZZZZAASSAZZCZAASSSAZCBBBBVVBBBBNNNNMNNNBVVCZZZCVBBBCASSAZZZAAZCBBBVCCVNMnnmNVZAAZVBBBBBBBBBCZAAAAAZVBBBBBBBBVCZZCVNMMBVCZAAZCVVVCZAAAAAAAZZCCZASSSSSSSAZCVBBBNMmnbbnMBCZAZCBMmmnnbbnmmMNVCZZZASSSAAAAZZAAZCBNMMmmnbbnNVZSSSAZZCVBNMMmmmMMBVCCVBMmMNBBBBVCZAAZCVVBBBBBBNmnbbnMNBBBVCZZAZZZCVVVCZAAZCVBNNVCZAZZCCCCZASSSSSSSSSSSAAZCCCVBBNNBVVNmnmNCASDSZBMnbMBCZCCCZAASAZVMnbnNVCCVVVVCVVBBBVCZZZVBMMMMMmmmmnbbnmMNBCZAZVNmnmmmnvvcvnmMMMmmmMNNNNNMNBBVVNNMmmmmMNVCZAAAAZZZZCVBNNNBBBBBBVVCCVBNNNVZASSSSACBmcu",
"jCZZZZCVBMmnnmNVZAAZZZAASSSSAAAASSDDSAZCBNNNBBBNNNMMNNNNNBBVVCZZZZVBNBCZAACCZZASAZCCCZZCVBNMMMBCASSAZCCVCVVVVVCZAAAAZCBNMMNNNBBVCZZZCVBBVCAAAACVVVCZAAASSSAAAZCCZASSSSSSAZCVBNNNMmbbvvbnNCASSZCBMmbvcvbnmMNVZAASSDDSSAAZZZZZCBMnbbbbbbbmNCASSSAAZZCVBNMMmnmmMBCCCVNNNNBBBVVCZAZCBNMMMNBBVBNNmmMNBBBBVVCZZZZZCCZZAAAAZCVBNBVZAAZZCVVVZZASSDDDSDDDSSAZZCCCVVBBVVBNmnnMVASDSAVNmmMBVCVVVVZAAAZVMnnmNVCZCVVVCCVVBVCZAAAZVNmmmMMMMMMmmMNBVCCZZCBMnnmMMmbbbnMNNNMMmmMNBBBBNNNBBNMnnnnmMNNBVCZASAAZZZZZCVBBBBBBBVVVVVBNMMNVZASSSAZCBmvi",
"jZAAZZCVNMmnnmBCZAZZZZZASSSAAAAASDDDSSACBNNNBBBNMMmMMNNNNBBBVCZAAZCVBVCZCCVVCZASSAAZZAZZVBBNBBCZASDSSAZZZCCCCCZAASAZCVMmnnmMNBVCZZAZZCCCZAAAAZCBBVCZASSSSAAAZCCCZASSSAAAZCVBNMmmnnbvvcvbNVASDSZCNmbcccvnmMBVZASSDDDDSSAZCCCCVMbcxxcccvbmBCZAAZZZZZCVBNNMmnbbnMBCCCVVBBBBBVCZAAZVMnbbnmMBVVVVBBBBBBNNBBVVVVCCCZZASSAZCVVVBVZAAAZCVBNNBVZASDDSSSSSSSSAZCCVVVVVVVVNmnnMVZSDSACBMMMNVVBNNNVCZAZVNmmMBCZZCVBBVVVVVVCZASSACBMmmMNNBNNNNBBVCCCCCVNMnnMMmmnnmMNNBBNNMMNBVCCCBBNNNMnbbbnMNNMMNBCASSAAAAAAAZCVVBBBVVCVVBMmmMNVCAASAZCVNmbp",
"kAZZCCVVNMmmmMVCAAZCCCCZAAAAZZAASSDDSSACBNMMNNNNMMmMMNNNNNBVCCZAAZCVVVCCVBNBVCASSAAZZAAZCVBBVVCZASDDSAZZZZZZZZAASAAZVBMnbbmMBVVCZZAAAAAASSSSAZVNNBVZASDSSAAZCCVVZAAAAZZZCVBNNMmmmnbbvvvnNCADDSSZBMbcccvbmMBVZSDDDDDDDSAZCCVVBMvxllzxcvbmBCCCVVVCCCVVBBBNMmbvbmBCZZZCVBNMNBCZSAZBmbvvbmNBCCZZCVVBBBNNNBBVBVCCCZASDDSACCCCCCZZAAZCVNMmNBZASSSAAAASSSSACVBBVVVVVVVNMmmNCASSSAZCBNNNBBNMmMNVZZCVNMMNVCZZCVBBBVVVBVCZSSSSZVNMMMNBBBNNNBBVVCCCVVNMmmMNMmmmMMNNBBBBNNBVCZAZVNMmmnbvvbnMNNMMMNVZSSSSAASSSAAZCBBBVCCVBNmmmMBVCZAACCBNNMna",
"kZZCVVVVBNMMMBCZAAZCCVVVCCZZZZZAASSSSAACBNMMMMNNNNMMMMMMMNBVCCZZZZCCCCCVBMMMBCZAAZCCCZZZCVBVVVCCCZASAACCCCCZZZAASAZCBNMmnmMBVVCCZZZAASSSDDSSACBMMNVCASDSAZCVVBBVZZAZZCCCVBBNNNNNNNMmnnnMBZSDDDSACNnbvcvbmMBCASSDDDDDDSAZCVVBBMvxlklxcvnMBVBNMMNBVVBBBBBBNMnbnmBCZZZCVNnnnMVZSSZVmnbnmNBVCZZZCVVBBBNNBBBBVVCZZAASDDSAZZZZZZZZZZZCBMmmmNCASSAZZZZAASAZVBMMBVCCCVVBMMNBCAASSSAZCVVBBBNMmmMBCCCVNMNBVCCCVBNNBBBBBBCZASSSAZVBNNNBBBNNMMMNBVCCVVBNNNBBNNNMMMMMNNBVBBVCZAAAVNnbbbvvvbmMBBMMmMVZSSDSSSSSSSSACVVVCCCVNMnnmNBCCZZCVBNMNNMd",
"jCVVBBBBBNNNBVCZAZZCVBBBVVCCCCCCZAASSAZCBNMMMMNBBBBBNNMMNNBVCCCCCCCCCCCBNmmmNVCZZCVVCCZZCVVVVVBBBVZZZZVVVVCCCZAAAZCVBNMmmMBVVCCCCZZZASSDDDDSACNMmMBCASDSACBNNNBVCZZZCCCCVBBNNBBVVVNMmmmMVZASDDSAZVMnbbbnmNBCZAASSDDSSAAZCVVBBMbczlzxvnMNBBMmnnMNBBBBBBVVVBMmmMBCZZZCBMbvnMVASSAVMmmMNBCCZZZZCVBBBBBBVVVVCCCZZZASDDSAAAAAZZCCCCCVBNmmMBCZAACCVVCZZZZCBMmmNBVCVVBNNNBVZAAASSSAAZCVVBNNMMNBVCCVNMNBVCVVBNNNNNNNBBVCZAASSAZVVBBBBBNMMmMMBVCCVVBBBBVVBBBNNMMMNBVVVVVCZASAVMbcccxxvbmMBBMmmMBCASDDSSSSDDDSAZCCCCCBMmnnMNVCCZCVBMMMNNBg",
"hVBNNMNNNNNBVCZZZZCCVBNNNBVVVVVVCZZAAAZCBNNNNNBVVCCVVVBBBVVCCCVBBBBBVVVBMmmmMNVVCVBBVCAAZZCCCVNMmMBVCVBBBBVVVVZZAZCVBNMMNBVCCCCCCCZAASSSSSDSZVMmmMBCASDSZVMmMNBVZZZZCCZCVBBBVVCZZCBNMmMNBCASSSSSACBMmmmMNBVCZZZAASSSAZZCVVBBBNmbcxcvnMNBBNmnnnMBBBBBVVCCCCVBBVCCCCCVNMbbnMCASSACBNNBVCZZZZZCVVBBBBBVCZZZZZZZZZASSSAAZAAAZCVBVVVVBBNNBVZAAZVBBVVVVCVBMmbnMNVVVBNNNBVCZZZZASSSSAZCCVVVVVVVCCCVNNNBVVBBNNBBBBNNBVVCCZAASSAZCVVVVBNMMMMMBVCCVBBBBVVVVBBBNMMMNBVVVBBVCASAVMvxzllzcbmMNNMmmmBCASDDSSSSSDDDSAAZZCVBmnmmNBVCCCVVNMmMNVCj",
"gBNNMMMMMMNBCCZCCCCVVBNNNNBBBBBBCZZZAAAZVVVVBVVCCZZZZCCVVCCZZCVNNMMNBBBNMmmmMNNBBBBBCZAAAAAZCVNmmmNBVVBBBBBBBVCZAAZCVBNNBBVVVVVVVCCZAAAAAASAZVMmmMBCASDSZVMmmMBCZZZCCCZCVBBBVCZAACBNmmmMNVCASSDSSZVBNNNBBVVCZZCZZAAAZCCVBBNNNMMmnnnmMNBBBNmnnmNBBBBBVCZZZZZCCZZZCVVBNMnnmNCASSAZVBBBVVCZZZCVVBBBBBVVZAAAAAAZZZZAAAZZCCZZZCVBBBBBBBBBVCAAACVBBBBBBBBNMmnnmNBBBBNNNBVCZZCZZASSAACCCCCCCCCCCCCVBNBBVVVBBBVVVVBBVVCCVCZZASSAZCCCVBNMMMMNNBVVVBNNBVVVVVVBNNMMNNVVBBNBCASAVMvxlkkzcbmMMMmmmmNVZSSSSSASSSDDDSSAAZVBMmMMBVCCCCVBNMmMNVZk",
"gBBBNMmmmMNBVCVVBBVVVBBNNNNBBBBBCCZAAAAAZZZCCCCZZAAAAZZCCCZZZCBNMmmmMMMmnnnmMMMNNBVVZZASSSSAACVNMMNBVCVVVVBBBVZZAAZCVBNNBBBBNBBVVVVVCCCCCZAAZCNMmMBVZSSSZVNMMNVCZZCCCCZCBNMNVCAAZCNmnbbnmMVZASDDSAZCVVVCCCCCZCCCCZZCVVVVBNMmmmMNNNNNNBBBBBNMNBVVBBBVCZZZAAZZAAAZCVBBNNMNBVZASSAZCVBBNBVCCCVBBBNNBBVCZAAAAZZZZZAAZZCVBBVCCCVBBNNNNNNBVZAAAZVVVVBNMMNNNMmmmMNNNNNNNBVVVVVCZAAAAZCVVCCCZZZZZZZZVBBBVCCCCCZZZZCCCCVVBBVCAASSAZZCCVNNNNNNNBVVBNMMNBBVVCCCVBBNNNBBNNMNCZAACNbxzllxvnmmmmmmmmNBCASSSAAAASSDDDDSSZCVNNNBBVCCCCVBMmmmNVZk",
"gBVVBNMmmMNBVVBNMMBBVVBBNNNNBVVVCZAAASSSAAAAAZZAAAAAAAZCZZAAZCBMmnnnmmmnnnmMMNMMNBVCZAASSSSSAACVBNBBCCZZZCVVVCZAAAZCBBNNNBBNNNBVVBBNBBNNBVZZZCBMmmNBCAAAZCBNNNVCZZCCZZZCNMmMBCZAZVNmnbbbnmBCZSSDSSAZZCCCVCCZZZCCCCCVBBBBBMmnbnMBVVVVVBBBBBBBVCCCVBVCZZZZZZZZZAAZCVBNNBBBVCZASSSACVVBNNBVCCVBNNNNNBVCZAAAZCCZZZZZCVBNMNBVCCCVBNMmmmmMBCASAZCCCCVBMMNNBNMmmmmMNNBBNNNNNNNBCZAACVBBBVVCCZZAAAAZCVBVCCZZZAASAAAZZCVBNNBVZAASAAZCCVBNBBBBNBBVBNmmMNBBVCCCCVVBNNNNNMNNVZAACBnvxzxcbmmmmmmmmmMNCZASSAZZZZASSSSSSACVBBBBVVCCCVBNmmmMNVZk",
"hCCCVBNMMNNBBNmnnmNBBVVBBNNBVVCCZAASSSSSSSSSAAAAAAAAZZCCZZAAACBMnnnnnnnnmMNBBBNNBBVCZAASAASSSAAZCVVVZZAAAAZZZZZAAZCVNNMMNNNNNBVCVBMmmmnnmNVZZZVNmnmNVCZAZZVBBBVCZZZZAZZVMnbnNVCZCVNMmmmnnmNVZASSSAAZZCVVBBCZAAZZZCVBNNBBBMnvcbmBCZZCCVVVVVCCZZZCVVCCZZZCCCVVCZZZCVBBBVCCCZAASSAAZCVBNNNBVVBNNNNNNBBVZZZCVBBVCZZCVBNMmMNBCCCVBNmnbvvnNVASSAZZZZCVBNBBVVNMmnnmNBBBNMMmnnmMVCZZVBNNNNNBVCCZZAAAZCBVCZAASSSDSSSAZCBNMMNVCZAAAZZCCVVVVCVVBNBBBNmnnmMNBVVCCCCVNMMMNNNBVCAZCBMnvvbbnmMMMmmmmmMNVCAAAACVVVCZAASSAACCVBBBBBVVBBNMmnmMNVCj",
"jZZZCVBBBBBBNMnbbnMNBVVVVBBBVCCZZZAAAAASSSSSSAAZZAAZZCVCZASSACBMmnmmmmmmMNVVVVBNBBVVCZAAAAAAAAAAZCCCZAASSSAZZZZZZZCBNMMMMMMMNBCCVBMmnbbbnMBCZZCBMmMNBCCZZZCVBBBVZAAAAAZVMnnnMBVVVBNNNMMmnmMBCZAAAAZZZCVBNNVZASAZZCBNmMBBBMbcxvmNCZAZZCVVVVCZAAAZCCZZAAZCVBNNBVCCVVBBVCCZZZAASSSAZCCVNNNBBBBNNNNBNBBVZZCVNNNNVCCVBMmmmmMNVCCVBMnvcxcvMVZSAAAAAAAZVBVVVVBMmnnmNBVBBNmnvvbmBCZZVBMmmMMNBVVCZZAAZCVVCZASSSDDDSSAZVBMMMNBVCZZZZZCCCVCCCCVBBBBNMnbnnMNBVVCZZZCBNNNBBBBVVCCVBMnnnnnmmMMMMMMMMMNBVZZZCBNMMBVCZAAAZCCVVBBBBBBBNMmnnMNBVZj",
"kAZZCVVVVBBNMmbvvbmMNBVCCVVVVVCCVCCZZZZZASSSAZZCCCZCVVVVZASSAZVNMMMMMMNNBVCCCCVBBNNBVZAAAZZZCCZZZCCCCZASSSAZCCCCZCVBMmmMMMmmMBVCCVBMmnbnmMBVCZCVNNNNVVCCCCCVVBBVCASSSSACNMmMNNNBNNBBBVBNmmMBCZZZZCCCCVBNMNVZASSAZVNMmmNBBNbcxcnNCZZZZCCVVVCCAAAAZZAAAAZCVNmmMNVVBBBVCCCCZZZASSSAZZCCVBBBBBNMMNBBBBBVCCVBNMmMNBVBmnbbnmmNVCCCBMbcxxxvMVZAAAASSSSACVVVVVBNMmmmNVVVVBMnvcvnBCZZCBMmnmmMNBBVCZAAZCVVCZAAAAASAAZCCVNNMMNBVVVVCCCCCCCCCCVVBBVBNmbbbnMNBBBVCZZCVBBVVVVBBBVVBNmnnmmmmmMNNMMMNNMMNBVVVBMnbnmNBVCCZZCCVVBBBBBBNMmnnmNBVCZk",
"kAZCCVVVVVBNNmbvvbmMNBVCCCVVVVVBBBBVCCCCZASAZCVBVVVVVVVCZASSAZVBNNNBBBVVCZZZZCVBNNMNBCAAAZCVVVVCCCCCCCZAAAZCBBBBCCCVNMMMMMmmMNVCVVBNMmmmMNBVCZZCVVBBVVVVCCCVVBBVCASDDSAZVBNNMMMMMNBVCCVBNMMNVCCCVVVCCVBBNBCZSSSAZVNmnmNBBMbcxcnNVZZZCCCVVBBVZZAAZZASSAZVBMnnmNBBBBBVCZZZCZZAAAAZZZZCCVVVVBNNMMNBBBBVCCVBMmnnMNBMnvvbnmMNBVCVNmvcxxcbNCAAAAASSSSSZVBBBBBBNNMNVCCZCVBMnbbmBCAZCBMmnmMMNNNBCZAAZZCVCZZZZZZZZCVVBBNNMMBBBBNNBVVVVVVCCVBBBBBBMmbbnmNBVVVVZZZZCCCCCVVBBBBBNMnnmmMmmmMMMMMMMNMMMNNBBNmbvvnMNBBVCCCCCVVBVVVBBNmmmMNBVCAk",
"lSZCVBVBBBVBBNmnnnmMNBVCZZCVBNNNMMMNBBBVCZAZCBNMNNBVVCCZAASSZCVBBBVVCCZZZZZZCCVBNMmMBCZAAZVBNNBVCCCCVCCCCCBNmnmMVCCCVVVBBNMmMNBVBNNNNNNNBBVVCZAAZCCCVVVVCCCCVBBVZASSSSAZCVBNMnnnmNVCCZCVBBBBVVVBNNVCCCCVVVZAASAZCBMmnmNBNMbccvmBCCCCVVVVNNMNVCCCCCAAAZCVNMnnMNBBNNBCZZZZCZZAAACCCCZZCCCCCVBNMMNBBBBBVVBNMmnnMNNMbvvbmMMNBBBBNmvxzxvmBZASAAZAAASACVNMNBBVVVVVCZAAAACVMmmMVZAACBMmmMNNNNNNVZAAAZCCCCCCCCCVVBNMMMMMMNBBNMmmMNBBBBBBBNMMNNNNMmnnmMBVCCCZZZZZZCCCCVVBBBBNMmnnmMNMmmMMmmnmMMNNNNNNNMnbvbmMNNNNVVCCCCCCCCCCVBMmmMNBVCAk",
"lSAZVBBVVVVVVBMmnnmMNBVZZZCVBNNMmmMMNNNBVCZZVNMmmMNVCCZAAAAAZCVBBVCZAAAAAZZCCVBNMMMMBVZAZZVNMMNBVCCCCVVVVBMnvcbmBCZZZZZCVBMMNNBBNMMMBBVVVVVCZZAAAAZZCVVVCCCVBBVVZAAASSAAZCVBMnbbnMVCCCCVVVVVVBBNMNVCZZZZZZAAAAZCVNMmnmNNNMbvbnNVCCVVBBVBNMMMBVVVBVZZAZVBMmnnMNNNNNBCZAZZCCCCCCVBVCZZZZZZZCVBMmMNNNNNNNNMmmnmMNNMbvvbmMNNNMNMmncxzxbMCAAAZCCCZZAACBMMNBBVCCZZASSDSSAZVNNNVZAZCBMMMNBBNNMNVZASSAZZZZCCCCCVBNMmMMMNNNBBNmbbnmMMNNNNMMmMMNNNMMMNNBCZAAZZZZZZZZZCCVVVVBBNmnbbmMNNMMMMmnnnmMNNBNNMMMmnnnMNBNNNBVVVCCCZZZZZCVNMMMMNBVZk",
"lDSZCVVVCCCCVBMmbbnMNVCZAAZCVBBBNNMMMMMMBVCCVNMmmMNVCZZAAAAZVBBBBVZASSSSAZZCVBNNNNNNBVCZZCBNMMNBVCCZCCVBBMnczxvmBCAAAAAZCBNNBBBNmnnMBVCCCCCCZZZAAAAZCCCCZZCVBNBVCZZZZAAAZCVBMmnbnMBCCCVVVCVVBNNNNBVCZAAAAAAAAZCVBMmmmmNBNMmnmNVZZCBBNBBBBNNNBBNNMNVCZCBMmnnnMMMMMMBCAAZCVBVVBNMMNVZAAAAAAACBMmmmMMmmmmmmmmmMNBBNnbbnMMMMmnmmmbczlxnNZAAAZVVVVCZZCVNNBBVVCZAASSDDDDSACVBVCZACVNMMBVCVBNMNVZASSSSAZZZCZZCVNMmmMMNNNBVBNmvcvvbnmMMMmmmMNNNNNBVVCZASSAAZCVVCCCCCCCCCCVBNnbvvnMNBNNBNMnbbnmNVVVBNNMMMMNBVVVBBVVVBVVCZZZZZZZVBNMmmMBCj",
"lDSAZCCCCZCCVBMnvvbmBVCZAAZCCVVBBBBNNMmmNBVVBNMMmMNVCZZAAAZCVBNNBVZASSSAAZZCVBNNNNBBBVCCCVBNMMNBVCZZZCVBNMbcxxbMBCZASSSAZCVBVVVBMmmMBCZAZZZZZZZZAAAZZZCCZCCVNNBVVVVVCCZZCCVBNmnnnMBVVVBBVCCVBNNNBBVCZAASSSSAACVBNMmmmmNBBNMMBVZZZVNMMNBBBBBBVVNMnmBVCCNmbvvbnmnnmMBCAAZVBNNNMmbnMBZAASSSSAZVmnnnmmnnbnnnmMMNVVVBMmmmMMMMnnnnnbczlxnBZAAACVBBBVCCCVNNBBVVCZAASSSDDDDSACVVZZZCBNMNVCCCBNNNVZASSSSAAZZZZZCVNMmmmMNBVVVVNmcxxcbnmmMMMMMNBVBBVCZAASSSSAZCBBBVVCCCCCZZZCBMnvccnMNBBBVVNMnnnMBCCCVNMMMMNBCZZCVVVVBBBBVCCZZZZZCVNMmmmNCj",
"lSSSAZZZAZZCBMnvxxvmNVCZAAAZCVVBVVVVBMmmMMNBBBBNNNBVCCZZZZZCVBBNNBCZAAAAZZZCCVBNNNBBBBBVVVBNNNBVCZAAAZVBNMmnvbmNBCZAASSSAZZCZZCVNMMNVZAAAAAZZZCZZZZZZZCCCCVBNNBBBBBBBVVVVVBNNMmmmMNVBBNNVCCVBNBBVVVCCZAASSSAZCBNMmmmnmNNBNNNVZAACBmnnmNBVCCZZCBMnmNVCVNmvcxcvvvvnMBCZZCBMmmmnbvbMBCAASSSSAZVMnbbnnbbvbnMNBVVCZCVNMmmMNNMmnmmmnvxlznNZAAACVBBBVCVVBNNBBBBVCZAAAAASSSSAZVVCZZCBNNBVCCCVBBBCAASSSSAAAAAAZCVNmnnnMBVCZZCBmcxxcbmMMMNNBVVCCCCCZASDDDSSZCBMMMNVVCCZZAAZVNmbcxxbmMBBVCCVBNMNBVCZCVNmmmMNVCZAZZCCCVBBBVVVVCCZZCBNmmnmNVj",
"lSSAAAAAAACVBMnczzcnNVCZZAAZCVNNBVVVBNMMMMMNBVVBBBBVVCCCCCCCCVBNNNVCZZZZZCCCVVBNMMNNNNNBBBNNNBVCZASSAZVBBNNMmmMNBVCZSSDDSAAAAZZCBNNBCASSSAAAZZCCCCCCCCCCVVVBNNNNNMMNNBBVVBNNMmmmmMNBBBNNVCCCBBBVVCVVVCZAAAAZVBNMMMMMmMNNNNNBVZAACNnbbnMBVCZAAZVNmmNBVVNmvcxxcccvnNVCCCVBMmmmnnbnMBCZASSSAACVNmbbnnbvvbmNVCCZZZCVBNNNNNNNMMMMNmbczxnNCAAACVBNNBBBNNNNBBNNBVZZZZZZZASSAZVVCZZCVBBVVCCCBBVVZAAAAAAAAAAZZZCVNMnnnmBVZZAZVMvccvnMNNNBBVCZZZZZZZASDDSSAZVBmmMNVCCZZAAAZVNmbvcvbmMNBVCCCCVVVVCCCCBMnnmMBVZAAAZZZZCVBBBVBBVVCVVNMmmmMNCj",
"lAAZZZAAAAZVBNnvzzcnNVVCZZAZVNmmMNVVVBBNNMMNBVVVBBBBVVVVBBCCCCBNNMNBVCCCCVVBBBNMmnmmMMMMNNNNNBVCAASAAZVVVVVVBBNNNBCZSSDDDSSAAZZCVBNBCASSSSSAZCVVVVVBBBBBBBBBNNNNMmmMNNBBBBNMmnnmmMNBBBNNVCZCVBVVVVVVVCCZZZCVBNmmMNNNNNNNNNMNVCZZVNmnnmMBVCZAAACVNNBVVBNmbvcccccbMBCCCCVBNMMMNNMNBVVCZZZZCCVVNMmmmmnbbmNVZAAZZCCVBBBBVVBBBBBBBNmbvvmBCAAZCVBNNNNMMmMNBBNNBVCZZCVVCCAAAZCCZZAZCVVVVVVVBBVCZAAZZZZZZZCVVVVVBMmnmMBVCZAZVNnbnmNBBVVVVCCZZZCCCZZASSSAZCVBNMNBVCZZAAAZCBMmmnnnmmMMNBVVCZCCCCCVVBNMnnmMBCZAAAZZZZCCVVVBBNNNBBNMMMNNBVCj",
"kACCVVZAAAZCVNMnccvnNVVCZZZZBMnbnMBVVCCVBNMMBVCCVBBBVVVBNNVCZCVNMMMNBVVVVVBBNNNMmnnmMMMMMMMNBVCCZAAAZZCVCCZZCVBNMNVZASSSSSAAZZCVBNNBCZASSSSAZCBBNNMMmMNBBVVBBBBNMmmMNNBBBBNmnbnnmMNBBBNNBCCCVBBBVVVVVVVVVVBNMmnnMNVVVBBNMMmMNVCCVBMmmMNBVVCZZZZCVBVVVVBNMmnbvbbmBVCZCCCVBNNNBVVVVVVVVVVVBBVVVBBNNMmnmMVZAAAZCVVVBBVVCCCCVVCCVBMmnnMBCZZZCVNNMMMmnmmMNNMMNBCZZCVBBVCZZZCCCZAAZZCCCCVVBBCCZAZZCVVVVVBNNNBBBNmmmMBVCCZZCBNMNBVCCCCCCCZZZCVVVVCZAAAZZCCVBBBVCZZAAAZZCBNMNNNNNMMMMNBVCCZZZCCVBNMmbnmMBCZZZCCZZZCCVVVBMMmmMMMMMNBVCZZk",
"jCVBNNBCAAAZCVNMnbnmBVCCZZZCVNnbnmNVCZZZCBMMBVCCVVBBVVBNMMBCCCVBNMMMBVVCCVBBNMMMMMMMMMMmmmMNBVVCCZZZZZCCCZZZZVBMMNVCZAZZAAAZCCVBMmmMVCAASSAAZVBMMmnbvbMNVCCCVVVVNNNNNBBBVVBMnbbnmNBVBNMMBVCVBNNNBBVVVVBBBNMmnbvbMBCZZCVBmnbbmNBVVVBBNNNBBBBBVCCCCCCCCCVVVBNMmmMNVZZZZZCVBNNBVZAAZCBBBNNMMNBVCCCVBNMMNVZASAZCVBBVVVCZZZZCCCCCVBNMMMBVCCCCVBNMMmmnnnmMMMMMNBCCCCVBBBVCZCCVCZZAZZAZZZCCVVCZZZZCVBBNNMmnnmNBBNmmMNVVVVZZZCVVVCZZZZZZZZZZCVBNNNBBCCCCCCCCVVCCZAAAAZCCVBBBVVCVBNMmmMNBVCCCZZCBNmnbbbmMBCCCVVVVCZCVVVBNmnbbnmMNBVCZAAAk",
"hBBMmmNBZAAZCVBNMmMNVCZZZZZZVBMmmMBVZAAAZVNMBVCCVBBBVVBNMNVCZZCVBNNNBVCCCCVBNMNNNBBBBNNMmmMMBBVVVVVVCCZZZZZZZCBNMMBCCCVVCZCCVVBMmnnmBCZAAAAAZVNMmnbvcvmBCZZZZZZCVBBBNNNNBBBNmnbnMNVVBNMMBBVBNMMMBBVVVBBBNMmnbvvbMBZAAACBMnbbnmMBVCCCVBNNNMMNBBVCCZZZZZZZZCVBNNBVCZZZZZZCBNNBCZSSZCBNNMMMMNBCZZZCVBNNVCASSACVBNBVVCZAAAZCVVCCVBNNNBBVVCVBBNMMMMmmnnmmMMMMNBVCVVBBBBVCCCVVVCZZZAAAAAZCCCZZZZCCVNMmnbbbbnMNNNmmNBVVVVZZZZZZZAAAAAAAZZZCVBNMmMMNBVVVVCCCVVCCZAAAZZCCVVBBCZZZVBMmmmNBBVVCZZCVNmnbnnmNBVVVNNBVCCVVBBBNmbvvbmNBVCZZAAAk",
"fNMmnnmNCZAZCCVBNNBVZAAAZZZZZCVBBBVCZASSZCBNNBVVBNNBBBBBNBCZAAZCCCVVVCCZZZCVBNBBVCCCCCVBNMMMNBBBNMMNBCZZZZCCZCVNMMBBBBNNBVVVVBNmbvvnMBCZZAAZCVNMmnbvcbMVZAASSASAZCVBNMmMNNBNMmnmMBVVVBNNBBBBMMMNBVVVBBBBNMMmnbbnNVZASAZCNmnnnmMNVCCCVBNMMMmmMNBVCZAAAAAAAZCVVVVCZZZZZZCVNMMNVZSSZVNMMMMMNBCZZZZCCVBVCZSSAZVBNNBBVVZZAZCBBBVVBBNNNBBVVVBBNNMMNNNNMmmmmMMNBVBBNNNBBVCZZCVBBBCZZAAAAAZZZZZAZZCVNMnvcccvbnMNMMmmNVCCCCZZZZZAAAAAAZZZZZZCVBMMmmMNBBNNBVVVBBBVCZZZZZCCVBBVCZZZCVNMmmMNNBVCAAZCBMmmMMNNBBBNMMNVCCVBNNBNMnbbnMBCZZZZZZZj",
"dMmmnnmNCZAZCCVVBVVCZAAAZZAAAZZZZCZZAASSACBNNNBBNMMMNNNNNBCZAAAAZZCCCCCCZZCCBBBVCZZAAZZCBNNNNNNNmmmMBCZAZZZZZCVBMMNNNNMMBBVVBNMnvccbmNVCCCZZCVBNMMnbvnNCASSSSSDSSACVNMmmMMNNNMMMNBVVVVBBVBBNmmMNBVBBBBBBNNMMmmnmBCZSSSACBNMmmmMNVCZZVBNNMMMmmMNBCZASSSSAZCCVVVCCZZCCCCCVNMMNVZAAZVNmMMNBVCZZAAZZCCVCZASSACBNMNBBVVZZZCBNNNBVVBBNNBBVVVBBBNNNBBBBNMMMMNBBVVBNMMMNVCZZZCBNNNVCCZAAAZCCCZZAZCVBNmbcxzxcbnmMmmnmNVCCZZZAAAAAAAZZCCZZZZZCVBMmmmMMNNNNBBBBNMMNBVCZZZCVBBNBCZZZZVBNMMMNNBVCAAAZVBNNBBBBBNNMmmNVCCVBNNBNMmbbmNVZZZZCVVVh",
"dmmmmMNVZZZZCCVVVVCZZZZZZZZZAASSSAAAAASAACBNMMNMmmnnmMMMNBVCZAAAAAAZZCVVCCCVBNBVCZAAAAAAZCVBBNNMmnnmBCAAAAZZAZCVNMMMNNNNBVCVVNmbcxxvnMBBBVCZZCVVBNMmnmBCASSSSSDDSAZCBNMmmmMNBBBBBBBBVVCCCVNMnnmMNBBBNNBBBBNNNNMNVCAASAACVBNNNNNBVCZZCVBBNNNNMMNBVZASSSAZCVBNNBVCCCCCCVVBNMMNVZAAZCNMNNVCZZAAAAAZZCVCZAAAZVNMMNBVVCCCCBNNNBVCVVBBNBBVCCVVVBBBBVVVBNMMNBVCCVNmnnmNVZAAZCBNMNBVCZAAZCVBVCZZZCBBMmvxzlzxvnmmnnnMNVVCZZAAZZZZZCCVBBVCCCCVBNmnbnmMNNNNNNNMmnnmMNVCCZCVBNMNVCZZZCCVBBNNBBVCZZAZZCVVCVVBBNNMmMBCZZCVBBBBMmnnMNVCZZCVNMNf",
"snmmNBVCZZCCVVBBVVCCCCCCCCZZAASSDDSSSASAZCVNMMMMnbbbnnnmMNBVCZAASSAAZVBBVVCVBNNBCZASSSSSAZCVBNNNMmmNVZASAAAAAZCVNMMMNNNBVCCCVNmbcxxcnmNBNBVCZZCCVBNmmmBVZAZAASSSSAZCVBNMmmMNVCVVVBBBBVCCCBMmbbnmMNNBNBVVVVBBBBNBVZZAAZZCBNNNBBBVVCZZZCCVVBBBNMMNBCZSSSACVNMMNBVVCCVVVVBBMMMNVCZAZCBBBVCZAAAAAAAAZCCCCZZZVBMMMNBVCCCCBNMNBVCCCCVBBBVCCCCCVVBBBVVVBNNNBVCCCVNmbbmNVZAAZCBNNNBVCZZZCVBNNBVCCCVBNmvczlzxbnmmnnmMNBVVCZZZCCCCVVBNMNBVCCVBNMnbbbnMNNNNNNNMnnnmMNBVCCCVNNMNVCCZZZZZCVBBBBBVVCZZZZCCCVBBNNNMMMBCZZCCVVVBMmnnMBVVCCVBMmmd",
"snmMBCZAZCVBBNNNBBVBNNNBVCZZZASDDDDSSSSAZZVVBNNMbvcvvbnnmMMNBVZAASAACVNNNBVVBNNNCZAASSSSSACVNNBBBBBVZASSAAAAZZVBMmmMNNBBVCCCVNMnbvcvnmNNNNVCZZCCVBMmbnMNBVBVCASSAZCCCCVBNNBVCCCCVBNNBVCCVBmnbbnmmMNBVVVVVVVVVBBBCZZZZCVBMmmMBBBBBVZZAAZCCVVBNMmmNBCAAAZCBMMMNBVVVBBVVVBNMMMNBVCZZZCCCZAAASSSSAAAZZCCCCCVNMMMNBVCCZCVNMMNVCZAAZCVVVCZZZZCCVVBBBBBBBBBBVVVCVNMnnmNVCZZZCBBNNBVCZZCVBNMMMBVCCCVBNnczzxcnMNNMMMNNBBVVVVBBBBBNNMmmmNBVVBNMnbbvbnmMMMNNNNNMMMMNNBVVCVVBBBBVCCZZAAAAZVBBNNNNNVCCCCVVBNMMMMMmMNVCCZZCCVNMmnmMNBBVVVBMmmd",
"smMNVZAAZVNMNNNNBBBNMmMNBCCZZZASSSSSSSSAZZCCVBNmbcxcvbbnMMMMNBCZASSACVNNNBVVNMMMVZASSSDDSACBNNBVCCZASSSSAAAZZVBMmmmMNNNBVVVVVBNMnnbbnMNNNNBVCCVVBNMnvbnmMMmMBCZAZCVVVCCVBBVCZZCCVVBBVVVVVNmnbbnnnmNBCCCCVBVVBBNBCZZZCVBMnbnmNBNNNBCZAAAZCCCVBNMmMNVCZZZCBMMMNBBBNNNNVVVBNMMMMNBVCZZZZAAAAAASAAZZCCCVVVBNMMMMNBVCZZCBMMNBCZAAZZCVVVCZZZCCCVVVBBBNNNBBNNNBBBNMnnmMBVCCCCVBBBBVCCCVNMmmmmMNBVCCVNnvxxcbMBVVBNNNNBBBBBNNMMMMMmnnnmNBVVNMmnbvvvbnmMMNBBBBNNBBBVVVVVVBBBVVCCZZASSSAZVBNMMmmmBVCCCVBNMMMMMMMMNBVVCZZCVNMmnmMNNBVVVVNMNf",
"dMNVCAAACVMmMMNBBBBNmnnmBVCCCCZZAAAAAAAAZZZCCBNmbcxcvbnmMNNNNBCZAAAAZCBBBVVVNMmmBCASSDDDSZVNMMBVZAASSSSSAZZCVNmnnnmMNNMMMNNBBBBNMMmnmMBBBBBBBBBNNMnbvvbnbbvnMBCCVBNNBVVVVVCCZCCCCCVVCVVVBNMmmmmmmmNVZZZCVBBNNMMMVZZZCVNnccvnMMmnmMVCZAAZZZCCVBNMNNNBVCCCVBNMNMMmnnnmBVVVNMmnnmMNVCZAAAAAZZAAAZCVVVVVBNMMmMMNBVVCZZCBMmNBCZAAZVBBBBVCCCVVBBBBBNNMMMNMMmmmMMMmnnnmMNBBVVVVVVVCCCVBMmnnnnnnMNVVVBmbvbnMVCZCVBNNNNBBBNMmmmmMmmnnnmNBVVNMnbbbbbnnmMMNBVVVBBVCCCVVVBBBBVCCZZZAASSSAZVNMmnnnnMBVVVBNNMMmmmMMNNNNBVCZCVBMmmmMNNBVVCCVBBf",
"fNBVZAAACBMmMMNBBVBNMmmMBVCCVVCCZCCZZZZCCCCCVBMmbvcvbnmMNBNBBVCZZAAAZCVVVCCVNmnmBCASDDDDSZBNmMBCZASSSSSAAZZCNMnbbnmMNMmnnmMNBVVVBNMmmMBVVBNNNNNNMmnbvvbbbvcvmNVCVBNNNBVVVVCCCCCCCCCCCCVBBBNMMmmmmMBVZZZCVBBNMmmMVZZZCBMncxvbmmbbbmBVCZZZZZCVVBNNNMMMMNVCVBMMMmmnbbbmNVVVNMmnbnmNVCZAAAZZCCZZZCVBVVVVBNMmmMNBVCVCZZCBMMNBCCZCVNMmMNBVVVBBBBBBBNMMMmMmnnnnnmmmnnnmMNNBVVVCCCCCCVVNmnmmnnbbnMBVVBMmnmNVCZAZCVBBBBBBVBNMmmMMmmnnnnMNVVBMnnnnnnnnmMNBVVVVVVCCZZCCVBNNBVCCZAAASSSAZCBMmnbbvbmNBVVBBNNMmmmmNNNNMNVCZZVBMmmmMNBBVCZZCCBg",
"fNBVCZAZCVNMMNBBVVVVBNNNVVCCCCCCVVBVVVVBBBBBNMmnbbbnmmMMNBBBBVCZZAAAZZCCZZCVNmmMVZASDDDDACBMMNVCZAAASAAAZZCVNmbvbbmMMMnbvbnMBCCCBBNMmMBVVVNMMMNNNMmnnnmmmnvbmNVCVBNNMNBVVVVVVVCCZZZCCCVVVVBNNMMmmMBVCZZCVBBNmmmNCZAZCBMnvvvnnnbvbnNVVCCCCCVBBNNNMmnnnMBVVNMmnnnbbbnmNBBBNmnnbnmNVCZAAZCVVVCCCVBBBVVVVBMmmMBVCCCCAAZCBNBBVVVBMmvvbmNVVBBNNBBBBNNMmmmnbbbbbnmmmmmMMNBBVVCCCZCCVVVBMmMMMmnbbnMNBBNMMNVCZAAZZCVVVVVVCVVBBBNNMmmnnnmNBVBNMmmmnmmmmMNNBVVVVVVCZZZCCVNNBVVCZAASSSAACVMnbbvvcvnMNBVVBBBNmnbnMNBNMNBCZZVBNMmMNBVVVCZZZCVg",
"dMNBVCCCVBNMMMNBVCCCVVBBVVVVCCCCVVBBBBNNNBBNMnbbbnmMNNNNNBBBVVCZZAAZCCCCZZCVNMMNVZASDDFDACBNNNVCCZZAAZZZZCCVNmnbbnmMNMnbvvnMVCCVBNMMmMBVVVNmMMNNNMmmMNNNMmnnmNVCCVBNNNBVVVBBBVCCCCCVVVVVVVVBNMmmmMNBVCCCVVBNMmMBCAAZCBNmnnnmmmbbnmNBVVVVVVBNNNNMMmnbbmNVBNmnnbbnnnmMNNNMmnnnnmMBVCZZZCBNBBVCCVVVVCCCCVNMMMBCZZZZAAAZVBBBNNMMmbcxvnNBBBNMNNBBBBNMmmmnnnnnnmMMMMMNNBBVVCCCZCCVVBVBNNMMMMnnnmMNBBNNNBCZZAAAAZZZCCCCCCCCCVVBMmmnnnmMBVVBNNMMmmMMMMMNBBVVVVCCZZZZCVBBVVVVCZASSSAACVMnbbvvccvnNBBVVVBNnbvbMNBBNNVCZZVBNNNNBVVVVCZAAZVg",
"dmMMNNBBBNMMmmMBVCZZZCVVVVVVCZZZCVBBBNMMNBVBMnbvbnmNBBNNNNBVCCZZAAZZVVVVCCVBNNBVZAASSDDDAZVBNNBVCCZZCCVVCCVBBNmmmMNNNNmnnnmMVVVBMmmmmMNBVVNNNNBBNNMNNBVBNMmmMNVCCCCVBBVVVBNNBVCCVBNNBBBVVCCVNMmmmMNNBBBVVVVVBNBVZAAZVBNNNMNMMMmmMNBBBBBBBNMmmmMMMMnnnmBVBNmnnnnmMMMMMmnbbbbnmMNVCCCCCVNNNBVCCCCCZAAAAZVBMNBCZAAASSSAZVBMmnnnnbccvnNVBNMmMNNBBBBNMMmmmmMNNNNNNNBVVCVCCCCCCCVBBBVVVBNNMMMMMNNNNNNNNBVCZAZAAAAAAAZZZZZZZZVNmnnnnnmNVCCCVVBNMMMMMMMMNNBVCCCZZZAZZCCVCCVVCZASSSAAZCNMnnbvxxcbMNBVVVVNnvxcmNVVBBCZZZCVBBVVCCCCVVCZAAZj",
"dMmmmMMNNNMmnnmMBVCZCCVVVVVVZZAAZCVVBBNNBVCVNmnbnnMNBBNNNNBVCZZAAZCVBNBBVVBBBBVCZASSDDDDAZVBNNNBVVCCVBBVCCVVBNMMMNBBNNMMmmMNVVBMnnmmMMNBVVBBBBVVBNMNNBVVBNmmMNVCZZZCVVVCVVNNBVCVBNmmMNBVCCCVNMmmmMMNNNNNBVVVVVCCAAACVBNNBBBBNNNNBBVVBBBBNMmnnmMMNMmmmMBVBNmmnnnmMNNMMnbvccvnmNBVVCCVVBNMNBVCZZZAASSSSZVBMMBCZAAASSSSACBmbvbbnbvvbmBVVBMmMMBBVVBBNNNMMNNBVVBBBBCCZZCCCCZZCVBNNBVCCVBMMMNNBVBBBNNNBBVCZZZZASSSSSAAZZZZZZVMnbnnnnMNVCCCCVBBNNNMMmmmMNBVCCZZZZZZZZZZZZCCCZASSSAAAZVBMmmbccvbMNBVCCCBnvxcmNVVVVCZAZCVVVCZZZCVBVCZAAAj",
"fNMmmmmMNNMmnbbnMNBVBBBBVCCZAASAAZZCCVBBVCZZVBNMmmMNBBBNNNVCZAAAZCVNMMNBBBBBBVCZASSSSSSSACVBNMMMNBVVBBBVCCVVBNMMMNBBNNNNBBBBVVNMnnmMNNBBVVBBVVCVBMmmMMNNNMmnmNVCZZZZCCCCCCVVCCVBMmnmMNBVCCZCBMmnmmMMMMMMMNBCZZZZAAZCBNBBCCVVBBBVVVVVVVBBNNmmMMNBNNMMMNVVBNMmnnbnmMMMmnvczzcbmNBVVBBBBBNNBVCZZAAASSDSSZBMmmNBCCZZZASSACBmbvbnmmnnmNVCVBMMNBVCCCCVVVBNNNBVCCVVBBCZAAZZCCZCCVNMMNVCCVNMmmNBCCCVBBBBBBVVCCCCZAASSSSAZCCCCVNnvvvbnmMNBVVVVBNNNNNMmmmmMMNBVCCCCCZZZAAAAAZZZAAASSSSAAZCVNMmnbnmNBVVCZZVMbvvmNVCCCZAAZVBBVCZZZCVBBCZSSSk",
"gNMMmmMMNNNmbvvvbnmMMMNBCZZAAASAZZZZCCVVCZAAZCBNMMMNVVBBNBVCZAAZCVNMmmNBBBNBVCZAAAAASSAAZCVBNMmmMNBBBBVVCCCVBNMMMNBVBBBBVVVVVVBMmmNBVVVVVVVVCCCVBMnnnnMMMmnnmMBCZAZZCCCCCCCCZCVBMmmmNBVCZZZCBNmmmmMMMMmnnmBCZAAZZZCBMMNVCZCVBBVVVVVVBBNNNNMMNBVVBNNNBBVVBNMmnbbnmMNNMmbvxzcbMBVVBNNNBBBBBVCZZAZAASDDACNmnnMNVVVVVCZAAZBMnbnmNNMMNBCZCVNNBVCCCCCCCVVBNNBVCZCVBBCZAAZZCCZCVBMmMNVCCVNmnmNVZZCVBBBBBBBBVBBBCZAASSSAZCVVVBmbccvbnmNBVVVBNMmMNNNMmnnmmMNNBBVVVVCZZAASSAAZAAASSSSSAAZZCVBMmmMNBVVVCZAZBMnnmNVCZZAAAZVBBBCCCCVBBBCZASSk",
"fNNNNNBBBBNmbcxzxccvbnMBCASSSAAAZCCCCCVVCZAAAZCBNNNBVCVVBVCZAAZCVBMmnmNBBBNBVCZAAZZAAAZCVBVBNMnnmMBVVVCZZZCVNMmmMBVVVBBBVVVVVVVBBBVCZZZCCCVVCZZCBMbvcvnmmmmnnMBCZZZZZZCCCCZZZZCBNMNNVCCZAAAZVBMMmmMMMmnbbnNVZZZCCVBNmmNBCCVBNNVVCCVBNMMMNNNBVCCVBNNNBVCCBNMmnbbnmNBBBNMnccvnNVVVBNMNBBBBBVCZZZCCZASSZVmbvbmNBBMMMNCZAZCBMMMNVVVVCCAAZCVBVCCZCCVVVVBNMMNBCZCVBBVCCCCCCZZCVNMmMNVCCVNmmmBCZZCVVVVBBBBBNNMMBVCZAASACVNNNMnvccbnnMNVVVBMnbvbmNNMmmmmmMMMMMNNNBVZAASSSAAAAASSSSSSAZZZCVBNMMNNBVBBCZAACBNMMNVZZAAAAZVBNBVVVBNNBVCZAAZj",
"dMNBVVCCVBMnvczzzxccvbMBZASSSAZZCVCCCCVVVCZZAZCVNNBVCZCVBVCZAAZZVBMmmMNVBBBBVCZZZZCCZCVBNNBBMmbvnmBVCCZZZZCBNMmmNBCCCVBBBBBBVVCCCZZAAAAZZZCCCCCCBmvxxcnmMMMMmMBCZZAAZZCVVVCZZCVBBNBVCZASSSSACVNMMMMNNMnbbnNVZZCVBNMmnmNBCCVBNNVCCCVBMmnmMNBVCZCVNMMNVCCCVBMmnbbnMBVCCVNmbvbmBCZCVBNNNBBBVVCCCCVVCZAAZBmbvbmMNMmnnMBCZZCVBNBBCCZZZAAAAZCVCCCCVBBBVVBBNMNBCZZCBBBVVBBBVCZCVNMmMNVCCVNMmMVCZZCVVVVVBBVBMmnmNBCZZAAZVBNMNMnbvvnmmMBVCVBMbccvmNNNMmmmmMMMMMMNNBVZAASAAAZZAASDDDSAZCCCCVBNMMMNBBBBVZAAACBNMNVCZASSAZCVBBBBBNNNBVCCZZCh",
"smNBCZZZCBMnvcxxxcvvvnMVZASSAAZCVBVVCCVVBBVCZZCVNNVCZZCVBBCZASAAZVBNMMBVVVBBVVZZCCVVVBBNMMNNmbccvmBCZZZZZZVBNMmMBVZZCCBNNMMMNVCAAAAAAAAAAZCVVVVBNncxxvmNBVBBNBVCZZAAAZVBBBVCCVVBBBVCZASDDDSAZCVBNNNNBNmnmMBCCVBNMmmmnmMBCCVVBBVCCCVBmnnnMBBVZZCBMnmMBCZZCVBNmnnmNVCZZCVNnbmMVZAACVNNNNBVVVCCCVBBVCAAZVmnbnmMMmnbnmBCZZZCVBBVCZAAAAAAAZCVVCVVBNMMNBBBBBBVZAAZVBBNMmmMBCCCVNMMMNBVVVNMMNVZZZCVVVVVVVVBMnbnMBVCZZZCBNMMNNMmnnMMMNBVCCVNnvvbMNBNNMmmMMNNNNNNNBCZAAAAZCCCZASDDDSZCVVVVVNMmnmMNNNNVCAAACBNMMBVZASSAZCCVBBBNNNNNBVVVVNf",
"anNVCAAAZVMmnbbbbbnnnmMBCZAAAAZCBBBVCCVBNNBVCCVBNNBCZZCVBBCZSSSSAZVBNNBVBBBBBVCCCVBBNNMmmmMMnvxxvmVZZZZZZCCVBBNBVCZZZCBNMmmmNBZASSSAZZAAAZCVBBNMmncxxvMBCCCCVCCZZZZAAZVBNBBVVBBBBVVCZASDFDDSZCVVBBBBBNMmMNVCCVNMmmmmmmMBVCVVNNBVCCCBMmnmNBVCZZCBmnnMBCZZZCVBMmnmBCZAAZCBMmMBCASSACBNNNBVVCCCVBNNNVZZCVMnnnnmnnbbnMBCCCCCVBBBCZAAAAAAZZCVVBBNMMmMNBVVVVVCZAAACVNmnbvnNVCCVBMMMNBVVBNMMBCZAZZCCVVBVVVBMnbnMBVCCCVBNMMMNBNMmMMNNNBVCCVBMmnmNBBBNMmmmMNBVVBBBVCZAAAZCVBVCZASDDSZVBNBBBNMmnmmNNNNVCZZZCBMmmNBCAAAZCVVVVBBBNNNNNNBBNMs",
"smNVCAAAZCBNNNNNNNNMMMNBVCCZAZZVBNBVCCVBNNBVCCVBNMBVCZCVBBCZSDDDSAZCBBBBNNNNNBVVVBNNMMmnbnmmnvxxbNCAAZZCZZZCCCVCCZZAZCVNMmmmMBCASSAZCCCZAZCVNMmmnbcxcbMVZAAAZZAAZZZZZCVVBBVBNNNBVVCCZASDDDDSZZCVVBBBBNmmNVCZCVNNNNNNMMMNVVVBMMNBVCCVNMNNVCCZZCVNmnnMBCZZZCCVNmnnNVZAAAZVNMNVZASSSZCBNNBVCCZZCVNMNBCZCVMmnbvvvbnmMNVCCCVBBNNBVCZZCCCCCCCVBNMMMMMNVVCCCCVCZASACBmbvcvbMBCCVBNNNBVCVBMMMNCZAAAZCVBBBBBNMmnmNVVCVVBNmmMNBBNMMMMNNNBBVVCVVBNNBBBNMmmnnmNVCZCCCCZZZAZCBNMNNVZASSSZVBMMNBNMmmmMBBBBVCCCCBMnbnmNCZZZCVBBBBBBBBNMMMMMNMns",
"dMNVCAASAZCVVVVVVVBNMMMNNBVCZZZCBBVVCCVVBNBVCCVNMMMBVCCVBBCZSDDDDSACVBBBNMMMNNBBBBNMMmmnbnMMmbcvmBZAAAZCZZAAAZZZZZZZZCVBNMMMMBCAASZCVVCZZZZVNMmnnbcccbNVZAAASSSAZCVVVVVVBBVBNNNBVCZZAASSDSSSZZCCCVBBMMmmNVZZCVBNBBBBNNMNBVVBMmMNBVCVBBBVCZZZCCVNmmMNVCCCCCCVNMnnNVZAAAZCBBBVZASDSAZVBBVVCZZZZVNMMNCZCVMmnvcccvnMBVCCCVBNNNNNVCCCVBBBVVCVBNMMMNBVCZZZCCCCZAAACBmbvcvbmNVCCVNNBVCCCBMmmMVZAAZZVBNMMNNMmnnmNVVVVBNMmmMNBBBNMMMNNNNNBVCCZCVBBNNMMmnnbnNVZAAAZZZZZCCVNMmmMNVZASAZVNMMNNNNMMNBVVVVCCCCVBMnbnMBCCCVBNMMMNNBBBNNMMMMMMna",
"dMNBCASSAAAZAAAZCVNMmmmMMNNBCCZCCVCCCCCVBBVCCCVNmnmMBVVVVVCZSDDFDDAZCVBNMMmmMNNBBNNNNMMmnmNNNMnmBCASSAZZZASSSSAAAAZCCCVVBBNNBBCZAAZCVVCCZZZVNMmmmnvvvnNVZAAASSSACBNMMNNBBBVVBBBBVCZAASSSSAAAAZZCCCBNmnbnNVZZCVBBBVVVBNMNVVVBMmMNBVCCCCCZZZZZCVBNMNBVCCCCCVVBMmnnNVCAAAAACVVCZASDDSAZCVVCCZAAAZVNNNVCCVMmnvcxcvmNVCZCVBNMMMMNBVVBNMMMNBVVVBNNBVCZAAAZZCCCCZAZCBmbbvbnmMBVVVBNBVZZCBmnnmBCZZZCBNmnnnmnnnnmNBVVVBNMMNNBBBNNMMMMMMmMMBCZAZCVNMMMMmnbvnNVASSSSAZZCVBNMmmmMNBVZAAZVNMMNBBBBBVCZZZZZZCCVBNMmMNVCCVBMmbbbnMNBBBNNMMMMMms",
"dMNVZASSAAAASSSACBMmnnmmmMMNBVZZCCCCCCCVVVCCZCVNmnnmNBBBVVCZASSDDDSZCBNMMMMMMMNNNNNNNNMMMNBVBBNNVZASAAZZASDDSSSAAZCVBBVVVVVVBVCZAAZCVVVCZZZCBMMmmnbbbmNVCZASSSSZVNmnnnmMNBBVBBBBVCZZAAAZZZZZZCCCCVBMnbvbMBCZCVBBBVVVVBNBVCCVBNNNBVCCCCZZAAAZCVBNNBCCZZCVVVBNMmnmNVCZAASAZCVCZASDDSAZCCCCCZASSACBNBVCCCBMmnvccbmNVCZCVNMMmmMNBBBNMmnmMNBVVVVVVCASSSSAAZCCCZZZCBMnnnmmmMNBBBBNBVZZZVMmnmBCZZCBNmnbbbnnnnmMBVVVVBNNNNBBBBBNNNNMMmnnMNCASSZVNmmmMmnbbnNVASSSSSZCBNMMmmMMMNBVCZZZVBMMNNNBBVZAAAAAAAZZCCBBBBVCCVBMmbcccvnMNBBBNNNNMmns",
"fNVCASSAZZZASSSACNmbbbmMMmmmNBCZCCVVCCVVBBCZZZCBMmmMMNNNBVCZZAASSSAZVNMmmMMNNMMMMMMMNNNNBVCCCVBVCZAAAAAASDDDDSSAACBNMMBVVCVVCCZAAAZCVBBVZZZCBNNMMmnnmMBVCZASDSSZVMnbcvbnmMNNBNNNBVCZZZCCVVCCCCVBBBNmbvcvmBCZZCCVBBVVVVVVCZZZCVVVVCCCCZZZAAAZCVBBVCZAAAZCVBNMmmmMBCZZAASAZCVVCZSSSSAZCCVVCCASSSZCBBVCZZCVBMmbbbmNVVVVBNMmnnmMNNNMmnnnmMNBVCCZZASDDDSSSAZCCCZZZCBMMMNNMMMMNNNNNBCZZCBNMNVCZCBNMnbvbbmmMMMNBVVVVBNNNBBBBBVVVVBBMmnnmBCASSACNMMMMMmmnmBVZASSSACVMmmmMMBBVVVVVCCCVBNNNNMMBVZASSSSSSAAAZZZZZZCCVNmnvxxxcbmMNNBBBBNMmba",
"gVCZSSSAZCZASSSACBmbbnMMMmnnmNVCCVBBBVBBNBVZAAZCBNMMMMMNBVCCCCZZAAZCBMmmmMNNNMmmMMMMMNNBVCZZCCVVVCZZAAAASSDDSSAZZVNMmmNVVVVCCCZZAAZCBNBVCZZCVBBBNNMMNBVVVCZSDDSZVNnvccvbnmmmMMmMMNVVCVVBBBVCCVNMMMMmbvvbmNCZAZCCVVVVVVVCZAAAZZZCCCZZZZZAAAAAZCVVVZZAAZZCVBMmmmmNVCZZZZAAZCBBVCAAAAZCCVBBVCASDSACVBVCZAZZCBNmnnmNNBNNMMMMmmmMNNMMmnnnmMNBCZZAASSDDDDSSACVBVCZZZVBNNBBNmnnmMMMMNVZZCVVBVCZZCBMmnbbnmMNBBBVVCCVBNMMNBBBBVVCCCCVNMnnMBZSDSACBNMMMMMMMNBVCZAAAZVBMmmmMBVCZZCCVVCCCVBNNMnmNBCZASSSSSSSSSSASAAZCBMnbcxzxcbnmMNBVVVBMnbp",
"hZASSSSACCCZSSDSZVNmmMNBNmbvnMBCVBMMNNNMMMVZASAZCBBNMMMNBVCCVBVCZZZVNMmnmMNBNMmnMMMMMMMNBCZZCVVBBVCCZAAAASSDSAZCVVNMmMBVVVVVVCCZZZZVNMNBVZZZCCCVVVBBVVVVVCZADDSACBMbccbnnbvvvbbnmMNNNNNNNBVVVNmnnnMMnnbnmNCZAAZCVVVVVVVCZASSAAZZZZZZZZAASSSSAZVVCCZZCCCVBBMmmmmNVCZZCCZZCVBBBCZZZCVVBNMMNVZSSSAZVVVCZAAAZCBMmmmmMmnnnnMMMMMNNNNMmmmmMNBVCZASSSDDDSSSAZVNMNVZAZCBNNBBNMnbnnmmmNBCCZCCCCZZZCBNMmnmMNVCCCCZZCCVNMmmMMNBBVCZZZZCVNMMNVZSDDSZVBNNNNNNBBVVVVCCCVBNNMNNBVZAAAZZCCCCCCVBMnvvnMBCZAAAZAASSDDDDSSZVNmbvcxcvbnmmMMBVCCVMnvp",
"kASSDSSZCCCZASDSACVBBBVVNmvcvnNBBMnnmMMmnmBCASSAZVBNMmmMBCCVBBBVCZCVNMmmmMBBNMmmMNMMmmmMBVCCVVBBBBVCZZZZZASSAZCVBNNMMNBVVVBBVVCCZZCBMmmMBVCCCZZZZZCCCZCCVCZASSSACVNmnbmmnbczxcvnmmMMNNNNNBVVBNnbbnMMMmmmMNCAAAZCCCCVVVVCZASSSAZZZZAAAAAAASSSAZVVVVVVBBBNNNMMmmMNVCCCCCCCCVBBBVCCVBBNNMmmNVZSSSAZCVVCZASSACBNMmmmnnbvbnMNBBNNNBNNMmMNBVVCZASSSDDSSAAZZVNMmMBCAACVNNBBNMnbbnnmmMBVCCZZZCZZCCBNMmmMBCZAAAAAAZCVNMmmMMNNBVCZAAAZCBNNBVZSDSAZVBNNNBBVVVVVBBBBBNNNNBBVVCZASSAZCCCCCCVBMbccbmNBCCCCCCZSDDFFDDSACBmnbvvvnmmmmMNBVCCVMnvi",
"kSSSSSAAZCZZSDDDSAZZCCCVNncxcvmMMmbbmmmmbnNCASSSZCBMnnnMBCCVBBVCZZZCVNMMMNBBNMmmNNNMmnnmNBVVBBNNNBVCZZZCCCAAAZVNNNNNBVCCCVBBVVCCCCVNnbbbmNBVCZAAAAAAAAZCCCZZAAZZCVBBNNBNMbxzzcbnMMNNNNNBBVCCVNnbnmNBBBNNNVZAAACCCCCCBBBVCZAAAZZZZAAAAAAAAAAAZCBNNNNMMmmmmMMMMNNBVCCCCCCCCVBBBBVVBNNMmnbnMVZSSSAZZCCZAASAACBMMmmnnbvvvnMNVVBBBBBNMMNBCZZZZZASSSSSAZCVBNmnbnBCAAZCBNNNNMnbbnmmMNNBVCZZZCCCCVBNMMMBCZASSSSSSAZVBMMMMNNNNBVCZAAAZVBNBVZASSACBNNNBVVVCCVVBBNNMmMNBVCCCZZAAAAZCCCCCVVNmbccvnmNVVVVVVZASDFDDDSACBNmmmmmMMMMMNNBCCCBmbci",
"kASSSSAAZZZASSDDSSSAAZZVNncxxcbnnbvvmMmmbnNVASSSACBMnbnMBCCVNNBVZAAZCVBNNBBBMmnnMNNMnbnmMBBBBNNNNBVCCCCVVVCAZZVNNNNBVCZZCVBBVVVVVBNmvcccbnMBVZASSSAAAAAZCVCZZZCCVVVCCCCVBmvcxvnmNNBBBBBVVCCCVNmmmNVCCVBBBVZAAZCVCCCCVBBVVCZZZCCZZAAAAAAAZZAZCVBNNMMmnnnmmMMNNBBVCCCCCCCZCCVVVVVBNMMmnnbnNVASSSAAZZZAAASAZCBMMmmmmnnbbnMBVVBBVVBNMMBVZAZZZZAASSSAZVBMMmnbbnNCAAZCBNMMMmnbbnmMMMNNBVCZZCVVBBBNMMNVZASDDDDDDSZCBNNNBBNNMNBVCZAACVBNBVZASSZCNMMNVVCCCCCVVBNMmmMNVCZZCCCZZZZZCCVVVBBNmbvvbnmMBVVVBVZASDDDDDSAZVBNNNBBBBNNNNBVCCCBmbci",
"hZZAAAAZZZZAASSSSSSSAAZVNmvxxxvnnnvbmMMmnmNVCAASAZCBMmmMBVVBMMMBCZZZCCVVVVBNmbvvmMMmbbbnMNBBBBBBBVVVVVVBNBCZZZVBNNNBVCZZZCVVVVVBBNmncxzxcvnMBCASSSAAAAAZVVVCCVVBBBCZZAAZCBMnnnMNBBBVVVCCCCCCVBNNBVCZZCVBBVZAZZVVVCZCCVBBBBVCCCCCZAAAAAAZCCZZCVBNNMMmmmmMMNNBVVVCCZCCCZZZAZZCCCVBNmmnnnnmBCASSSSSAAAASSAZCVBNMMMMMMMMmMMNVVBBVVVBNNBCAAAZZCCZAAAZVNMnbbnnnmNVZAZCNMmmmnbbbnMMMMMMBVCZZCVBNNNNNNBVZSSDDDDDDSACVBBVVVBMmmMNVCCCCBNMNVZASACVMMNBVCCCCCCCCVBNMMNVZZZZVVBBVVCCCVBBBNNMnnnmmMMNVCCCCCAASSSSSSSAZCCCCCCCCVBBBBBBCCCBMbcu",
"gBCZZZZZZZZZAAAAAAAAZZCBNMbvcvnmmnbnMNNNmmMNVCZAAAZVBNMNBVBNmnmMBCZZCCCCCVBNnvxcbnmnbbbnMMNNBVVVVVVVBBBNMNVCZZCVBBBBVCZZZZCCCVBNMmnbvcxzxvnMBCASSSAAAAAZCCCCCVBBNBCZASSSACBNMMNNBBBVVCZZZZZCVBBBVCZZZCVBNBVCZCVVVCCCCVBNNNVVVVVCZAZAAAZCVVCCCCVBBNMMMMNNBBVVCCCCCZCCCZAASAAZZZCVNMmmmmmMVCASSSSSSSSAAAZCVBBNNNBBBBBBNNBBVCVVCCCVNNVCAAAZCVVVCCCVBMnbbnmMMMNBCCCVNMmmmmbbnmMMMmmMNBVCCCVBNNNNMNBCZSSDDDDFDDAZVVVVCCVNmmMNBVVVVBNNBVZAAZCBMMNVCCCCVCZZZCBNMMBCAAAZVNMMNNBVVVBNNMMmmmMNNNNBVCZZZZAAAAASSSAAZCCZZZAZZCVBBBBVCCCVNmvi",
"dMBVCZCCCCZZZZCCCCZCCVBNNNMmmMNNMMnmNBVBNMMMNBCZAAAZCCVVVBNMnbbmNBVVCCZZCCBNnvzzcvnnnnmMMMMNBVCCCVBBNNNMmMBVZZCVVVBBVCZAZZZCCBMmnnnnnbcccbmNVZASSSAAAAAAZCCCCCVBNBCZASSSAZCBNMNNBBNBVCZAAAZZVBBBVCCCCVNMmmNBVCVVVVCCVBNMNBVVVVVVCCZZZZZCBBCCZZZCVBNNNNBBVCCCCCCCZZCCCZASSSAAAAZCBBNMMNBVCZZASSSSSAAZZCCVBBBBVVCCCCCCVVCCZZZZZZCCBBVCZZZZVBNNBVVBNMnnmMNBBBNNNBNNMMMMMmnmMMNMMMMMNNBVCCVBBNNMMMBVZSSDDDDFDDAZVVVVCCVVNNNNNNBBVVBBVCZAAZVBNNVVCCVVBVCZCVBMMNVZSSAZBMmnmMNBVVBNMMmMMNBBBBBBCZZAAASAAAAAAAAZCVCZZZAAAZCVVBVVCZZZVNms",
"smNBVCVVVCCCVVBBBBVVBNNNNNBBBVVVNMmmNBVVNMmmmMBCZAASAAZCVBMmbbnmMBBVCCZZCCVNmvxzxvnmMMNNNMMNBCCZCCBNNMMmmmNVCCCCCVBBVVCZZZZCCBMmnnmMmmnbnmMBCZASSAAZAAAAZZZZZCVBBBCZASSAZZVBMMMMNNMNBVZAAAAZVVVVCCVVVBNMnnnMBVVVVVVVBNMMNBVVVBBBVCCCZCVBNNVCZAZZVBNNNNBBVCCCCCVVCCCCCZASSSAZAAZZCVBBBBVCZZZZAASSSAZCCVVVBBBVCZZZZZZZCCZAAAAAAAZCVBVCCCCVNMMMNNBNNMmmMBVCCVNMMmmmmmMMMMMMNBNNNNNNNNNBVCVVVBNMmMNVZASSDDDDDDSZCVBVVCCCVBVBBNBBVCCCZZAAAZVBBVCCCCVBBBVCCVNMMBCASSSZBMnnnmMNBBBNNMMMNBVVBBBVCZZZZAAAAAAAAAZCVVVCCZZZZCCVBBBVCZAAZCBf",
"dMNBVVBBVVVVBNmmmMMNMMMMNBVCCZZCBMmnMNBBNmnnmMBVCZASSSAZVNmnnnmMNBBBVCCCCVVBNncxcvmNBVVVBNMNVCCZCCBNMmmmnmNBVCCCCVBBBBVVVCCCCVNMmmNNNNMMNBVCZZAAAAZZAAAAAZZZZZVBBBCZAAAZCVBMnbbnmMmMNBCZASSAZCCCCVBBVBNMnbbnNVCCCVBNMmmMNBBBNNNNVVCCCVNMnmNVZAZCVNMmMMMNVCCCVBBBBBVCCZASAAZCZZZZZCCCCCCCCCCCZZASSACVBBBBVVVCZZAAZZZZZZASSSSAAAZCBBBVBBBNmnnnmMNBBNNNBVZAZCBMmnbbnnmMMNNBVVVVBBBNMMMNVCCCCVBNMMBVZAASSSSDDSSACVBBVVCCCCCCCVVVCZAAASSSAZVVVCCZZCVBBBVCVBNMNBCASDSZVNmmmMMNNNBBBNNNNBBNNNNBVCCCCCZAAAAASAZCBBVVVVVVBBBNNNBBCZAAAAZj",
"gNNBBBBBBVVBNmnbbnnmmmMMNBVCZAZCVNMmMNNNMmnnmMNNBVZASSAZBNmnmMNBBBNBVVCCVVCVBmbcvnNVCZCVBNNNVCCZZCVBMmmmmmMNVVCCCVNNMMNNNBBVVCBBNNBVVVVVVCZZZZZZZZZZZAAAZZZZZCVBBBCZZZCVVBNmbvvbnmmmMNVCASSAZCCCCVVBVVBNmbvbMBCZCVBMmnmMBBBNMmmMBVCCVBMmbbMBCZCVBMmnmmmMNBVBNNMmmMNBCZAAAZCCCZZZZZZCCCCCCCVVCCAASAZVBBBBVVCCZZAAZZZZZAASSSSSAAZCBBBBNNMmbvvbnMNBVVBBVCAAAZVNmbvvbnmMMNBVCCCVVBBNmmMNVCCCCCVBMMBCZAZZZAASSSAAZCVBBVVCCCZZZZCZZASSSDDSAZCVVCZZZCCVVVVVVBNNNVZSSSSZVBNMMMMMMMNBBVBBNNNMMMNBVCVVBVCZAAAAAZCVBBBBBBNMMmmmmMMNVCZASAAk",
"gBBBBBVVVVBBMmbvvvvbnmMNBVCCZZZZVVNNMMMmmnnmmMmMMNVZASACBMmmMNVVVVBBBVVVVVCVBMnbnMVCZAZVMMMNVZZZZCCVNNMMMMMMBVCCVBMmnnnnnmMNVCCVVVCCCCZZZAAAZCVVCCCCZZZZCCCZCCBBBVCCCCVBNNMmbvvbnmnnnmNVZAAZCVVVCCCVVVVBNmbbMBCZZVNMmmMNBBNMnbnmNVCCVNMnvbmNVVVBNMnbbbnnmMMMmnbvcvnMBCZZZCVVCZZAZZCVBBBVVVVVVCZASSZZVVVVVVVCCZZZZZZZZZSSSSAAAZCVBBBNNMnvcxcvnMBVCVVVVCZAZZVBMmnnnnmmMMBVCZCVBNMmnnMBVCCCZZCVBBVCZZCVVCZZAAAZZCVBNNNNBCZAAAZZASSDDDDSAZCVCCZZZZCCCVVVVBBBBVZASSSZCVBBBBMmnnMBVCVBNMmmmmNBVCVBNNBCZAAZCVBBBBBBNMmnbbvvbbnmNVZAAAZj",
"hVBBBVVVVVBBMmnbvvvbbnmNBVCZZZZZZCVBBNMmmmMMMMmmmMBCAAZVNMmMNBVVVBNNBBVVVVCVBMnnmNCZAACBmmMNVZZZZZZCVBBNNMmmNBCCVBmnbvvvvvnMVCZZZCZZZAAASSSAZCVBCCCCCZCCVVCCCCBBVVCCVBBNNMMmnbnnmmmnnmMBCZZCVBBVCZCCCCCVNmbbmBCZZCNMMMNBBNNmnnnmNVCCVNMnbbmMBBBNNmbvvvvvvbbbvczllzcbmNBVBBBBVCZZZCVNMMMNVVVBBVZASSAAZCVBBBBVVCZZZCCCCZASSSAZCCVVBBBNNmnvxxcvnMBVCCVVCZZZCVVBNMmnnmmMMMNBCCVBNmnbbnMBVVVVCZCCVBVCCCVBBVCCCCCCCCCBNmmmMBCZAAZZASSSDDDSAZCVCCCZZZZZCCVVVVVVVVZZAAAAZCCCVBMnbbmBCZCVNMmmMMNVCCVNMMNBCZZCBNMMNBBBNMnbvvvvbbbmMBCZAZCh",
"hVBVVCCCVVBBBNNMmnnnnnmMNVCZZAAAAAZZCVBNNNBBNMmmmMBCZZVBMmmMNBBBNMmmNBVCCCCVNmnnmNCZAZVMnnMBCZZZAAAAZCVBNMnnMBCCVBMnbvcxzxvmVZAAZZZAAASSSSSACVBBVCCCCCCVBBVVCCVVCCCVBBBNNNMMMMMMMMMmmmMMBVVBNNNBCZZZCCCVNmvvmNCZZCBNNNBBBBNNMMNBVCZCVBNMmmmMNNNNNMnvcxzzllzlkjhgghkzvnmmmmMNBCCCCVNmbbmNVVVBBBCASSSSACVNMmMNVCCCVVVVCCZAAACVBBBBNNNNNMnbvcvbnMNVCCCCZZZCBNNNNMmnnmMMMMMNBVBMnbvcvbMNBVBBVCCCVVCCVVBBBBVVVVVVCCCBMnbbnMBCCCCCZAASSSSAZCVVVCCCCCCCCCVVVVCCVVCCCZZZZZAZCVMnvbmBCZCVBNNNBVCCZZCBMmMNBVVBmnbnMBBBBMmnnnnmmmmMBVZAAZVg",
"hVVVCZCVBNNNBBVBNMMmmnmmMBVZZAAAAAAAZCVVVVVVBNMmMNVCCCBNMmMMMMMMmmnnMNVCCCVBMmnnmNVCCVNmnnMBCZZZAASSAAZVBMnnMNVCVBMmbvxzlzvmVZAAAAAAASSSDSAZVBBBCCCCCCCVBBBVCCCCCCVVBBBBNNMMNNBNNMMMMmmmMNBBNMMBCZZZCCCVNmbbnNVZZCBNNNNNNNBBBVVCCZZZCVBNNMmmmMNNMmbczljhgfffdsaaasfhlxcccvbmNBVCCBMbcvnMVVVBNBCZSSSSAZVNmnmMBCCVBNBVVCZZAZVBNMMMMNNBBNMmnnnnmMNVCZZZAZCVMmmMNNMmmMNNNMMNNNMmbcxxcbMBBBNBVCCCCVVVBNNNBVVVVBBBVCCVMnvvbmNVVVVVCZZAAAAZCVBBVVCCVVCCVVVVCCZZCVVVBBVCZAAACBMnbbmBCZZCBBBVCCZZAZCBMmMMNBBMnbvbMBVVVBNMMNNNNNNNVCAAZCNf",
"jZZZZZCVNmmmNVCCVBBNMmnnmMBCZAAAAAAAAZZCCCCVBBNNNNBVVVBNMMMMMmnbbbbbnMBVCCVBNmnnmMNNNMmnbnNVCZZZZASSSAZCBNMMMNBVVVNMnvxllzvMVZASAAAZZAASSSACVBBVCCCCCCZCVBBVCCCCCCVVVVVBNMmMBVVBNMMMMMmmmMNBNBBVZAAAZCCVNmnbmMVCCCBBNNmmmMBVCZZZAAAZCVVBBNmnnmMMMnvzkhdaiuuuuyyyyupsfhjkklxbmNBVVBmbccnMVVVBNNVZASSSAZVNmmmMBVVBMmMBVCZZZCBNMmnnmMBVCCVBNNNNNNBVCZAAAACBmnmMNNMMMNBBBBNNNMMnbcxxvmNBBBNNBVCCCVVBNNNBVCCCVBBVCCZCBMnnnmNBNNBBBVCCCCCCVBNMNBVVVBBBBBVVZZAAZCVBMMMNVZAZCBmnbnMNVCCVBBVCZZAAAZCVNMMMBBNMnbnmNVCCCCCVCCCCVVBVCZAAZVNd",
"jZZZZCVNmbvnMBVCVVVBNMmnnmNVZZZZZCZZAAZZZCCVBBNNNNBBVVBNNMMMmnbvbbvvvnMNBVVBBNmmmmmmnbbbbmBCZZCVCZASSSAZCBNNNNBVCVBMnvzllxbMVZAAAZZCCCCZSSACBBBVCCCCCCZZCVBVVCCZZCVVVVVBNmmMBVCVNMmmMMmnmMBBBVVCZAAAAZCVMmbbmMVCCVBNNMnbnMBCZAAAAAAZCCCVVNmnbnmmnvzjgsitwqqqqq0qqeryiasdfhlxbmNBVBMbvvmNVCVVNNVCASSSSZCBMMMNVVBMbvnMVCZZZCVNMnbbnMBCZZCCVBVVVVVCZASSSACBMmMNBBBNBBCCVVBNNMmnbvcvnMBVBBNNBVCCVVNNMNBVCZZCVBBBVCZCBNmmMMNBNNNNNBBVVVCVVBMmMNBBBNNNNNBVZASSAZCNmnbmNVCCVNmnnmMNBVVBNNVCZZZZZZCVNMMNBNNMmnmMBVCZZAAAAAAZCCVCZZAZCVNd",
"kZZZCVBMbvccnMNBNBVVVNmnbnNVCZCCVVVCZZZCCCVBNNNNMMNBVVBBNNMMmnbbnnvcccbnMNBVVBNMMmnvcxxcbMBCCVBBBCASSSSAZCVBNNBVVVNMnczllxbNVZAAZCVBNNBVZAZCBNBVVVBVVCZZCVBBVCZZZCVVVVVBMnnmBCZCBMnnmmnmMNBVVCZZAAZZZZCBmnbnnMBVVBNMmnbbnMVZZZZCCCZZZZZCVNmbvvbvclhdpye9655555556790wryiadhlcbmNVBMmbnMVZZCCVVVCZAASSAZCVBBVVBMbxzvmBCZZZCCVNmbbnMVZAAAZCCCCZCCCAASSAAZCBBVVCCCCCCZZCVVBNMmnnbbnMBVCVBNNBVCCVBNMMNBCZZZCBNMMNBVVVBNMNBVVBBNNMMNNBVVCVBMmmmNNNMMMMMBVCASSSACBmvcvmNBVBNMmmmMMNBBBNNBVCCCCCCCVBNNNNBNNMMNNBVCZASSSSSSAZCCCCZZCVBBf",
"kZCCVBNmbvccbnMMMMBVCVMmnnNVCCVVBBBVCZCCVVBNNMNMMMMNVCVVBNNMmmmmMmbvxxcbnMBVCCVBNMnvxzxcnNVCCVNNBCASDDSSAZCVNNBVCVBMnvxzxvnNVZZZVBNMmnmMVCVBNNNNNNNNBVCCCVBVVCCCCVBBVVBNmnmMVCZCBMnbnnnnMNVCCCZAAZCCCCVNmbbnnMBVVBMmnbbbmNCZZCVBBBCCZZZZCBmvcxcxlhsitq741<,,,,<<124579qeypdjlcnMBBNMmMBCAAAZCCCCZZAAAAZZZCCVVBmcllxbNCZAZZZCBMnbmNCASSAZZCZZZZZZASSSAAZZCCZZZZZZZZZZCVVBNMMmmmmMBVCCVBNNBVCCVBMMMNVCZAZCBMmnnmNBNNNBVVCCVVBNNMMNBVCCCVNmnnMMMMmmmMNBVZASSSZVmbccnMNBBNNMMMMMNNBBNNBBVVVVVVVBBBNNNNNNNNBBBVCZSDDDDSSAZCCCCCVVVVVg",
"jCVBBBNMmbvvvbnnnmBCCCBMmmNVVVVBBBVCCCCVBNNNNNNMMMNBVCCCVBNMMNNBBNnvcxccbmBCZAZCVNmbcccbMBCZCVBNVCADDDDSSACVNNBVVVNMmbvvvbmNVCCVBNMnbvvnNBNMmmMMmmnmMNVCCVVVCCCVVBBBBBNNMmMNVZAZBMnbbbbnMNVCCCZZZCVBVVVNmbbbnmNBVBMnbbbnNVZZCVMmmMBVCZZZCBmbxzlkgsue962,:--===--;:>,1358qtpdjzvnNBBBNBCASSSAAZZZCCZZZZZZZZZCVNncllxbNCZAAAZCVNmmMBZASAZZCZZAAAASSSSSAZZAAAAAZZZZAAZCVVVVVBNNNNNBVCCVBNMMBVCCVBMMNBCZZZZCBmbcxcbmmMMBVCZZCCCVBNNBVCZZZCBMnnmMMMmmmMMNNVZASSACNnbbnmNNBBVVBNMMNBBVBBBBNBBBBBNBBBNNNNNBBBBBNBVZASDDDSSAZCVVVVBBVVCj",
"hVVBBBBBMmnbbbnnnMBCZCBMmmNVVCVVBVCCZCVBNNNNNNNNNNNBCZZZCBNNBBCCVBmbvccvnMVZASAZVNMnvvbmNVZZZCVVCZSDDDDDSACVBNVVCVBNMmnnnnMNVCCVBMMmbvvbmmmmnmMMmnnnmNBVVCCCCVBNNNNNNNNNMNNBCZAZVNnbbbbnMBVCCCZZZVBBVVVBmnnnmMNBBBMmnbbmBCZZCNmnnmNBVCZCCBmvzkjfayw841>-*%%$$$%%&&*-;><360tpfjxbmNBBBVZASDSSAAZCCCCCCCCZZZZCVBmbxzcnBCZZAAZCVNMmNVZAAAZCCCZAASSSDDSSAZZASSSAAZZAAAZCVVVCCVVBNNBBCCCVNMmMBVCCVBNNBVCZZZZCBMvxlzcbnmMBVZZZZCCCBBNBVZAAAACBmnmMNNMMMMmmmNVZSSACBMmnmMNNBVCCCVBNBBVVBBBBNNNNNNNNNNNMMNNBBBBBNNVCAASSSSAAZCCVVVBBVCZk",
"hVVVVVVVBMmmmmMMNBCZZCNmnnMBVCCCCCZZZCVBNNNNBNNNNBVCZAAACVBBVCZZCBMmnbnmMBCZSSACVNMmnnmNVCZAZZZZZASDDDDSAZCVBBVCCCBNNNMMmMNBCCCCVBNNmnbbnnnnnmNNNMmmmMNBVVCCVBMmmmmMNNBBBBVVCCZZVNmnnnbnNBVCCCZZCVBBVVVBMnnnmMMNBBBNmnnmBVZCVNmnnmNBBBVVVNnclhfayw73<:=&$#@+++@@@#$%&=;,150tpgkcbmMNBVCASSSSAZCCVBVVBBVVCCCCCVNMbbmNVCZZZZZCBNMMBVZAAZVBVVCZASSDDDDSAAAASSSAAZZZAAAZZCZZZZVBNNNBVVVBBNMNVCZCVBBBVCZZZZZCVNnczzcvnmMBCZZZCCCCVBNBVZASSAZVMmmMNNNNNMmnnmNVAAAZVNNNNNBBVCZZZZVVVVVVBBBBNNNNNNNMNNMMMMNNNBBBBBVCZZAASSAAZZCCCCVCCZAl",
"hCZZZZCVBNNMNNNBVCZAACNmbnMBVCCCCZZZCVBNMMNBBBNNBBVCZAAAZCCVCCZZCVNMMMMNBVZASSAZVNNMmmNBCZZZAAAAASSDDDSSACVBBVCZZCVVVBBNMNBVCCCVVBBBNMmnbbbnmNBVVBNMMMMNBVVVBMnbnnmmMNBVVVVVVCZZCBMmmmMMBCCCCCZZZCBBCCCVNMmmMMMMNBBBNMMMBVCCBNMmmMNBBBBBNmvzjfayw73,;*$#+OOooooOOO+@#%&-:16qyahlcbmMNBCZASDSAZCCVVVVBBBBVCCCCCVBMMNBCCCCZZCVBMmMBVZAZCVBBVCZASSDSSSSAAAASSAAAZZAAAAAAAAAAZVNmmMNBBBBBBBBCCCCBNBBCCZCCCCCVBMbccvbnMNBCZZCCCVVBNNBCZASSACVNMMMBBBBBNMnbbmBCZZCVBBBVVBVVCZAAAZCCCCVVBBBNNNBNNMMMMMMmMMNNNBBBVCCCCZZASSAAZZZZZCCZASl",
"jAAAAAZCVBNBBVCCZAAAACBmbnMBVCZZCCCCVBNMMMNBBBBNBBBVCZZZZCCCZZZZCVBBBBBBVCZZAAAZVNNMMMBVCZZZASSSSSSDDDSACVBBBVZZZZCCCVBBNNBVVVBBBBVVVNMnbbnmNBCCZCVNMmmMMNBBNmnbnnmmMNVVCCVVVCCZCVBNBBBVCZZZZZZAZZVVCZZCBBNNMMmmMNBVVBBBVVVVBNNNNBVVVBBNmvzjfayw73,-&$@+OoXXXXXXXooO+@$&=>27wushlcvbmNBVZSSSAZZCCCCCVBBBVVCZZZCVBBVVCCCCCCCVNmnnMBZAAZCVBVCZASSSSAASAASAAAZZZZAAASSSSSSSAZBMbvbmNBBVVVVCZZCBMmMBCCCCVVCCCVBNmnnmMNBVCCCCVBBNNNNBCZAAZCVBNMMNVCCCCVNmvvnMVCCVBBVVCCVVVCZASAAZZZCCVBBBBBBBNMmnmmmmmmMMMNBVVCCCVVCZASSSAAAAZZCVCZAk",
"kSSSSAZCBBBBVCZZAAAAACBMmmNBVCCCCCCVBNMMMMNNBBBBBNNNBVCCZZZZZZZZCCCCCCCCCCCZAAAZVBBNNNBVCCCZASSSDSSSSSAZCVBBBVZZZZZCCCVBBBVBBNMMMMBBVBMnbbnMBVCZZZCVNMMMMNNNMmnnnmmMMBVCZCCVVVCCCCVVVCCZZAZZZZZAZZCCZZZZVVBNNMmnmMBCCCCCCCVVBNNNBVCCVBNmbxjfauw83,-&#@OoXX........XXoO+#&->38eidjlxvnMNVZASSAAZZZZAZCVBBVVCCZZCCVVCCCVVVCCCBMnbbmNCZAAZCVCZASSAAZZAAAAAAAZCCZZZAASSSSSSAZVMncxvnMNVVCCCZAZCBmnmNVCCVVVVCCCCVBMMNBBVVVCCVVBMMmMNVCZZZVBNNNNNBVZAAAZVMbbnMNBBNNNVCZCVVVCZASSAAAAZCVBVVBBBNNMnnnmmmmmmMMNBVCCCCVVVCASSSSAAAZVBNVCZj",
"kSSSSAZVBNNBVVCZAAZZZCVBNNBVVCCVVVVBBNmmmmmMNBBBNMmmMNBVCZZZZCCCZZZAZZZZCCVCZAAAZCVBBBBBVVCZASSDDSSSSAAZCVBBBVCCZZCCZZCVVVVBNMmnbbmNNNmnnnmMBVVCZZZCBBNNNNMMmmnmMMMMMBCZZZCCCVVVVVCCZZZZZZZCCCZZZZCCZAAACVVBNMnnnmBCZZZZZCCVNMMMBVCCVBmbxkgaue94,;&$@OoX...      ...XoO+#&-,49rpfjzvnMBVZAASAAAASSSSAZCVVCCCCCVVVVVVVVVVVCCVMnvvnNVZAAAAZZASSSAZCCCZZAAZZCVVCZZZZAAASAAZVNnczzcbMBVCCCZZAACBmnmMVCVVVVCCCZZZCVBBBVVVBBVVBNmnnMBVZZZVNMmmMNBVZASSSACBMnnmMMMmmMVCZCVVVCASSSAAAAZCVVVVVBNNMMnnnmMMmmMMNBVVVCCVVVVCZSSSSSSACNmmMNVh",
"jAAAAZCBNMNNBVCCZZCCCCVVBBVVVVVVBBBBNMmmnnmMNBVBNMmnmMNVZZAZCCVCZAAASAAZZCVVCZAAZZCVBBNNBBVCZASSSSAAZZZZCVVBBBVVVVVCZZZCVVVBNMnbvvnmNNMmmMMNVVVCZZZZVVVVBNMmmmmmMMMMNBCZAZZCCCVVVVCCZZZCCCVVVVCCZZZZZZZZCCVBNMnbbmNVCZZZZZZVBNMMBVCCVNmvzjdit061;*$@OoX.            .XXO+$*;150taglcnMBVCZAAAASSSDDSSAZCCCVVVVVVVVVVVVVVVVCVNmbbmMVCAASSAASSSSAZCCCCZZZZCVBBVCZZCCZZAZZVNmvxzzvnMBVCCCZAAAZVMmMNVVVVVVCCCZZAZCCVVVVBNNBVBNmnmMBCZZCBMnnmMBVCZASDDSACNMmnnnnnmNVCCCVBVCAASSAZZZZCVVVVVBNMMmnnmMMMMmMNBBVVVVVVVVVCZASSSSAZVNnbmMNg",
"hCCZCVBNmnmMBBVVCVVVVVCCCVVVVVBBNBBBBNmnnnmMNVVVBNmmmMNVZAZCVBVCZASSSSSAZCVBVCZAAZZCVNMmMNBVCZASSAZCCCZZZCCVBBBBBBBVZZZZCVVVBNmnvvnmNNNNBBVVCCVVCCZZCCCCVBmnnnnmMMMMMBCZAAZZCCCVVVVCCCVVBBNNNNBVCZZZCCCCCCCVBMnbbnNBVCCZAAACBNMMBVCVVNnclhsuw83>=%@OoX..            ...XO@%=>27wudkxbMBVCZAASSSSSDDDSAZCCVBNNBBVVVVVVVVVVVCCVBMmMNBVZAASSSSSSSSACCCCCCCCVVBBVCCCVVVCZZCBmvzzzcbMBVCCVVCZAAACVBBVVVBBBBVVVCZAAZZCCVBNMMBVVBMMMNVCCCVNmnnnMBVCZASDDSAZBNnbbbbnMNVCCVBNBCZAAAZCZZCCVVCCVBNMmmmmMNNNMmMMBBBBVVVVVVVCZAASSSSZVNmnmMMf",
"gBVVBBNmnnmMBBVVVVBBVCCZCCVVVBNNNNBVBBMmmmMNVVCVVBNMMMBVZAZVBNBVZAASSDSSAZVBBVZAAAZZVNMmmMNBVCZAAZVBBVCZZZCVBNNMMMNBCZZZVVVVBBMmnnnMNBBVVCCZZCCVVVCCCCZZCBmnnnbnmMMMNBCAAAAZCCCCVVCCCVBBNNNNNNNBCZZCVVVVVCVVBMnbbnMMNNBCZAAZVBNNNBCVVNnclhatq61;&#+oX..               .Xo+#&-<40tahzbmBVCZASSSSDDDSSSAAZCVBNNBBBBNBBVCVVVVCCCVBNNNBVCZAAAAASSSSAZCVVVVVVVBBVVCCVVBVVCCVNnczzxvmNVCCCVVCZASAAZZZZCVBNBBBBBBCZAZCCCVNMMMBVVBNMNBVVVBBMnbbnMBVCZASSSSAZVNmbvvbmNVCCCBNNBVZZZZCCCCCCCCCCVBNmmmmMNNBNMMMNBBBBBVVVVVVVCZAASSAACBMMMNMf",
"fNNNNMMmnnmNBVVVBBBVCZZZCCVVBNMmMBVVVVBNBBVVCZZCCCVVBBBVZZCVNNBVCZZASSSSAZCVBVCZAAAZVBNMNNBBBBCCCVNMNBVCZZCVNMMmnmmNVCCVBNNBBBNMmmMNBBVVCCZAAZCVBBBVVCZZCVMmnnbbnMNBBVZASSAZCCCCCCZCVVBNNBBBBBNBVCCCBNNNBVVVVNmnnnnnnnMBZAAACVNNBVCCVNmvzhar94,-%@OX..                 .XO@%=>38eiglvmBVCZSSDDDDDSSSSSAAZCVBVVVBMmMNVVVVVVCZZCVBBNBBVCZZZZZASSSAZVVBNNNBBBVVCCCCVVBVCCVBmvccvnMBVCZCCCCZAASSSAAZCVNNNNNMMNVCCCVVVBNNNNVVBNMMNBVVBNMmbbbnMBVCZZASAAZCVBMnbbnMBCZCVBNMNVCCCCVVCCCCCZZCVBMmmmMMNBBBNMNBBBNNBVVVVBBBVCZZAAAAAZVVVBNf",
"fMNMMmmmnmMBVVVBNNBVCZZZCCVVNMmmMBVCVVVVCCZZAAZZZZZCVBBVCZCVNNBVVCCCZAAAAZCVBVCZZAAZCVBBBBBBNNBBBNmnmMBVCCVBNMmnbbnMBVBNMmMNVVBNMNNBBVVVVCZAAZCVNNNBVCZZCVNMmnbbnMNVCZASSSZCVVCCZZZCVBBBBBVVVVBBCCCVBNMMNBVCVBMmmnnbvbmBZASACVBBVCCCVBMbzhpr82:*$+oX.                  .Xo+$*:27wiflvmBVZASSDDDDDSSAAAAAAZZCZCVBmnmMBVVVBBVCZZCVBNBBBBVVVVVCAAAACVBNMMMMNBVCCZZZCVVVCCVBmnbbnmMBVCZZCCCCZAASDSSACVNNBBNMmMBVVVBNBBNNBBVVNMmmNBVVBNMmnbbnMNBVCZAAZZVVVBNMnnMBCZZCVNMmMBVVVBBVCCCCCCZCBNmnmmMMNBBBBBBBBBNNBBBBBBBBBVCCZASSSAAZZVBf",
"gBNNMMMMMMNVCCVBMMNBCCCCCCCVNmnmNBVVVVVCZAAAAAZZZZZCVBNNVCCCBBVVVVVVVCZZZZCVVVCCZZAAZCCVVVVBBNNNMnvvbmNBBBNNMmnbccbmNNMmnnMNVVBNNNBBBBBBNBCZZZCBNNNBVCZZCVBNNmbbnMBCZASSSSZVBBVCZZZCVVBBVVCCCCVVCCCVBNMMMNBVCVBNNMmnbnMBZASAZCVVCZZCVBMbxhpe71;&#OX..                   .oO#&;16wuflvMBCZASSDDDDDSAAZZASSSSAAACBmnmMBVVBNNBVCZCVBNNNNNNNNNBVZZZZCVBNMmmmMBVCZAAAZCCCCCCBMmnmmMMNVCZZCCCCCZASSSSACVVVVVBNmMNBBNmmMNNBBVVBMnbnmNVVBNMmmmmMNNNNBVZZCVBBBVBBMMBVZAZCBMnnmMBBBBBBVVBBVVVVNMnnmmMMMNVVVVVBBBNNNNNNMMNNBVVCZASDDSSSAZVg",
"hVBNMMMMMNBVCVBNmmMNVVVCCCCVNmnmNVVVBVCZASAAZZCCCCZCBNNNBCCCCVCCCVBBBVCCCCVVVVVCCZZAZZZCCCCVBNMmbvxxvnMNNMMMMmbcxxvnMMnnnnNBVVNNMNBBVBBNNNVCCCVBNNNBVCCCCVVBNMnnmNVZASSSSACVBNBVCCCVVBBVCCZZZZCCZZCVBNMMMMBVCCCVBNMmmmNVZASAZCCCZZZCVBMbxgiw6<-%@oX.                    .XO@&;16wiflbMVCAASSSSDDSSAZCCZASSSSSSZVMmMMBBBNmmMNVCCVBBNNNNNNNNBBCCCCVBBNMMmmMNVCZZZZZZZCZCCVNMmmMMMNBCZZZCCCCZAASSSACVVVCCVBMMNNNMnnmMNBBVVBmbvvnMBVVBMMMMNNNNMMNBCCCVBBVVCCBBCZAAZVNmbbnMNBBBNBBBBBBBBNmnnnmmmMMNVCCVBBBNNMNMmmmmMNBVVCAASDDDSSAZVg",
"jCVBMMMMNNNBBBNmnbmMNBBBCCCVNMmMBVVVBBCZSSAZCVVVVVVVBNMNBVCZZZZZCVBNNNVVVVBNBBVVCCZAAZZCCCCCBNnvczzzvnmMmmmmmnvxzzcbnmbbnMBVCVNMMMNBBBBNNNVVVVBNBBVVVVVVBBBBNNMMNBCZASSSAZCVBBBBBBBBBBVVCZZZZZCCZZCVBNNNMNBVCZCCVBBNNNBCZAAAZCZZAAZCVBMbzgiq5,=%+oX.                    .XO@%-<6wigzbNVZAAAAAASSSAZCVVCZSSSDDSACBNNNBBNMnbbnNBVVBBBBBBVBBBBVVCVVBBNNNNMMMNBVVVCCZZZZZZCVNMMMmmmMBCZZZCCCCCZASSSACVVVCCCVNNBNNMnnmMNNNBBNmbccbMBVVBNMNBBBBNmmMBCCCVBBCZAAZCZZZZVNmbvbnMBVBBBBBBBNNNNMnbbbmmmMNBCZCVNMNNMMMmnbbnMNBVCZASSSSAAAAZBf",
"jZCBNNNNMMMNNNMmbbnmNBBVCZZCBNMNBVBBNBCZAAZCVBNMMNNNMMMNBVCZZZZZCVNMMNBVVBNNNBBVVCZAAAZCCCZCVNmvxzzxvnmMmmmMMnvcxxvbmmnnmNVCCVBNMNBBBBBNNBVVBBNNBVVVVBBNNNBBNNNNBVCZAAAAZCVBNBBBNNNNMNBCZZZZZZZZZZZCVBBBBBVVZZZCVVVVVVCZZAAAZZAAAAZCVBMbzfu04>=$+oX.                    .Xo@%-<6wigzbNVCZZZZCZAASAZCBBCZASSSSSAZVBBBBBNmbvvbmNBVVVVVCCCCVVVVVVBBNNNBBBBNNNNNNNNBCZZZZZZCBNMMmmmMBVZZZCVVVVCZASAACVVVCCCVBNNNNMmmMNNNNNNMmbvvbMBVBBMMNBVBNMnbmNVCCVVVCZSSAAZZZVNmbvvvnMVVVVBBVVBBNNNmbvbbmmmMNVZZCBMmMMMMMmnbbbmNBVCCAAAAZCZZZCBf",
"hCCCVBBNMmmmmmmnbnnMNVVCZAAZVBNNBBBNNBVCAAZVNmnnnnmmnnmNBVCCZZZZCVNMMNVVBNMMNBVVVCZAAAZZCCZZCVMnvccvnmMMMMMNNMnbvbnMMMmmNBVVVBBNBBBBBBBNNBVVBNMMBVVVNMmMMNBBNNNBVCZZAAAZCVNMMNBBNMMmmMBCZZZZZZZZZZZZCCCCVCCCZZCCVVVCCCCZZAAAAASSAZCVVNmvlfu04>=$+oX.                    .Xo@%-<5quflbMBCZZCVVVZAAAZCVVCZASASSSSACVBNNNMmnbvbnMBVVCCCZAAZZCCCVVBBNNBBVVVBNMMmbbnMBCZAZZZCVBNMmmmMBCZZCCVBBBVCASSACVBNBVVVNMMMNNNNBBNNMmMmmnbbnMBVBNMMNNBBNmbvnMBCCVVVCASSSAZCVNmbvvcvmNVCCCVVCCCVVBBMnbbbmMMNBCZZCBMMMNNNBNMmnnMNNBBVCZZCBBVVCCBg",
"gVCCCCVBMmnnmmmnnmMNBCZASSSACVBBBNNNMNBCZZCBMnvvvvbbbbnMBVVCCCCCCVNMNNVVBNMNBVCCVVCZAAAZCCZAZCBMmnbnmMMMMMNNNMmnnmNNBBNNBVVVNNNBBVBBBNNNNBVCVBMMNBVNmnbnMNBBNNBBVCCZZZZZVBMmMMNNMMmmnmBCZZCCCCCCCZZZZZZZZZZZZZCCVVCCZZZZZAASSSSSAZVBBNmvlfu04>=$+oX.                    .Xo@%-<5qudkvmNVCCVVBBCZZZZCCCZZAAAAAAAZCVNNNMMMmnbbmNVCCZZZASSAAZZZCVBNNNBBVVVBNMmnvcvnBCZAAZZZCVBNMmmMVCZZCVBBNNBVZASAZVNNBBVBMmmmNBBVCVVNMmmmmnbbmNBVBNmmMNNNMmbvbmBVVVVVCASSSAZCBMnbvvvbmBCZZZCZZZZZCCVNMmnnmMMBVZAZCBMMNNBVVVNMMMMNNNNBVVVBMMNBCCVg",
"fBCZAAZVNmnnmmmmMNBVCZASSDDSAZVBBNNMMMNBCZCBmvcccvvvvvnmNBBVBBBBBBNNNBVVVBNBVCZZCVVVZZZZCCZAAAZCBBNMNMMMmmMNNNMMmMBVVVBNBBBNMmNBVVBBNNMMMNVCCVBNBBBMnvvbmMBBBBBBBVVCZZZZCBMmmmMMMmmnmMBCZZCVVBBVVCCZAAAAAAAAZZCCVVCZZZZZZASSDDSSZVBNBNMbzguq4,=%@OX.                    .XO@%-<5qyshxnMVCCCVBBVVCCCCZZAAZZZZZZZCCBNMMNNNNMmmNBCZZZZAASSSSAAAZCBNMMNBBBBBNNMnvvvmBCAAAAZZZCVNMMNBCZZCVVBBNNBVZASSZVNNBVVBMmnmNBCZZZCVNMMmmnbnmMBBNMnnmMNNNmbvbmNBVVVVCZAAAAZCBMnbbbnmNVZAAAZZAAZZZZCVBNMmmMNBVZZZCBNNBBCCZCVBNNNNMMmMNBBNMmMNVCCj",
"fBCZAAZCNMnnmmmMNBVCZASDDDSSAZCVBBNNMMNBCZCBnvcccvvvvvnmNBBBNNNNNNNNNBVVBBBBCZAZCBNNVCZZZZASSSSAZCVVBBNMmmmMNNNMMNBVCVVBBBBNMMNVCCVBNNMMNBVCCCVBBNNmbvvnmMNBBBNNNBBVCCZCVBMmnmmMmnnnmNVZZZVBNMMNBBVCZAAAAAAAZZZZCCZZZZCCZASDDDSACVNNBNMnxgiq5<-%#OoX.                   .XO#&;16qyagzbMBCZCVBBBBBVVCCZAZZCVVVVVVBBNMNNBBBNNNBVCZZZZAAAAASSAAZCVBMMNNNNNNBBNmbvbmVZAAAAAAZZVBNNBVCZZCVBBBBBBVZASSZCBNBVVBMmnmNVZASAZCBNNMmnbvbnMNMmnnmMBBBMnbnmNNNBBVCZZAAAZCBMmnmMMNVZASAAZZAAZZZZCCVBNMMMNBCZZZVBNNBVCZAZCVBBBBNMmmMNNNMmmMBCZk",
"gVCAAAZCBMmmmmmMNBVCZASDSSAZZZCCVVBBNNBCZZCBmbvvvvbbbnMNBBNNNMMMMMMMNBVVBBNVCZAACBMMBCZZZASSDDSSAZZCCVBNmnnmNBNNMMNBVCVVBBVBBBVCAAZCVBBBBVCCCCVBBNMmbvnmMNNNNNMMNBBVVVVVVBNMmmmmnbbnmBCZAZVNmnbnmNNBCZAAAZZZZZZZZZAAZZCCZASSDSSACBNNBBNmxhiw61;*#+oX..                 .Xo+$*>37wyaglvMBCZZCVBNNNBBVCZZZCVBBBNNNNNBBBVVVBNNNBVCZZZZZAAZZAAAAZCCVBNNNMMMNBBBNnnmNCZASAAAAACVBNNVCZZCVBBVVCCCZASDSAZVBBBVBMmmMNVZASSAZCBBMnbcxxcnmmmnmMBVCVNmnnmMMMMNBCZCCZZCCBNNNBBVCZASSAZZCZZCCCCCVBBBNNNNBVCZCVBNNNVCZAZCVVVVVVBMMMMNNMmnmNVZk",
"hCZZZZCVBMmnmmMMNBVCASSSAZCCCCCCCVVVBVCZAAZVNmnnnnnnmMNBNNNMMMMMMMMNNBBBBNBBZASACBMMBVZAASSDDDSSAAAZZZCBMmmMBVVBMMMBCCCCVVVCCCZASSAZCVVVCCCCCVVBBNMmnnmMNNNMmmmmNNBBNNNBBNNMMmMmnbvbmNCZAZVNnbvbmMMBVCZAZZZZZZZZZZAAZZCCZASSSSSACVBBVVBmcjpe72:=%@Oo..                 .XO@%-,49ridhzvMBCCCCVBNNNNNBCCZCVBNNNMmmMNBVCCCVBNNBVCCCCCZZZZCCZZZZZZCCVBBNMMMNVVVNmmMBCAAASAAAZCBNNNVCZCVBNNBVCZZASSDDSZVBBBNNMmmMNVCASSAZVVBNnvxzzxvnmmmMBVZZCBMmnnmmmmNBCZCCCCCVVBVVCZZASSSSAZCCZCCVCCVBBBBBNNNBVCCCVBNMNBCZZCVBBVVCVVNMMMNBNMnnMNCj",
"kZZCVBBNMmbbmMMNNBVCAAAACBBNBVVCVVVVCCZASSAZVNNMMmMMBBBBNMMMMNNNNNBBBVVBNNBVZASAZVNNBVZAASSDDDSAZZZAAAACBNNBCZCVBNNBCZZZCCCZZZASSSSACCVCZZZCVBVBBBNNMNBVVBMmbbbnMNBNMmmMMMNNNMNMmnbbmMVCZZVNmbbnmMNNVCZZZZZCZZCCCZZZZZCCZZASSSAZCVVVVVBMvkar83>-&#+oX..               .XoO#&:17wusgkcnMBVVVVVBNNMMNBVCCCVBNMMmbbmMVCZZCVNNBVCCCCCCZZZCVVVCCCCZZZZCVBBBBVCCVBMMNBCZAAAAAZCBNMMNVCCVBMMMBVCCZASSDSSZCBNMMmmmmMNVCZZZZCVBBNmvxzzxbnmMNBVZAAZVMnbbnnnmNVCZCCVVCCCCZZAASSSSSAZCZZZCVVVVBNNNBBBNNBBVCCVBMmmMBCCVNMMNBVVBNMMMBBNMnbnmNg",
"kAZVBNMMmnbbnMNBNBVCZAACBMMMNBVVVVVCZZASSSSZCVBBNNNBVCVBMmmMMNNBBBVVCCVBNNNVCZAACVNNNVCZASSSSSAZZZZASSAZCVVCZAZCVNBVZAAZZCZZZAASSSAACCCCZAZCVVVVVBNNNBCCVBmnvccvmNBNmnmmmNNBBNNNmnbbnmBCZZCBMmmMNBNBBVCZZZCCCCVVVVVCCCCCCCZZAAAZCVVCCVVNbldy05<;*%@OoX..             .XoO@$=>39rpfjzcnMNNNBBBBBNMMNBVCCVBNNMMmbbmNVZZZVBMMBVCZCCCCZZZCVVVVVVCZAAZZCCCCCZAZCBNMBVCZZZZCCVNMnnmNVCCBMmmMNBBVVCZASSSACBMmmmmmmMNBBVVVVVBBBNmbcxcvnMMNBVCZAAZVMnbvbnnMBVCZCCVVCCCZASSSSSSSSAZCZZZCBBBNNNNNBBBNNNBVCCCBMmnmBVVBMmmMNBBBNNNNBVBMnbbnMf",
"lAZVNmmmnbvvmMBBBBVCZAZVMmmmBVVVBBVCZAAAAAAACVVVBBVVCCVNMmMMNNNBVVCZZCVBNMNBCZZZCVNMNBVZZAAAAAAZZZAASSAZCCCZAAAZVBBVZAAZCCCCCCZZAAZZCVCCZAAZCCCCVBBNBVCCVBmbvxxcnMBBNMmMNNBVVBBNmnbvbnNVZZZCBBBBVVVBBVVCCCCCCVBNNNNBBBBBBBVCZZCCVVVVVVVNnxgpe72>-&$@OoX..           ..XO+#&;<5qyshkzcbmMMMNNBBBBNNNBVVVVNNNNNMmmMBCZZCBNmMBCZAZZZZZZZZCVVBVVCZAAAZZZZAAASACVBBBVCCCVCVBMnvcvnMVCVBMmmmMMMMMNVCZAAACVNMMMMMMNNNNMNNNBBBBNMnbbbnMNBBVVCCZZZCNmbvbnmNBVCCCCVVCZZAASSSSAAAAZZCZZCVBNMMNNBVVVBNMMNVCCCVNMmMBVVBMnbnMMMMNNBVCCVNmnbbnd",
"lSZVNMMmnbvbmNBVVVVCZZCBMmmMBVVBNNBCZZZCZZZCVVBBBVVCCVBNMMMMMNNBBVCZZZVBNNNBVCCVBNMmMNVCZZCCCZZZZAAAAAZCVVCZAAZCVBBVCZZCVBBBBVVCCCZCCCCZZZZZZZZZCVBBVVCCVNmnvcxcbMBVBBNNNBBBBBNMnbvvbnNVZAAZCCVVCCVBBBBBVVCCCVNMMMMMMMMMMMNBVCCVBBVVCVVNmckdyq62>-&#@OoX....    ....XXo+#&=>27eifjlzxcbnmmMNBBBBNNBBVVVBMMNNBNMMNBVCCCBMmMBCZAZZZZZZZZCCVVVVCZAAZZZZZASSSAZCVVVCVVVVBBMncxzxbMVCCBMmmMMmbbbnMBVCZZZCBBNNNNNNNNmmmmMNBVVVNMmmMNBBVVVVVVCCCCNmbvvbmNBBVVVVVCCZZAAAAAZZZCCCCCZCCVNMmmNBVCCVNMmMNVCCCVNMMMVCCVMmbnmMMNNBVCCCVBMnbnmd",
"zDAZVBBNMmnnMNBVVVCCZCVNMMNBVCVBNNBVCCVBBBBBNMMNNBVVVBNMMNNNMMMMNBCZAZCVBBBBBBBNMmnnmMBVVVBVVCZAAAAAAZCBNNBVZZCVBNNNBVVVNMMMMMNBBVCCCZZZCCCZZAAAAZVVBBVBNMmnvvcvnMVCCCVVBBNMMmmnvcccbmBCASSAZCCVCVVBNMMMNBVVVBNMMmmmnnbbvbnMBVVVBBCCCCVBMbzhat061>-&#@OoXX........XXoO+#%=:<49rpgklzzxvbnmMNNBBBBBBBVBBNmmMNBBNNBBVVVVBNNBVZZZCVCCCZZZZZCCCZZAZZCCVCCAAAAZCCCCCCCVBBBNmbcxzcbMVZZCBNNMmncxxcbmNVCZZZCVVVBNNNNMmnbnmNBVCCVBBNNBBVVVVVBBBVCVBMnbvvnMNNNBBVVVCZZZAAAZCVBBVVVVCCVBMmnmNVZZZCNMmmNVVCCVNNNNVCZCBNmmNNBVVCCCCCVNMmmMNg",
"zDSAZCVBNMMMNNBBVVCCCVBNNNBVCCVBMMNBCVBNNMMMmmmmMNVVVBMMNBBBNMMMNBVZZZCCVBBBBNmnbbvbnMBVBNNNVCZZAAAAAZVNMMNVCCVBNMMMNBBBMmmmmmmMNBVZZZZCCVVCZASSAZCVBBBNMMmmnbbbmNVZZZCCBNmbbvbvcccvnMVZASSSZCCVCVBNmnnnmMBBNNMMmmmmbvvcxcvnNBVBBVCZZZCBMnclgat051>-&$@+OooXXXXXXooO+@$&=:<37qysjzzzzxcbnmmMMNNBNBBBVVBNmmMNBBBBBBBBBBNNBVCZCVNNBVCCCZZZZZAASAACVBBBCZZAZCCCCCZCCVVBVBMnvcccbMVZZZCVVBMnczzxvmNBVCZZZCCVBBBBBNmnbnmNVCAAZCCVBBBBVVVBNNBBVVVNmbvvnmMNNBBBVVCZZZAZZCVBNNNBBVCCVBMmnmBCAAZCNmnmNBVVVVBBBBCZAZCBNNBVVCCZZZCVBNMMMNVh",
"zFDDSAZCVBNNBBBBVCCCVBNMNBCCCVBMmmMNVVBNMmmmnnnnmMBVBNmmNVCCVBNNNBCZZZCVVVVBNMnvcccvnMBBNNMNBCCZZAAAACBNMMBVVVBNMmmMMNBBNMmnnnnmMBCZAZZCVBBVZASSSACVBNNMMmMMmmmmNBCZAAZCBmvxzzxcccvbmNBCZAAAZCVVCVBMnbvvbmMNMMmmmmMmnbcxxxvnNVVVBBCZZZCBNmbxkfpt051>-*%#@+OOooooOO+@#%*->147qtaglxccccvvbbnmmmMNNNBVVVBNMmMMNNNBBBBNNNmMNVCCBMnnMNVCCZZAAASSSSACBNNNVCCZCVVVCCZZCCCCCVBMmnbbnMVZAAZZZVBMvxzxbmNBBVCZZCCVBBBBVBNMnnMBCAAAAZCVBNNNNBBBBBBBVVVBMnvvnmMNBBBVVCCZZZZZZCBNNNNBVCZZCVBNMNVZAAZVMnnnMNBBVVVVVVCZAAZCBBVCCZZZZCVNNMmMNVZk",
"zFFDDSAZCVVBBBBBVCCVBNMMNVCCCVNMmmMNVVBNMMMMmmmmMNBVBNmmNVZZCVBBBVCZCCVVVVVBNmbvcccvnmNNNNNNVVCCCZAAACVBNNVVVBMMMMMMMNBBBNMmnnnnMNVCZZCVBBBVCASSSACVBBBNMMMMMNNNBVZAAAZCNmczlzxcvbbnMNBVCZZZCVVVVVBMnvccvbMMMMMMMMNNmnbvccbmBVVBBBVCZZCVNMmbxkfpr052,;=&%$#@@+++@##%&=:<258qtpfkxvbbbbbbbbbbnmMNNBBVVVVBNMMmMMNBBBBNMMnmNBCVNmbbmMBVCCZAASSDDSACVBBBVCCCVVBVVCCZZZZZZCVBNMmmMNVCZAZZZCVNbcxcnMNBBBVCCCVBBBBVCCVNMMNBCASSAZVBNMmmMNVVVVVVBBVBNmbbnMNNBBBVVCCZZZZZCCBBNNNBVCZZZZVVVVZAAAZVMnnnMNNBBVCCCCCZASAZCVCCZZAAZVBMMmmNVCAk",
"zDDDDSAZCCVBBBBBVCVVBNMMNBVCCVBNMMNBVVVBNNNNNNBBBBVVVBMMBCASAZCCVCZZCVBBBBBBNmnbvvbbnnMMNNBVVVVVVCZZZZCVVCCCVNmmMNNNNNBVVVVBMMmmmMBVCCCCVVVVCZASAZVVVVVVBNNNNBVVCCZAAAZVNmvxxcvnmmMNNNNBBVVVBNNBVVBMnvcxcvmNNNNNNNBBBNMmnnmMBVBBMMNBVCCVBNMmbxkgpr063<>;-*&%%$$$%&*=;,1470eyagkxbmmMMmmmnnbbnmMNBBVVCCCCBNMmMMNBVVBNMmbnMNVBNmbbnMBVCCCZASSDDSAZCVVVCCZCVVBBVVCZZZZZZCCVBBNNBVCZZZCCCCVNmbcvnMBBBBVCCCVBNBVCZZCVBNBVZASAZVBMnnbnMBCCCCCVVBVBBNmmMNNBBBBVVCZAAAZZCVVVVBBBVCZAAAZZZZAAAZCBMmnmMNNBBVCCCZCZASSAZZZZZZAZCVNmmmMNCZAl",
"lSSSSSAZCVVBBBBBVCVVBNNMMNVVCVBBNNBVVVVBBBBBBVVVCCZCCBNNVZSSSAZCCCZZCVBBBBBBNMmnnnnnnnmMNBVCCVVBVVCCCCVCCZZZVNMmNNBBNNBVCCCVBNMmmMNBVVVCCCCCCZAAAZVVVCCCVBNNBVCCZZZAZZCBNmbvvbmMNBBBBNNNNBBNmmMNVVBNmbcxcvmNBBBBBBVCCVBNMMMNBBBNmmMNBVVVBNNMmbclfpr9642<,>:;-===--:,1369qrypfkxbmMNNBBNNMMmnnmNBBVVCCCZCVBNMMMNBVVVBNmnnmNBBMmnnmMBVVVVCZASDSSAZZCCCZZZZCVBBBVVCZZZZCCVVBBBVVCCCCVBNBBBNmnbbmNBBBBVCCVBNNNVCAAZCVVVCZASAZVNmnbbnNVZZAZZCVVVVVBNNNNNBBVVVCZZAAAZCVVVVVVBBVVCZAAAAAAAAZCBNmmmmNBBBNBVCZZCZASSSAAZZZZZZVBMnmmNBCZAk",
"kAAAAZZCVVBBNNBBVCCVVBNMMMBVCCVVVVVVVVVVVBBBBVCZZZAAZCVCZASSSSAZCCZZZCVVVVVVBNmmmmMmnnnmNBCZZCVBBVVVBBBVZAAZVBNNBVVBNNNNVVCCVBNMmmmMNBVVCCCCCZZAZZCCZZAACVBBBVCZZZZZZCVNMnnnmMNBVCCVBNMMNNNmbbnMBVBNMnvcvbMBBBBBVVCZZZCVBBNNNNNMmmmMNBBBBNBBNMnckfue97654321<,,,,<23580etupdjzvnmNBVCCCCVBNMMMNBVVCCCCZCCVBNNNBVCCCVBNmmMNNNNMmmMNBVBBNNVCASSAAAZZZZZAAZZCVVBBVCCCCCVBNNNBVCZZZCVMnbnnmMmnnmMNBBVVCCCVBMmMBCAAAZCVVVZAAACVMmnnmMBCZAAZZCVVCCVBNNNNNBVVCCCZAAAAZVBNBBBNNNNBVCZAAZZZZZCBMmmmmMBBBBNNVCCCCZASDDSAZZZZZCVNnnnMBCZZCj",
"hCCCCCVVBBBNBBBVCCCCCVBNNNNBVVVVVVVVVBBBBBBNNBCZAAASAAAZASSSSSAAZZZAAZCCCCZCVNmmmMNNmmnmNVZZZCVBBBBNMMNBCAAACVVBVVVBNMMMBVVCCCBNMmnmMBVVCCCZZZZZZZCZZAAACVBNBBVCCCCCCVNMmnnmMNBVCZZCBNMMNNMncxvnNBBNNmnbbnNBBBNNBVZZAZZCCVNNNMMMmmmMMNBBBBBVVBMnxjsyeq009876544445680wrupsdhlcbmMNBVZZAZZCBNNNBBVVVCCCCCCCVBBVVCCCCCVBMMMNNBNNNNNBBVBNMMBVZAAAAAAZZZAAAAZZCVVBVVVVVBNMMMMNVCZAZCNmcxxcbnnmMMNNBBVCCCCVNMmMBCZAAZCCVVZZAZCBMmmmMNVCZAZZCCVCCCVBNMNNNBVVCZZZAAAZCVNNNNMMMMNBBVCZZCCVVVBMmnmmMNBVVBNNBVCCCCASDDSACCCCCCBMnbnMVCCCVg",
"gNBBBNBBBNNBBVCCZAAAAZCVBBBVVBNNBBVVBNMMNNNNMNVZASSSSSSSSSSSSSSAZZAAAAZZZZZZCBMmmMNBNMmmNVZAZCBBBNNmnnmNCAAAAZZCZCVNMmmMNBBVCCCVMmnnMNVVCCCZZZCCCZZZAAAZVBNMNNNBBBVVBBMmnbbnmNBCZAACVNmmMMmbxzxvmNNNNMMmmMNBNNMMNBCZAAZZZCBNNMMMmMMNNBVVVVVCCVBMvlgayttttrewq09990qeryisfgjlxvnMNBBVZAAAZZCVVBBBNBVVVVVVCCCCCCCZZCCCCVNMNNBBBBBBBBVVBNmmMBCAAAAAAAAAASAAAZCCVVVBBBBBNMnnmNVCZZZVNnczlzxcbmNBVVBVCCCCCVNMmmNVCZZZZZCCZAAZCBNMMNBVCCZCCVVVCCZCVNmmMNNBVCZZZZAAAZCVNMMmnnnmMNBVVVVBNNNMmnbbmMNBVCCVBBVCCCCCASSSZCBBVVVVNMbbnMVCCBMd",
"dMMMMMNBBBBBVCCZAAAAAAZZCVVVBBNMNBVBNMmmMMMMmMBVZASSSSSSAAASSSSSAASSSSAAAAAACVMmMNBVBMmmNVZAACVBBNMnvvnNVZAAAAAAZCBNmmmMNBBVCCCVMnbbmNBCCCCZZCCCCCZAAAZCBNMMMMmmmMNBBBNMmnnmMNBCZAZCBNmmmmmbxlzcnMNNNNNNMMNNNMmmMNVZAAAAZCVBNNNNMNNBBBVCCCCCCVBMbxjfappaaapuyttrrtyuiadhklzxcbmNBVVCZAAAZZCCCVBNMMBVVVVVCCCZZZZZCCCCVVNMMNBVVVVVBBVCVBMMNBCZAAZAAAAAAASAAZZCCVVBNNNNMmnnmMBCCCCVNmvxzzxcnMBCCCVVCCCCCVNMmmNBCZZZZZZZAAZZVNMmMNBVCCCCVBBVCZZCBMmnMNNBVVCCCZZAAZCBNMmnbbnmNBBVVVBNMMmmnnbbmMNVCCCVBBVCCCCCASSACVNMNBBBBMnnmMBVVNna",
"dMmmmMNBVVBBVCCZZZZAAAAAZZCVBNMMNBVBNmnnmmmnbnMBVZZAAAAZZZZAASDDSSDDDSAAZZAAZCBNNBVVBMnnMBZAAZVBVBmnvvnMBCCZAASAACBMmmMNBVVCZZCVMnvbmNVCCCCZCCVVVCZAAZCVNMMmmnvccbmNBVVVBNMMMNVCZZCVBNMmmmnvxzzcnMNNBBNNMMNNNMmnmMBCZAAAAZCVBBBBBBVVVCCCCCCCVVNmvxkhfdghhhgdssaaaaaasgjzcvvvvbmNVCCCZZZZCCCCCCBNmmNBVVVVVCCZZZZCCVVVVBNMmMNBVCCCVVCCCCBBBVCAZZZZAAAAASSSAAZZZCCVNMMMMmnnmMNBVVCCVNmbvccvmBCZZZCCCCCCVVBNNNNBVCZZZZAAAAZCVNnbnmNBVVVVBBBVCZZCBMmmMNNNBVCCVCZZZCVNMmmnnnmMNBVVVVBNMmmmnnnnMNBBCCCCVVCCCCCCASSACBMMNNBBBBNMMMBBBmvp",
"dMmmmMBVVVVBVVBVCCCCZZZZZZCVBNMMBBVBNmnnnmnbvvbmMBVCZZZCVVCZASDDDDDDDSSAZZAAZZVBBVCVBMnbMBZAZCVBVBMnvvnMNBBVZAAAZCBMMMNBVCCCZZCBMnvbmNVCCCZCCVBBVCZZZCVBNMMMmbxzzcnNVCCCCVBNNBVCCCVBBNNMmnvcxxcvmNBBBBNMmmMNNNMmmMBVZZAAAZZCVVVVVVCCCCCCCCVVBNMnvxzkjjlzzzkkjjjjhggghkxvnmnnbnMBCZCCCCVVVCCZCVBMmmNBVVVVVVCCCCCCVBNBBBNMmmMNVCCCCCZZZZCCCCZZZCCCZZZAAAAAZZZZZZCVNMmMMmmmmMNNNBVCCVBMnbbnNVZAAZCCCCCCVVVVVBBBVVCZZZZAAZZCVMnbbnNBVVVVBBVCZZZVNMmMMNNNBBVVVVCZZCBNMmmmmMMNBVVCCVBBNMMMmmmmNNBBVCCCVVCCCCVCZASACBMMNBBVVVBBNNNNNmvi",
"dMMMNBCZZCVBBNMMNBBVVCCCCZCCVBNNBVVBNmnnmmnvcxcvbmNVCCVBBBBVASDDDDDFDSAZZZZZZZCVVVVVNMnnMBCZZVBNBBNMmmMMMMMMBCZZCVBBNNBVVCCZZZVBMnbnMBCCZZCCCVBBVCCCCVVBNNNNmbxzzcnNCZAAAZCVBBVVVVNNNNNNmncxxcbnNBVVVBNMmmMNBBNMMNBVCZZZZZZZCCVVCCZZZZCVVBNNMMMmbvxzlzxcvcxxxcccxzkklxbmNNMmnmMBCZCVBNNBVCCCCVNMmMNBVVVBBVCCVVVBNMMMNBNNmnnmNVCCCCZZAAZZZZZZCVBBVVVCZZZCCVVCZZCVNMmmmmmMMMMMMMBCZZCVNMMNVZAAZCCVCCCCCCCCCCCCVCCZZZCZZZZCVNmbvbMBCCCCVVCZZZCVNMMMNNMMNBVVBVVCCCBNMmMMNBBBVVCCCCVBBBBBNNNNBBBBCCZCVVVCCVVCZASAZVBNBVVCCCCVBNMMMmvi",
"dMMNBVZZZZVBMmnnmMNBVVVVCCCCVBBBVVBBNMmmMMmbczzxcbMBVVVBNNBCZSDDDDFDDSAZCCCZZCCCVVVBNMnnMBVCVBMMNNNBNNBBMmnmNBVVBBBBBBBVVVCCZCVNMmnnMBCZZCCCVVVVCCCCVVVVBBBNMnczxvmBCZAAAACVBBBBBBNNNNBNMncccvnMNBVVVBNMmMNBVVBBBBVCCCCCCZZZZZCCCZZZZCCVBNMMmmmmnnbvcvbnnnbbnmmmnbcccbMBVVBNmmMBVCCBNMmMBVCCVBMMMMNBBBBBBVCCCVVBNmnmNBBNmnbnMBVCCCZZZAAAAAZZCVBBBBBBVVVBNNBVCCVBMmmmmMNNNNMmmmBCZAZCBBBVZAAZCCVVCCCZCZZZAAZZCCZZCCVVCCZZCBMmnnNVZZZCVVCZAZCBMMNNMMmmMNBBNNBBVVBNmmMNBVVVVVVCCVVVVCCCVVVVVVVCCZZCVBBVVBBBCAAAZVVBVCCCZZZCVBNMNMna",
"dMNBVCZZZCVBMnvcbmNBVVBBVCCCVBNNBBNNNNNNBBMnvxzxcbmNVVBBBBVZASDDDDDDDSZCVVCCVVVVVBBNMMmmNNBBMmnnmMBVCCCVBMmmMNNMMNBBBBNNBBVVCVBNmnnmNBCZZCCCVVVCZZZCVVVCCVBNMnvvbmNVVCCZZZCVNMMNBBBBBVVBNmbvbnmMNNBBBBNNNBVCCCCCCCCCCVBBBVCZZZCCCCZZCCVBBNMmnnmmMMMmnnmMMMmMNBBBBNMmmMBVCCVBMMmMBVVNmnnmNBVVBNMmmMNNNNNBVCZZZCCBNmnmNBVBmnbbmMBBVVCCCZAAAAAZCVBBNNNNBNMmnnmMBBNNmmmmMNBVVBMmmmBCZAZZVVCCAAZCVBBBCCCZZZAAAAAZZZZZVBNNBVZZZCBNMNVCZZCVVVCZAZCBMMNNMmnnmMMMmmmMBVBNmmmMBVVVVBVVVVVVCCZZZCCCCCZZAAZCBNNNNNMNVZZACVVVCCCZZZZCVBBNBBNd",
"smNBVCCCCVVBMbcxcnMBVVBBVVCCVBNNNNNNNBBVCVBMbczxcbMNBBBBBVCZSSDDSSSSSACVBBBVBBVVBBNNMMMMNNMmnbvvnmBVCZZZCBNMNNMmmmNBBNNNNNBBBBNMnnnnMBVCCVVVBBVCAAZCVVCZCCBNMmnnmMBVVVVCCZCVNMMMNBVCVVVBNMmmmMMMMNNBBBBBBVZZZZZZZZZCCVBNNBVCZZCCCCCCCVBBBNMmbbnMBBBBNNNNBNNNBCCZCVVBBBBVCCVBNMmmNBBNmnnnMBVBNMmmmmMMMMMNVZAAAAZVNMmMBVCVNmbbnMNBBVVVCZAAAAAAZCVBNNNNNMnbvvbmMNMmnnnmMBVCVVNMmMBVZZZZCCCZAAZCVBBVCZZZZZAAAAAAAAZCBNMMNBCZZZCCVVCZZZVBBBCZAZVBMMNNMmbbnnmnbbbnMBBNmnnmNBVVBBBVVVVVCCZZZZZZZAAAAAZVNMMMMMmMBCZCVVVVCZZZZZZCCVVVVVVg",
"smNBBVVVBBVBMbcxcbMBVVBBVVCVVBNNNNNNBVCCZCVMbcxxbmMNNNNNBVCASDSSAASSSACBMMNNBBBBBBBBNNNNMMnbccxcbmNVCZAAZZCVBNMmmmMNNNMMNNMMMMMmnbbnmMBBBBNNMNBCAAAZZZZZZCBMMmnmMNBVBBBBVCCVNMmMBVCZCVBBBBBBBBBNMMNNBVVVCZAAAAAAAZZCCVBNNNBVCCVVVCCCVBBBBBNmbbnMBCZCCVVVVBBBVCZAZZCCVBBBVVVBNMnnMNBNMMmMNNBNMmnnnnnmmmMBCASDSSACVNNBCZZCVNmnmMNNBBVVCZAAAAAAAZCVBNMMMmnbvvvbmMmnbbbnMBVCCVNMMMBVCZZCCCCZZZCVVVVVZAAAAZAAAAZZAAZCNmnmMBCZAAZZZZAACVNMNBCZAZVNMmMNMmbvvbbvcccvmNBNmnbbmMBBBBBBBVBVVCVVCCZZAASSAZCBMmMMMMMMBVCVBBBVCZZZZZZZZZZCZCCh",
"anMBBVVVBBBBMnvcvnNVCCBBBVVVVBNNBBBBBVVCZCVNnvxcnMNNMMNNBCZASSSSAASSSACBmmMMNBBBBBBBBBNNNmbvxxxvnMBVCZAASAAZCVNMMMMNMMMMNMmnnnmnnnbnmMMMMmmmmMNVZAAAZZAAZCBNMMmMMNBVBBNNBVVBMmmMBVZZCVNNBVCCCVBNMmMNBVVCZZAAAAAAAZCCCVVBNNBBCCVVVVVVBNNNBBNMnbnMVCZZZCCCVBNNBCZAAZZCVVVBVVVVBNmmMNBBNNNNNNNNMMmnnnnbbnmBZADDDSAZVBBVZAAACVNMMMMNBBVCCZZZAAASAAZCVBNMMmnbvvvbnmmnbbbnMBVCVVBNMMNBVCCCVVCCZCCVVVVCZZAAAAAAZCCCZZZVMnbbmNVZZAAAAAAZVNmnmNCZAZVNmmMNMmnbvcccxxcvmNBBMnvvnmNBBBBBBBBBVBNNBVCZAAAAAZVNMMMNNNMNBVVBNNBVCZZZZZCCZZZZZCVg",
"pbMBVVCCVVVBNMmmMNCZZCVBBBVVVVVVCCVVBNNBVVBNnbvbmNBBNMNBVCASSSSAAASSSACBmnmMNBBBBBBVVVBNMmbvcccbmNBVVCZASSSSAZCVBNNNMmMMMmbvvvnnmmnnmmmnbbvbbnMBCZZZZZZZZCVBBNNMMMNBBBNNNBBNMmnmNVZZCBMMNVCCCVBNMmMNBVVCCZZZZZZZZCCVCCCCVBBBVCVBNBBBNNMNBBNMnbnMBCZZZZCVVNMMNBCZZCCVVVBVVVVVVVBNNBBBBBBBNNNMNNNMMmbbvbnNCASDDSACBNBVCASSAZVBNMMMNBVCCZZZZAAAAAZCCVBNNMnnbbvvnmMMmnnnMNBVVBNNMMNNBVVVVVVCCCVVVBBVCCZAAAAZCVBBVCCVMnvvnMBCZAASSAACNnvcbmVZZZVNmmNNBNMnvczzxcvnMNVBMnvvbmNBBBBBVBBBNNmmmNVCZZZZZCBNNNBBVBNNBBBNMMBVZZZZCCVVCCCCVBMs",
"ivMBVCCCCVVBBNNBVCZAAZVNMMNBVCCCZZCVNMmMNBBNmnbnMBVBNNBBVZAASSAAZAASSAZBMnnmNBVVBBVVCVVBNMnbvvvnMNBVVVZASDDSSSAZCBBMmmmMMmbvcvnmMMmmmmnbcxxcvnMNVCZCCCCCZCCVVBBNMMNBVBNMMMMMnnnmNVZZCBMMNBVCVVBNMMNBVVVVCCCCCCZZCCVVCCZZCVVVCCVBNNBBNMMMNBNMnbnmNVVCCCCVBNmmMNVCCVVVVVVVCCCCCCCVVVVVVVVVBNNNNBBBNMnbvvnMVZASSSZVNMNBVZASSACVNMmMNBVVCCCZZAAAAAZCCVVBNMMmmnbbmMNNNMMMMMNNBNNNNMMNBBVVVVVVVVVVBNNNBVCZZAAZVNMMBVCBmbccbmNBCZAAAAZVMbxzcnBCZCBNMMNBVBNMbczzcvbmNBVBNmbvbmNVVVVVVVBBNMnnmMVCCCCCCVBBBVCCCVBBBBNMmmNVZAZZCVBBBVVBBMbp",
"ivmBVCCCCCBBNBVCZASSAZBMnnnMBVCZAAZVMnbnMNBBMmnmNVVVVBBVCCAASSAZZZZAAAZCNMMMBVCVVBBVCCCVBNmmnbbnMNVVVCZASDDSDSSAZCBMnbnmMmbvvbmMNBNNMmnvxzzxvnMBBVVVVVVVCCVVVVVBBBVVCVNMmnnnbbnMBCZZCVNNBBBBNNBNNNBVVVVVVVVVCCCCVVVVCZZAZZCCCCVNMNBBNMmmMMMnbbbmMNNBVVCVBNmnmNBVVBBBVCZZAZZZAAAAZCCCCCCVBBNBVVVVBNMnbbnmBCZASAZVMmmMNVZAAACBMmmMMNBVVVCCZAAAZCCVVBBNNNNNNMMMNBVVVVBBNMMMNNNNNMMMNBVCCCCCVVVBNMmmmMBCZZZCBMnnMNBNnvxxvbmMBVCZZZZVMbxzxvMBVVBNMMBVCCVBmvxxvnmNBBVBNmbbnMBVCCCCCVVVBNmmmNVVVVVVVCVVCZZZCVBBBBNMmmNVZZZCBNMMMNNMmbxu",
"pbMBVCCZCCBBNBVZASSSSZBMbvvnMBCZAAZVMnvbmNBBNMmMBVCCVVBVVCAAAAZCVVVCCZZZVBNBVCCCVBVVZZZCVBNMmmnnmNBVVVZAASSSSSSAZVNmnbnmMMnbbnMNVVBBNMnvxllzvnMBBBBVVBBNBBBBBBVVVVVCCVBMnbbbbbmNVZAZCVBNBBNNMMNBBBVVVVBBBBVVCZCVBNBVCZAAAAZZZCBNMMBBNMnnmmmnvvbnMNNNBBVVBNmmMBVVBBNBVZAASSAASSSSAAZZZZCVNNNNVVCVBNMmnnnmNVZAAACBmnnnmNCZAZVNmnnmMNBBBVVCZAAZCVBNNMMMMMNBVBBBVVCZZZCVBNMMNNNNBNMMNBCZZCCVBBBNMmnnnmNVZZZCBMnnmNNNnvccvbnmMNVCCZCVNmvxcbMBBBNNNNBVCCCVMnccbmMBBVBBNMnnmMNBVCCCCVVVVBNMMNBVVBBVCCCZZAAZZVBBVVBNMMBVCZCVNMnnmmmmnvzt",
"smNBBVCCCCVBNBVCZSSSAZBmvxcbmBCZAAZVNmbbmNVVBMmMNVVCVVBBVCZAZCVBNMMNBVZZZZCCZZZCVVVCZAAAZCVBNmnbnmMBBVCZAAAAAAZZVBMmnnMNNMnbbnMBVCVVBNmncxzzcnMNBBBBBBMMmmmmMNBVVVVVVBNMnbnnnmMBCZZZCVBNBBNMMMBVVCCVVBBBBBVCZZCBMMMBCZZAAZZZZVNMMMNBNMmnmmnbvvbnMNNNNBVVVVBBVVCCVBBVCASSDDSSDSSSSSSSAACBMnmMBVVBNMMMMMmMNBCZZZVNmnbbnMVZZCBMnbbnmMNNBVVCZZAZCBMnbbbbbmNVCCCCCCZZAAZCVBNNNNBBVVBBVVCZZZCBNMNNMMmnnmBVZZZCVNmnmMNNmnnnmmnmmMBVCZZZCBMmmMBBBNNNBBVCCCCCBMnbmMNBBBBNNMMmmMMNNBVVVVVCCCVBBBBVVVVVCZAAAAAAZCCCZZCCVBVCCCCBMnbbnnmmnvlt",
"dmNBBBVVVVVBNNBCZSSSSZBMvccbMBVCZCCVNmnnmNVCVBNNBVVVVVBBVCZZCVNMmmmmNBCAAAAAAAAZCVVCZZAAZCVBNMnbbbmNBVCZZZZZZZCVNMmnnmNBBNmnnmMNVVVBNNMmbvxcbmNBBBVVBNmnbbbnnmNBBBNNNNNMmnmmmMNVCZZCVBBNBNNMMNBVCZCVBBNNNNVCAACBMmmNVCZZZZZZCVBNMNBBMmnbmmnbvvbmMNBNNNBVCCCCZZZZCVVVZASSSSSSSSSSSDDSSAVNnvvbMNBBNMMMMMmmMBVCCCBNmnbbnMVCZCNmbvbnnmMNBVVCZAAZVNmbvvvvbnNVCZCCVVCCZAAZVBBNNNBVVCVVVVVCCCVNMmMMNNMMMNBCZZZZVBMmMNBBNMMNNMmmmMBVZZAAZCBNBBVVBBBBVVCCCZZCVBMMMNBBVBBNMMmmMmmmMNBVVVCCZZZCVBBBVVVCZZAAAZZZCCCZAAAAZCCCZZCBMnbbnmmmnvzy",
"dMNNMMNNBVVBBNBVZASSAZVNnbbmNBVVVVBBNMmnmNVCCCVBVVVVVVVVCZZCBNmmnnnmMBCASSSSSAAZZCCCCZZZCVBNMmnbvbmMNBVCCCCCCVBNmmnmMNVCVBMmnnmMNNNMMMMMMmnnmNBVVVCCVNmbcxcvbnmMMmnbnnMNNNNNNNNBCCCVNNNNNNNNNNVCZZCVNMMMmMNVZAZVMnnMBCCZCCVVCCVBBBBNmbvbmMMmnnmMNBBBNNNBCZZZAAAAZZCCZZAAAAAAAAASSDDDSZBmczlxbMNBNNMMmmnnMNVCVBNMmnbnmNVZCVNmbvbbnmMBVCZZAAAZCBmbvvbbbnNVCCVBNNNBVCZZCVBNNNNBVCVVBBNBBBNMmnmMNBBVBVCZZZZZCVNNBBVVBBBVVBNMNNVCZASSACVVCCZCVVVVCCZZAAAZZVBNNBBVVVBMmnnnmmnnnmNBVCCZAAAZCBBBVVCCCCCCCCVVVVCZSSDSSSAAAZZVMnbbnmMMmbci",
"dmmmmmmMNBVVBBBVZASSSACBMmmMBVBBNMMMMMmmMNCZZZCCVVVVVCCCZZZCNMmnnnmmNBCASSSSSSAAZZCVVVCVBNMMMmnnbnmMMNBVCCVVBNmnnnnMNVZZCVNMMMMMMMMmmmMNNNNNNBVCCCZCCBmvxzcvvnnmnbcccbMNBVBBNNNBBVVBNNNBNNNNNBCZZZCVNMmnnnmBCZZVMmnmNVCCVVBBVCCCCVVNnbvbmNNNNMMNBBVBNNNVCZASSSSSSAZZZZZZCCCCZZZASSDSACNnxlkzbmBBBBNMmnbnmNVVBNMmmmnmMBCCCVNMnvvbbnMNVZZZZZAZCBMnnnnnnmNVCCVNmnnmNVCCCBNMMNNBVVVBMMmmMMMMnnmMBVCCCCZZZZZZCVBBVCCCVVCCCCBBNBVCZAAAZCVVCZAZCCCCZZAAAAAAZCVBBBBVVBNMnbbbnnnbbmNVCCCCZAAZCVBBVVCCVVVVVBNNNNVZSDFFDDDSSAZVNmnnmMNNMnbp",
"abnnbbbmNBVCVVVCZAAAAACVNMMNBBNMmnnmMNMMNVZAAAZCCCVVCZZZAZZVNMmmmMMNBVZAAAAASSAAAZVBNNNNmnbbnmmMmmMMmMNVVCVNMnbvbnMNVCZAZCVBBBNNMmnnmMNBBVVVVVCCZZAZZVMbxxcbnnnbvczzxvMBCCCVBNNNNBBBBBVVVBBBBVCZAZCVNMmnvvbmVCZCBMnnmNVVVBBBVCZZZCCBmbbbMBVCVBBBVVCVBNBVZASSDDDDSAZCVVVVBBBBVCZZASSACBmbczzxbMVCCVBMnbbnMNBBNMmmMMMNBVCCVVBNmbvvvvnMVCCZCCZZCVBNNNNMmMNVZCBMnvvvmNVVVNMMMNBBVBNMnbbbnmMMmmmMBVCZZZZZZZZCCCVVCZZZCCCCZCVBBBBVCCZCVBNBCZAAAZZZAAASSSAAZCVBNNBBBBNmbccvnmnnmMBCCCVVCZZZCCBBVVVBBNNNNNmnnmBCSDFFFFDDDSZVNmmmMNBBNMna",
"abbbvvbmNBVCCCCZAAAZZZCVNMNNBBNmbbnmNBBBVCZAAZZCCCVCZZAAAZZVNMMMMMMNVCZZCCCZASSAACVNmmmmnbvbnmMNNNMmmmNBVVBMnvccbmNBCZAAZCVVVVVBMMmmMNNBVCCVVVVCCZZZZCNnccbnmmmnvcxxcbNVZZZCBNMMNNBBBBVCVVVVVCZZAZCVNMnbccvnNVZCBMnnmMNBBBNBVCZZZZCVNmnmNVZZCCVVCCCCBBVVZASSDDDDSAZCVBBBNNNNVVCZZZZCVNmbvvcvmNVZZCBNmnnmNBBNMMmmMMNNBVVVVVVNMnvcxcbmBCCCVVCCCCVVVVVBNNBCZZVNnvcvmNBVBNMMNBVVVBMmbbbbnmMNMmmmNVCZZAZZCCCCCVVCZZAZCCCCCCVBNNNNBBVVBNNBCZSSSSAAAAAAAAZZZCVBMMMNNBNMbvvbnmmmMNVCCVBBVCCCCVVBBBBNNNNNNNmnbnNCADFFFFDDSAZVNMmMNBBBBNms",
"snnnnnmNBVVCCCZAAAAZCVVBNNNBVBNmnnmNVCCCCZZZZCVVVVVCZAAAAACVNNNMMMMNVVCVBBBVZAAAZCNmnnmmnbbbnMNNNNmnnnMNVVNmvxzxbmNVCZAACVVVVCCVBNNNBBVVCCCVBBBBVCCZZCBmbbmMMMmmnnbnmMBCZAAZVBNMNNBBBBVCCVVCCZAAAZVBMmnvccvbMBCCVNmnnmNBBBNNVCCZZCZCBNMNVZAAZCVVCCZCVVVVCZASSSDSSZCVBBBBNNNBBVVCCCVBNmmmmmnmMBCZAZVBNMMNBBBNMMMMMNNBBVVVCCCVMnvxzzcnNVVBNNBVCCCCCZCCVVVCZZCVMmnmMBVVBNNNVCCCCBMnbbmMMNBBNMmMNBVCZZZCCVVVVVVVCZZZCVVVVVBNMmnnmMNNNNNBCASDDDSSSAAZZCVVVVVNMmmmMNBNmmnmMNMMNBVVVBNNBBVVVVBBNNNNNNBBVBMmbnNCADDFFFDSAZCBNMMMNNBVVBMd",
"snmmmMNBVVVBBVZASSZCBNNMNNBBVVNMmmNVCZZZZZZCVBBBBVVCAAAAAZVBNNNMMmMNBVVBNNNBCZAAZVMnbbmmnnnnmMNNNMmnnmMBVBBMbcxcbmNVCZAZCVBBBVCCCVVVCCCCCCVBNMMMNNBVCCBNmmNNBNMMMMMNBBCZAAAZCBMMMNNNNBBVVVVCZZAAZCVNMmbvccvnMBVCVBMmmMNBBBNNBVCCCCCCCVBVCASSAZCVVCZZCVBBCZAASSSSACVBNNBBNNBBBBVVVVNMmnmMMMMMNBCZAAZCVBBVVVBNMMNNNBBBVVCCCCCVNmbczzcnNBBNMMNBCCCCZZZCVVCCZZZCBNNNBVCVBBBVCZZZCVMmnnMNBVVVBNMmMNBVCZZCVBBBBBBBVCZZCVBBVVBMmnbbnmMNNNBVZADDDDDSAAZCVBNBBVVNmnbnMNBVNNNNNNMMMNNBBNNMNNNNBBNNMMMMNBVCCCBNmMBCASDDFFDSZCVBNNNNNNBBVBNd",
"snmMNBVVVBNMMNCASSZVMnnnmMNBVVBBNNVCAAAAZCVBNNNNBBVCASSAZCBNMMMMmmMNBBNNNNBVCZAACBmnbnMMMMmmmMMMMmmmMNBVVVVNmnbbnmMNVZAZCBMMNBCCZZZZZZCCCVBNmnnnmmmNBVVBNNBBBBNNBVVCCCZZAAAZVNmnmmMMMmMMMNVCZAAZZCBNMnbvvbnmNBVVCVBBNNVVVBNNVVCCVVCCCCCZASSSAZCVVVCZCVNNBCZAAASAZVBNNNNNNNBBNBBBBBmnbnmMNNMMMNCZASAZZZZZZCVNMMNBVVCCZZZZZZCVNmnvccvnNBBBNMNBVCCCZZZCVVVCZZZCVVBVCCZZCCCZZZAAZVNmnmNBVCVVBMmmmMNBCZZCBBBBBBNNNBVCCVBBBBBNmnbnnMNNBBBCZSDDDDSAZCVBNMMNBVVBmnvbmNVVVVBBBNmnnnmmMMMMMMMMMMMmnnmMBVZAAAZCVVCZASDDDDSACBBBBBBBNNNBBBMd",
"dmMNBVCCVBMmmMVZAAZBmvvvnmNBBBBBBVCZAAAAZVNMmmMNBVCZASSAZVBNMMMMmmMNNNMMMNBVCZAZCBmnnmNBNNMMMMMMmmMNBVCCCCCVBMmmmmmMBCZZCBMmMNVZZZAAAZCVVBNmnbbbbbnmNBBVBBBBBBBVCCZAAAAASSAZBMnbnmmMmnnmmMBCZAZZCVBNMnbbbnmMNBVVCCCVBVCCVVBBVCCCVVVVCCZASSSSSACVVVCZCVNNBVZAAAAZCVNNMMMMMNBBNNBBBNmbbnMNNNNMMNCZSSSSAAAZZCVBNNBVCZZAAAAAAZVBMmnbvvbmNBBBNNBBVCCCCCCVBBVVZZZCVVVVCZZAAAAAZAAAZCBMMMBVCCVVNMmnnmNBCZCCBNBBBNNMMNVCCVBNNNNNMmnnmMNBBBVCASSDDDSZCVBNMMmMBBVBMnbbmNVCVVVVBNmnbbbnmMMMmmmmmMmmmmmMVCASSSAAZZZAASSDDSAZVNNBVCCVNNNBBNms",
"fNNBBVCCVBMmmMVCZZCNncxxbmNNNNNBVCZZAAAZCBMnnmNBVCZASSSAZVBMMMMMMMNNBNMmMMNBVCAACVMmMNBBBNNNNNNNNMBVCZZAZZZZCVNMMMmMNVZZZVNNNBCCZZAAZCVBNNMmnbbvvvvnmNBVBBNNBBVVCZAASSAASSACNmbvbnmMmnnnnmNVCZZZCVBNMmnnnmMNNBVVCZCCVVCCCCVBVCZZCVVVVCZZAAAAAZCCVCZZZCVVVCZAZZZCCVBNMMMMMMBBNNNNNNmnnmMNNNMMMBCASDSSAZZCZCCVBNBVZASSDDSSZCNMmnbbbbnmNBBBBBBBVCCCCCVBNNBVZZCVBBBBVCZAAAAAZZAAAZCVBBVVCCVBNMnnbnNVZAZVBNNNNNNMMMBCCCBNMNNBNMmmmmNNBBVCZASSSSACBNNNMMMMNBBBNMnnMNBVBBVVBNMmnbbbmMMMmmmmmMMMMMMNVZASSSSSSSSSSSSSDSACBNNBCZZCVBBBNMbp",
"hVBBBVCCVBMmMNVCCCVNncxxbmNBNNNNBVCCZZZCVBMmmMBVCZZASSSAZVBNMMNNMNBBBBMMMMNBVCAAZVNMNNVVVBBNBBBBBBVCZAASAASAZCBNMMmmMBCZZCVBVVCCCCZZZVBNNNMmmnnbvvvbmMNBBNMMNBVVCCZAAAAASSACNmbbnmMMMmmnmMNBCCCCVVBNMmmnmMNNNNBVCCCVBBVCCCVVVVZZZCVBBVCZZZCZZCCVVCZZZZCCCCCCCCVVVVBNMMmmmMBBNNNNNNMmmMNBNNNMMNVZASSAZCVBVCCVBBBVZASSDDDSZVMnbbbbbnmMNBVVVVVVVVBVVVVBMMNBVVVBMMMNVCAASSSAZZAAAAZCCCZZZCCVBNmnnmNVZZCVNMMMNNNMMMBVCVBMmMNBBBMmmmNBBBBVCZAAAAZVBNNNMMmMMNBVBNMMMNBVBVVVBNNMmmnmMNNNMMMMMMNNNBBVCZAAAASDDDDSSSSSSAZCNMMNCZAZVBNNMmvi",
"jCBNNBVVVBNNBVCCCVVBmbccnMBVBNMMMNBVVCCCVBNNNBVCZZZAAAAACVBNNNNNNBVVCVBNMMMNVCAACVNMMNVVVBBNBBVCCCZZZAAAAAAAZCBMMmmmMNVZZZZCCCZZCCCCCVBNNNNNNMMmnbbnmMNNMmnnMNBVBVVCZAAASSACBNmmmMNNNNMMNNNBVVVVVVBNMmmmMNNNMMNBVVVBNNBVCCVVBBCZAZCVBBVVVVVVVVBBVVCZZZZCCVBBNNNBBBBNMMmmmMBBBNNNNNNNNNBVBNNMMNVCZZZCVNMMBVCVBNNBCZASSDDACNmbvvvbnmmMNNVVCCVVBNNNBVBNMmmMNNMmnnmNVCASSSSAAAAASAAAAAAAAZZCVBNMMNVCZZVBNMmmmMMNMMNBVBNMnmNVVBNmmMNBBBBBVCZAZZCVVVVBNMmmmMBVBBNNNNBVVVVVBNBBBBNNBBVBBBBBBNNBBVCCZAAAZZSSDFDDDDSSSAZVNMMNCZZZVNMMmnvi",
"jCBNNBVVVBBBVCCCCVVBMmbbmBCCVNmmnmMNBBVVVVBBVVCZZZZZZAZZCVBNNBBBBBCCZCVBNMMNVZAZVNmnmMBVVVBNBBCZZAAAZZZZZZZZCVNMmmmmmNVCZAZZZZZCVVVVVVNNBBBBVVBBMmmmmMMMmmnnMNVBBBBVZZZAAAZCVBNNNBBVVBBBBBBBBBBBVBBNMmmmMNBNMMNNBBNNMMNVCCVBNNVZAACVBNBBBBBBBBNNBVVCCCCCVBMMMMNNBVBBNMmmMMBBBBNNBBBBBVVVBBNMMNBVVVVBNmnnMBVVNNNNVCZASSSAVNnbvvbnmmmmMNVCCCVBNMmMNBBNmnnnmmnbcvnMBCASSSSAAAAAAAAAASSSSSAAZCVBBBVVVVBNMMmmmmMMMmmMNNMmnmNVVVNMMMBBBBNNBVCZZCCCCCCVBMmnmMBVVVBBBBVVCCVBNMBVVVVVCCVVVVCVVBNNBVZAAAAZZZASDDDDDDSSSAZVNNNBVZZCNMmmmnbp",
"kZVBBBVBBBBVCZZZZCCVBNmMNVZZCBmbvvbmMNBBBBBVVCZAAZCCCCCCCVBNBBBVBVCZAZCVBNNNCZZCBmbcvnMBVVBNNBVZAAAZCCVVVVVVVBNMmmnmmNVCZZZZZZCCVBVVVBNNBVVCCZZCVBNNNMMmmmnmNBVVBNBBCZZZZZCVBBBVVCCCCVVVCCVVBNNNBBNMmmnmNBVVBNNNNNNMMMBVCCVNmmBCZACVNNNNNNBBBNMMNBVVVVVBNMnbnmNBVVVBNMMMMNBBBBBBBVVVCCCVBBNMMMNNBNMMmnbbMNBBMMMMBVCZAAAZBMnbnnmMMmnnnmBCCCBMmnbnMNBNmbvvbvcxzxvmNCZASSAAZCCCCCZASSDDDDSSSAZCVBNNMMmmMMMmmmMMnbvbmMMMmMBVVVNMNBVVBNmmNBCZCCCCCZZCBMmnmMVCZCCVBVVCZZVNmnMBVZZZZCCVCCZCVBMMNVZASAAZZZASSDDDDDSSAAZCVBBBVVVBMnnnmmns",
"kACVBBBNNNBVZAAAZZZCVBNNVCAAZBmbccbnMNNNNNBBVCAAAACCVVCCVVBBVVVVVVCZAAZCBNNBCCCVNncxcbMBVVBBNBVZAAAZCVBNNNNNNNMmmnnnmMBCCZZZZCCCVBVVVBBBBVCZZZZZCVVVBNMmmmmMNVCCVBBBCCZCVVBBNBVCZZZZZCCCZZZCBNMNBBNMMmmMBVCCVVBBNMMMMNBVCCVNmMBVZZCBMMMMNNVVVBMMNBBVVVBBNmbbnMBVCVVBNNNNNNBBBBBBBVCCCCVVBNNMMMMMMMmnnnvbmMNNMmMMNBVVCZCVNmnnmMNBNMnbnmBVCVNMnbbnMNNNmnbvvcxlklcbMBCAAAAZCVVVVVCZASDDDDDDDSAZVNMmnnnnmMMMMMMmbvcvnmNNMNBVVVNNBVVBNmmmMBVCCCCCCZZCVNmmMNCZZZCCVVCZZZVMnbmNVZAAZCVVCCZZVNMMNVZAAAZCCCZZAASSSSAZZCZCCVBBBBBNnnnnMMMd",
"lSZCVBNMmmNVZAAAAAZCVBBBCZAAZBmvccbmNNNMMMmMBVZASAZCCCVVVVVVCVVVVVVCZZZCBNNNVCCVNnvccbMVCCVVBBVCZAAZCVNMnnmmMMMmmnbbnMBVCCCCCCCCVVVCVVBNBVCZZZCCCVVVBNMmmmmMBVCCCVVVCZCVNMMMMNBCZASAAAAAAAAZVBNNBBBBNNMNBCCZCCCVNMMmMNBCZCVBNNVCZCBNmnmMNBVCCVBNBBVVVVVBNMmmMBCCCCVBBBBVBBVBBBBBBBVVVVBBNNMMMmmnnnmmnnbbmMMMMMMNNNNBVVBNmbbbmNVVVNmnnmNBVVNMmmnmMMNNNMmnbczkjjlcbmBZAAZCVBBBNBVCASDDDFDDDSAZBMbvvbbnmNNBNNNmbvcvnMNBBBVCVVBBVVVNmnnmMNBVVVCCCZCCVBNNBVZAAZZCVVCCZCBMbbnMBCZZZCBBVCCCBNMMNVZAZCVBBBVCCCCZZZCVVVCCCCVBBNMmnnmMBVVg",
"lSACBNMmbnMBCAASAAAZCVVVCZAACBmbvbmMNNMMmnnmMBZASSAZZCVVVCCZCCVBBBBVCCCCVBNBVVVBNmbvbmBCCCCCVVVCZZZZCVBmbvbmMNMMmnbbnmBVVVVVVVCCCCCCCVNNNBVCCCVVVVVBBNMMMMMMBVCZZCCCCCCBMmmmmMBCZASSSAAAAAAZCVBBVVCVBNNBVCZZZZCVNMMMMNVCZCCVBVCZZCBNmmmMNVCZZCVBVBBBVVVVBNMNBVZZCVBBBBVVVBBNNNNBBBBBBNNNNMNMMmnbbbnnnnbbnmMMMNNNNNMMNNMmnbbnMBCZCVNMMMNBVVBNNMMmMMNBBNMMnvzkhhkzvnNCAAZCVBNNNNVCASDDFFFDDDSCBmbvvbbnMNBBBBNMnbvbmNBVVVCCCVBBVVBNmnnmMNNBBBVVVCVVVBBBVCZZZZZCVVVVCVNmbbnmNVCCCVNNBVCVBNMNBCZZCBNMMNBBBBBVVVBNNNVCCCVBNMmmnmMBCZZj",
"lSZVNmnbvvmNCAASAAAZCVVVCZAZVBMmnmNBBBMmnbvbmBZASSAAZCVVCZAAZCBNNNMNBVCCVBBBBBBBNMmmMBCZZZCCCVVVCZZZZCBmvcvnNBBBNMnbnmBVVVBBBBCCZZZZCVNMMMNBBNNNNNNNNBBBNNMMBVZZZCCCCCCBmnnnmMNVZAASSSAAZZAAZZCCCZCCBNNBCZAAZCVBNMNNBVCZZCCCCCZZZCVBNMNBVCZAAZCVVBNNNBVCVVBBVCCCVBMMMNVVBNMMMNBBBNNMmmmMMNNNNMnvccbnnbvvnmMNNBVBNMmmmmmnnbnmBCZAZCVBBBNBVVVVVBNMMNBVVVBNMnxljjlxcnNCAAAZCVBNNNBCASSDDFFDDSACNmbbnnmmMNBBVVBNMmmMNBVCCZZZCVBBBBNMmmMNNNMMMMNBBBBBBBBBBBVVVVVVBBNBBBNMnnmmMNBVBBNNBVVVBBBVCZZZVNmnnmMNNMNNNNMMmMBVCCVBNMmmmMBCZASl",
"lAZVMnbvccnMVZASAAAZZCVCZZZCBNMMMNBVBNMmnbvbmNCASSSAZCVVCZAAZCBNMMmmMNVVVBBNBBBBBNNNVCZZZCCCVVVVCZZZZCBmvcvnNVVVBMnbnmNBBBNNNBVZAAAZCBmnnmmMMMMMMMMMNBVVVBBBVCZAZZCCCCVBmnnmmMNBVZAASAAZVVCZZZCCZZZCBNNBCZAAZCVBNNBBVCZZZZCCZZAAZCVVBBBVCZAAAAZCVBMMMNVVCVVVVCCVBNmmmMNBNMmmmMBBBNMmnnnmMNBVBNnvccvnnbvcbnMNBVVVBNmnnnnnnmmNVCAAAZZCCVBBVCZZCVBNNBVCVVBNNmczkklxvmBCASAAZCVBNNBCASSDDDDDSAZVNmnnmMmmmMNBVVVBBNNNNBVCZZZZCVNNNNNNMMNNBNMMmmMNNNNNNNNNMMNBBBBBNNNNBBNMmmmMMMNNNNMNBVVVVVCCZAAZVMnnnmNNNMMMNNMmmMBVVVVBNMmmmNBCASDl",
"kACVMmbvccbMVZAAAAAAZZCCZZCBNMNNBVVVBNMmnbvbmNCAASSAZCCCCZAAZVBNMmnnmMBVVBNNBBBBBBBVCZAZCVVVVVBVCZZAAZVMvcbmNVCCVNnbbnNBBBNMMNVZAAZCBMnbbbnnmMNNNNMMNVCZCCCCCZAAZZCVVVBNmmMMNBBBVCZAAZCBNMNVCCCCCCCVNNNBCAAAZCVBBBVCZZAAZZZZAAAAAZCCVBVVCZAAAAAZVBmnnmNVVVVVVVVBNMmnnnMMMmnnnMNBBBMmbbnmNBVCCBMnvcbnnnccvnMNBVVVBNMMmmmmMMNBVCZAAAAZZCCCZZAAZCBBBVCCVBNNMmvxllxvnNVZASSAAZCVBBVCASSDDDDSSACVNMMMMMmnnnMNVCVVVBNNNNVCZZZZVBNMMMNNNNNBBBNMMMMMMMmmMMmnnnmMNNBBNNNNBBNNMMMMmmmMMNNNBVCCCZZAAAAZVNMMMNBBBBBBBNMMMNBVVVVBBMmnmMNVCASl",
"jZCVNMmbvvnMVCZZZAAAAZCCZCVNMMNBVVVVBNMMMmnmMBCAASSAAZCCCZZZCVBNNMmnmMBBBNMMNNBBBVVVCZAZCVBBBVBVCZZAAZVNbvbmNVCCVNmnnmNBVBNNNNVCZZCVNmbvbbnmMNBVVBNNBVCZZZZZZZZZZZCVBBNNMMNBVVVVVCZZZCVNmnmNBVCCCCVVNNBVZAAAZCVVVCZAAAAAAAAASSSAAZZCBBBVCZZAASAZCBmnbnNVCCCCVVBNMmnnnnmMmmnnmMNBBBNmbbnmNVCZZCBMbbmMMmbvbnmNBBVVVBBNNNNNBBBVVCZZAAAZZZCZZASAZCVBBVCCVBNNNMnvxxcbMBCZASSAAZCVBNBVZASDDDDSSAZVBNNNNMnvcvnMBVVVVBNMmMBVCZZCVBMmmMNBNNNBBBBBNNMMmnnnnnbvvvnmMNNNBBBBBBBNNNNMmmmmMMNNVCZZZAAAAAAZCVBBBVCCCCVVVBNNNBVVCCCVBNmnnmMNVZAl",
"jZZCVVBMmmMNVCCCZZZZCCCVCVBMmmMBVVVVVVBBBNNNBVZASSSSAZZCVVCCCCVVBBNNNBBBNMnnmNBVVVVCZZZZVVBBBVVVCZZAAZCNnbnmNBVVVBMmmMBVVVVBNBBVVVBNMnbvnmMNBVCCCCVBBVCZAASSAAZZZCCVNNNNNBCZZZCCCCZZCVBMnbbmNBVVVVCCVVCCZAAAAZZZZAASSSAAZZAASSSAAZCVNMMNVCZZAAAACBMnbnNVZAZZCCBNmnnnnmMMMmmMMMNBBNMmnnmMBCZZZZVBMMNBBNMmnmmMNBVCVVVVVVVVVVBBBBCZZZZCCCCZAAAAAZVVVVCZCVBBNNMnbvbnNVZAAAAAZCVBNMMBCASDDDDSSAZCVVVBMnvxlzvnMBBBNMnbbnMBVCVVVVNMmmNNNMMNBVCCVBNmbvcccccccvnmMNNBBVVVVVBBBBBNMMmmmMNBVCZAAAAZZCZCCVVVCZAAAAZCVBNNNBVVCCZCVNnbbbnmNVZk",
"hCCCZCCVBNNBVVVVVCCVBNNBBBNMnnmNBVVCCCCCCVVVVCZASSSSAAZCBBVVCCCCCVVVVVVBMmbbmMBVVVVCZZZCVBBBVVVCZZZZAZCBmmmMNBBVVBNNNBVCZCCVBBNNNNNNMmbbmMBVCCZZZCVBBBVCZASSAACCCCVVNMNNBCZAAAZZZZZCCVBMmbbnmNBVVCCZZZZZZAAAAAAASSSDDSAZCCZAASAAAZCBMMMMBVCCZAAACVNmnmNVASSAAZVNmnmmMMNNNNNNNBBBNNMmmmMNVCZZZCVBNBVCCCVNMMmMMBVCCCCCCZZZZCVBNNBCZCVBBBVCZZAAZZCVVVCZZCVBBNNMnnnmBCZZZZZCVBBNmmmMVZSSSSSAAZCCVVVBNnczlzcbmMNNMmbvvbmNBBVVVVNMmmMNMMmMBCZZCVMncxzxxxxcvbmMMMNNBBVVVVVVCVVBNMmnmmNBVZZAAZZCVVCCCCCCASSDSSAZVBBNBBBVCZAZCBmnbbnmMBCk",
"fBVCZAZZCVVVVBBBBBBNmnnmMNMmbbnmBVCZAAAAZZZZZZZZASSSSAZVBNNBVCCZZZZZZCVBMnbbmMBVBVVCCCVBNNBBCCZZAAAZZCVBMMNBBVBBBBVVVCZAZZCVVBMMmMMNNMmmMNVZZZZZZCVBNNNVCASSAZVBVVCVBNNBVCZAAZZZZZCCCVVBMmnnmMBVCZZAAAAZAZAAAAAASSDDDSZVBBVCZAAZZCCBNMMNNBBVZZZZCVBNMNVZASDDSACBMmMNBVVVBVVCVVCBNMmmMMBVCZZCVVNNNBCZAAZCVNMmMNVCCCCZZAASAZVBMMNBVVNmmmNBVCCZZZCVVVCZZZCVBBNMmmmMBCCCCVVNMmmmnnnMVZASAAAZCVVVVVVVBMbvxxcvbnmMmmbvbnmMNBBBVVBNmmNNMmnmBCZZCBmclkllzxxcbmNNNMMMMNBBVVCZZZCVBMmnnmNBVCCCCCCVBBBVVVCCASSDDSSZCVBBNBBVZAAAZVNmmmmmMBCj",
"dMNVZAAAZZZCCVBNNNMMnbbnMMMmbvvnMBVZAASSAAAZZZCCAASSSAZCBNNBVCCZZAAAAZVBMmbnMNVVBBVVVBBNMNNBVCZAAAZZCVBBNNBVVVBNNBVCZAAAAZCVVBMmnmMNNNNNBVZAAAZCCVVBMMMNVZASAZVBBVCCVBBBVCZZZZCCVVVVVVVVBNMMMNBCZZAAAAZZZZZZZZAASSDDDACBMmNBCZZZCCVVBNNNNNBVCZCCVVBBBBVZASSSSAZVNNBVCCCCCCZZZZZVNMmmMNVCZZCVNMmmmNVZASSACVNMMNVCZZZZAASSSZCBMMNBBNmnbbmNBVVCCCCCVVCZZZCVBNMMmmmMBVVVVBNmnbnmnbnmBCAAAZCVBNNNBVVVVNmnbbbnnnmMMmnbnnMNNBBBVVBNmmNNMmmmBVCCVMbxkjlzxcvbmNBVBNMmmmMNBVZZAAZCBNmnnmNBVVVVVVVVBNBBVVVCASDDDSSZCVBBNBBVZAAAZVNMMMMMNBVh",
"dmMBCZAAAAAZZCBNMMMmnnnmNNNmvccvnMNVZAASAAAZCCVVZAASSSAZCBBBVVZZAASSAZVBMmmMBVCCBBNNMMmmmMNNVCCZZZCVBNMMMMBVCVBNMNVZASSAAZVVVBNMnnmNBVVVCZASSACVVVVBNMMMVZSSSACVVVCZCCVBBVVVVVBNNMMNBVCCCVBBNBVCZZZZZCCVCCCZCCCZZASSSAVNnnmNVCCCCCCVVVBBNNBVCCVVBNBBBVVCZAAAAAZCVVCZAAZZZZAAAAACBMnnMBCZZZCBmvccbmBCASSSACBNNNVCZAAAASSSAZCVBNNNNNmbvbmMNBVVCCCCCZZZZCBNmmmmmnmMNBBBNMMnbbnmnnbnNVZAZCVBMmmmNBVCVVBNNNNMmMMNNNMmMMNBBVVVVVBMmmMNMMMMBVVBMnczkkxvbnmMNVCCVNMnbbnMNVZAAAZCVNMmmmNNBNNNBVCCVBBBBBVCASSSSSAZCVVBNBVCAAAZCVNNNNBBNBVh",
"dMMNVZASAAAAAZVBNMMMmmmMBBNmvxzxcbMBCZAAAAZCCVBBVCZASSSAZCBBBVCASSDDSACBNMMNBVCVBNMmnnnnmmmMNBVVCVBMmmnnnmBVCCBNMNVZASSAZCVVVVBMmmmNVCZAASDSSAZCVVVVNMMMVZSDSAZCCCZZZCVBBBBBBBNMnnnmNVCCCCCVBVVCZZZZCVBBVCCCCCVCCZSSSAVNmnmMBVCCCVVVVVVBBNNBVVBBNMNNBBBVCCCCZAAZCCZASSAAASSSSSAZVNmmMBCZAZCNncxxvmBCZASSSACBNNVCAASSSSAAZCVVVBBBNMmnbnmMNBBVVCCZZZZZCBMmnnnnnnnnmMMMMMmmbnmmmnbnMBCZZCBNmnnmMBVCCCVVVVBBNNBBBBNMMNNBVVVVVVBNmmMNMMMMBBNMnvxzzxvnMMMMBVCCVBMnvvbmNVCZAAZCVBNMMMNNNMmMNVCCCVBBNBVCAAAAAAZCVVBBBBCZAAZZCBNNNBBBBBBg",
"gNNNVZAAAASSAACVBNNNNNNBVVNnczllxcbMBCZZZZCVVVBBBBVZASSSZCBBBVCASDDDDACVNMMNBVVVNMnbvbnmMmnnnmMNNNmbvccccbMVZCVNMNVZAAAZCVVBVVBNMmMNVZASDDDDDSAZCCCVBNMNVZSDDSAAAZZZCVBNNMMNBNMnbvvnMBVCCCCVVVVCCZZCVBNBVCZZCVVVVCASSACBNMNBVVCCCVVBVVVVBNBBVVBNmmMMNNNNNBNBCZAAZAASSSSSSSSSSSSAZVNNBVCZAZCBmvcvnMVCZAASSACBMMBCASSSSAZZVBBBVCVVNMmnmmNNBBVVVVVCZAAZVNmbbbmmmnvcvbmMMMMMmmMMmmnnMBCZZCVNMmmMNBCCCCCCCVVBBBVCCVBNMMNBVCCCVVBNMMMMMMmMNNmncccvbnMNNNMMNBVVBNMmbvbnMBVZZZZCVVBNMMMMMmmMNVZZZCVBNNVCZZZZZZCVBBBBBVCZZZZCVBNNNNNNNNNf",
"hVNBVCZAASAAAAZCVVVBBBBVCVNnxlklzxbmNVCCCCVVVBBNMMBVZSSSZVBNMBCZSDDDDSZVNMmMNBBBNmbbbnMMNmbvvvnnmnvcxzzzxvMVZZCBNNVCZZCCVBBBBBBNNMMBVZASDDDDDSSAZZCVBNMNVZASSSSSAAZZCVBNMmmMNNMnvvvbmNBVVVVVVVVVCCCCBNNNVCCCVVBBCZASSACVBBVVVCCCVBNNBBVVBNNNBBNMnnmMMMmMMMMNVZAAAASSDDSSSSSSSAAAZCVVVVCZZZCBMnnmMBVCCZAAAACVMMVCASSSAZZCBNNBVCCVBMMMMNNBBBBBBBBVCZAZVNmbbnMNMncxcvnMNNNNNMMMMmnnMNVCZZCBNMNNBBVCCCCCVVBBBVCCCCBNmmMNBVVVVVBBNMMmmnnmMMnvcxvnMNBVBMmnmMNNNNMmnnnmMBVCZZCCVVVBNNNMMMMMBVZZZCVBNNBVZZZZZCCVNNNNVCZZZCCVBBNNNNMMmmmd",
"jCVBVCZAAAAAZZCCCCCVBBBVVBNnczllxcbMBVCCCVVVVVBNmmMBZASACBmnnMBZSDDDDSACBMnnmMNNMMnnmMBBBMvcxcvbbbcxzlllzvMVAAZCVVCCCCVBBNMMNNNMMNNVCZAASSDDDDSSAZCBNMMNVZAASSSSSAZCVBNMmmnmMNNmnbbnmMNMMMMNNBBBVCCCBBNNVCCCVBBBCZSSSAZCCCCCCCZCBNMMNBVVBNMMBBNMnbnmmmmMMMMNVZASASSSSSSASSSSAAZZZZZZZZZZZCCVBNNBVCCCCCZZAZCVNNVZASSACCCVNNMNVZZCVBBBBBBBNNNNNNNNVCAZCBMmmMBVBmvxcvmNBVVVBNMMmmmnmMNBCZZCVBBBBVVVVVVVBBNNBVVCVVNmnbbmNBVVVBBNMmnnbbbnmmnbxcbmNVVVNmbvvbnmmmMMMMMNBVCCCCCVVVVVVBBBBBBBVCCZCCVBBBBVCZZZZZCVBNMNBCZZCVBBBBBBBNmnbbba",
"kZVBBVCCZZCCCCCCZZCCVBBBVBNmvzlzxvmNVCCCVVBBVVVNmmMBZAAAVNnbbmBCSDDDDSAZVMnbnmMNNMmmMBCCVMbcxxcvvvccxxxxcnNCASAZCCCVVBNNNMMMMMmmMNBVCZZZASSSSSSSAZVNmmMNVCZZAAAAAAZCBNNMmnbnmMNMmnnmMMmmnnmMNNNBVVCCVBNNVVCVBBBVZASSSAZZZZZZZZZCBMmmMNVVBNMMBBNMbbnmMMMMMMMNCZAAAASSSSAAASSAZZCCZZZZZZZCCVVVVVVCCCCCVVCZZZCCBVCZAAZCBBBBNNMNCZZZCVVVCVBNmmmmMMMMBCZZCBMMMNCCVNnvvnNVCCZCVBNMmmmnnnmNVZAACCCCVVBBBBBBBNNNBBVVBNMnbvvbMNBVVBNMmnnbvvbnMMmnvvnMBVCVNmbvcvvbnnmMNNBBVCCCVVVVBBVCCCVVCCCCCCCCCVVBBBVVCZZAAZZCBNMMBCZZCVBNBBVVVNmnbbba",
"kZVBMMNBVVBBBBVCZZZCBBNNBBNMbczzcbMBCZCCVBBBVCVVNNBVZAAZVNnbbmBCSDDDSSSZVNmnnmNBNNmMNVZZCBmbvccvvbbnnnnmMNVZSSSAZCVBNNMNNNMMMmnnmMNVCCCCZZZAAASSACBMnnmNVCVCCZZAAAZVBNNNmnvvbmMNMMMMMMmnbbnmNNBBVVCVVBNBBVVBBBVCASSSSAZZZZAAAAZCBMnnMNVVBNMNBVBNnbmMNBBBNNBVZAAAZZAAAAZZAAAACVBBVCZZZZCVNNNNVVCCCCVBBBVCCZZZCCZZZCBNmmMMNNBVZAAACCCCCVNmbvbnmmmMNVZZCVNMNBCZZCNMMNVCZAAZCVNMmnnnbbbmVZASAAZZCCVBNNBBBBNNNBBNNMmnbbbnMBBVBBMmnnnbbnmMBBNMnnmMNBVVBNmbvvvbbnmMNBBVCCCVVBBBBBVCCCCCZZZZCCCVVVBBBBVVCZZASAAZVNMMBVCZCCVBBVCCCVNmmnmd",
"kZVNmnmMNNNMMNBCZZZCBBNNBBBNMnccvnNCZZZCBBNBVCCVBBVCCZZCVNmmmMBCASDDSSSAZVNMMNBBBNMMBCZZCVMnvccvbnMNNBBBVCZASDSSACVNMmMMNBNNMmnnnmMNBVVVVCCCZZAAZCNmnnMNVVVVVCCZAZCVBNNNmnvcvnMNNNNNNMmnnnmNBBVVVVVVBBBBBVVVBBCZASSSAZCCVCZAAAZVNmnnMNBVVBNBVCVNmnmNBVVVBBVCAAZCVCZAAZCCZZZZVBNNBVCCZCVBMmMNBCCCCVBBBBBVVCCZZZZCVBMnbbnmMBVCZAAAZCCCCVMncxcvnmmmNBCCCBMMMBCZAZCVBVCZASSAZCBNmmmnnbnMVZSSSSAAZCVBNNBBBBNNNNNNNMMmmnnmNBBBBBNMmmmmmmNBVCVBMmmMNNNBBNMmnbbbnnmMMNBBCCVBNNBBNBBVCZZZAAAZCVVVVVBNNNBVCZZASSSACBMMBVCZZZCVVVCZZCBNMMNf",
"kZVMnvbnmmmmmMBCZZCCVBBBBVVVBMnbnNVZAAZCBNNBVCCCVVBBVVVVVBNNNBCASDSSAAAAAZVVBBBVBNMNBVZZCVNmbccvnMBCZZAZZZZZASSSACBMnnmNBVVVBNmnnnnmMNNBBVVVVCCZZVNMmMNBVVVBBVCZZZCVBBBNMnvcvbMNNNNNNNMMNNBVCZZZCVVBBBBBVVCCCCZASSAAZCVBNBCZAAZVMmnmMNBVVVVVCCCBMMNBVCCVBVCZAACVBBCZZZCVCCCCBNMMNBVCCCBNmmMNBVVVBBBBBBNNNBVCZZCVBMnbbbbmMBCZAAAZCVVVVBMnczxcnmmMMBVVVBMmmMBCAAZZCVCZASSSAZVBMMMMMMNBCASDSSSAAZCVVVVVBBNMNNNBBBBBBNNNNBBBBVVBBBBBBBVCZZCVNMmmmmMMNBNMmnnnnnmmMMNNBBNNMMNBNBBBVCZZAAAZCVBBVVNMmmNVCZZASSSACBMMBVZAAAZCVCZAAZCVBBBg",
"kZVMnbbbnnnnmMBCCCCVVVVVVVCCVBNMNVZAAAZCBNNBVCCVBBNNMMMNBVVVVCZASSSAAAASSAAZCCVVBBNNBVCCCVBMnvvbMBCASSSSAZCVCZAAZVNmnnMNVCCCVBMmnbbbnmMNNBBBBBCCCVBNNNBVVVBBBVCZZZZCVBBNMnvcvbMNNNMMMMNBVVCZAAAAZCBBBBVVVCCCCCZZZZZCCVBNMNVZAACBMnmmMNBBVVCCZZCBNMNBVVVVBVCZAZVBMMBCZCVVVVVBNMmmMMBBVVBNMmMNBVVBBNBBBBNMmmNBCCCVNMnbnnnmNVZASSAZVBBBVBNnvxcvnmmMNBVVBNmnmMBCZAAZCVCCASSSSAZVBNBBBVCCAASSSAAAAZZCCCCVBNMMMMNBVCCCCCCCVBNBVCCZZZZZZZZZAZZVBMmnnmmmNNNNMmnnnmmmmmmMNNMmmMNBBBNBVCCZZAZCVBBBVVNmbnMBCZZAASSACBNNVCAASAZCVVZZAZCVVVVg",
"kZCBMmnnmmnnmMVCCCVVVCCCVCCCCVVVCZAAAAZCVBBVCCVBNMmmnbnmNVCCZZASSSAAZZASSSSAZCVBBBBBBBVCCCVBMnnmBCASSSSSZCNNBVCCCBNmmmMNVVCCCVBNmbvcvbnMNNBNNBVCCCVVVVVVBBNNBVCZZZZCVBNMmnvvvnMMMMmnnmNBCZZASSSSACVBBVCCCZZZCCVVVVVBBBNMmMBCAACBmnmmMMNNBVCZZZVBNMMNNBVVBVCZAZVNMMBVCCBNNNBNMmnnnmMNBBBBNNNNBBBBNBBVVVNmbvnmBVCVBNMMMMMNBCZSSSACBNMNBBNmbbbnmMMNBVVVBMmnmmNBCCZCVBVCZAAAAAZZCVCCZZAAAAAZZZZZZZZZAZZCVNmmnmMBCZASAAAZCVBBVZASSSSAAAAAAZCBMmnnnnnmMMMmnnnnmmmmnnnnmMmmmMBBVBNNBVCCZZCCVVVVCCBmbbmNVCCZASSACVBBCAASSAZVBBCZZZCCVVBg",
"kZZVBNMMMMmMMBVCCCVVCCCCCVVCCCZZZZAAAAZZCVVVCVBNMmmnbbbmBVCZZZAASSAZCZASSDDSAZVBBBBBBBBVCCCVBNMNVZASSSSAZVMmMNBBVBNMMNNBBBVVVVVBMncxcvnmMNNNNNBVCCCCCCCVBNNNBVCZZZZCCBNmnbvvbnMMMmnnnnMBCZAASDDSAZVBBVCZZZZZCVNNNNNNNNNMmMBZAACBmnmmmMMNBVCZZZVBNMMMNNBBBVCZAZVBMMBVCVBNNNNNMmnnnnmNNBBBBBBNBBNBBBVVCVNmvcvnNVCCVBNNNBBBVCASSSACNMmmNNNMmnmmMMMNVCCVBMmmMMNBVVCVBBBVZZZAAAAAZZZZAASSAACVVVVVCZZAAAAZVNmnbbnMVZSSDDSAZCVVCZSSSSSAAAAAAZVNMnnnmmMMMMmnnnnmmMMMmnnnnmmmMNBVVVNNBVCCCCCVVVCZZCBMbbMNVCCZAASAZCCCZSSSSZCBNNVCZZCCCVBf",
"jZZCVVBBBBBBBVZZZZCCCCCCVVBVCZZAZZAASSAAZCCVVBNMMMMMmmmMBCZCCCCZAZCCVCZASDDDSACVVVVBBNNBCZZZCVVVCZZZAAAAZVMmmmMNBBBBBBBNMMNNBVVBMncxcvbnmMNNNBBVCCZZZCVBMMNBVCZZAZZZCBMmbvvvbnMMNMMmnmMNVCZASDDDSZVBBVCZZAAZVNmnmmMNBBNNNBCZSACBMnnnmmMNVCZAAZVBNNNNNNBBNBCZAAZCBBVVCVBBBBNNmnbbnmmMNBBBNNNMMNNBBVCCCCBMnvvnMBCCCVBNBBBVVCAASSZVNmnnMNNNMMMNMMMNVCZCVBNNNBBBBVVVBBBVCZZZZASSSAAAAAAAACVBNNBBVZAASSAZVBmbccvnBCSDDDSSAZZCZASAAZZZZZAAZCVNmnmMNBBBNMnbbnmMNNNMmnbbbnmMNBCCCVBBBVVCCCVVVCZAAZVNmmMNBVVCZSSSAAAASSDSACBNMNBCZZZZZCVg",
"hCZZCCCCCCCCCZAAAZZCCCZZVVBVCZAAAAAASSSAZZCVVBNMMNNNNMMNVCCCBBVVVVVBBVCASDDDSAZCVVBBNNNBVZAAAZZCCCCCCZZZCVNMmmMNBVVVVVVNMmmMNBVBNnvxxcvnmMNNBBVVCCCZZCVNMMNVCZZZZZZZCBMnvccvbmMNNNNMMMNBVCZASDDDAZVBNBCZZZZZVMnbbnMBBBBBBVZASACNmbbnnmMBCZASAACVBBBBBBBBNBVCZAAZCCCCCCVVBBBMmnbbnmNNBBBNMMmmMNBBVCCZZCBNmnnmNBCCCVNNNBBVVCZZAACVMmnnMNNNNNNNMMMNCZAZCVBBVVVVBVVBBNBVCZZZZAASSSSSSAAAZCBNMMNBVCASSSAACBMbcxcbNCASSSAAAAAAAAAZCVBBVVCCCCVNmmMNVCCCBNnbnnMNBBBNmnbvvbmMBVCZZCVVVVCCCCCCCZZAAACVNNBBBVCCAASSSSSSSDDSZVNmmMNBCZZZZCVg",
"hCZZZZZZZZZZAASSSAZCCCZZCCVCZAAAAAAASSSAZCVVBBNNNBBVBBBVCCCBNMMMNNNNBBCZASSSSSZCVBNNMMMNVZASSAAZCVBBVVVVBBBNNNNBVCCCCVVNmnnnMNBBNmvcccvbmMBBVVVVCCCCCVBNMNVCZZCCZZZZCBMnvcvvbnmMNBVVBBVCZZAASDDSACNMMMBCZZCVBMnbbmNBVVBBBVZAAZBMbccvnmNVZASSSAZCCVVVVVBBBBVCZASSAAZZZCCVVVBMnbbnmMBVVVBMmnbnmNBVCCZZZCVBNNNBVCZCVBMmMNBVVCCCCCVVNMmmMMNNNNBBNNNBCAAAZCCCZZZCCVVBNNBVZZAAAASSSSSSSAAZZCVVBNNBVCASSSSSZCNmbvbnBCAAAZCCZAAAAZZCBNmmmMNBVVVBMMBVZAAZVNmnnmMBVVVBMnvccvnMBVCZZZCCVVCZZZCCCZAASAZCVVCCCCZZAASSSDDDDSSACBmnnmMNBVCZZZVh",
"hCZZZAAAAAAAAAASAAZCCCZZZZCZZAAAZZASSSSACVBBBBNNNBBBBBBVCCVNmnbbbnmMNBVCZZASSSZCBBNMmmmMVCASSSAZCBNNNNNNNNBBBBBVCZZZCVVBMnbnmMNNMnvcxxcbmMBVVVVVVVVVBBNNNBVCZZCCZZZZCVNmbvvbbnmMBVVCCCCZAAAAASSAZVNmmMBCCCVBNMnnnMBVVVBBVCZAZVNnvccvnMBCASSSSSAZCCCCCCVVVVVCCZASSAZZZCCVVBNMmnnmMNVCCCBMnvvbmNVCCZAAZCVBBVVCZZAZVNmnmNVCCVBBBBBBBNMMMNNNNNBBNNNBCZSSAZZAAAAZCVVBNNBVCZAAAAAASSSSAAZZCCCVVBNNNVZASDSSAZVNmnmMVZAACVBVCZAAZCCVNMnbbnMNBVBBNNBCAAAZCBNMMMNBVCVBMnvcxcnMBVCZAAZZCCZZAZZCCZAASSAZZZZAAAAAAAASSDDDSSAZVBmnnnmMNBVCZZCh",
"hCZAAAAAAAZCCZZZZZCCCZAAAAZZZAZZCZASSSACBNNNNNNNMMMNNNBVVVBMnvxxxcbmNBBVVCZAAACVBNNMmnnMBCZASSAZVBNNNMmnmMNBVVCZZAZZCVVBMmnnmMMMmbcxzxcvnMNBVVBBVBBNNMMNNBCZZZZZAAAAZVNMmnnnnnmNBVVCCZZASSAAZZZCVBMmMNVCCVBNMmmMMNVCCCVVVCZZCBmnvvbnMNVZASSSSAAZCVCCCCCCCCCCCCAAAAZCVVBBBNNMmmmMNBCZZZVMnvvbMNVCZAAAZCVBVCZAASAZVNmnmNVCCVNMMMNBBBNNNNNNNNNNMMmMVZASAASSSSAZCVVBNNNBCZZAAAZAAAAAAZCVVCCCVBMMMNVZSSSSAZCVBNBVZAAZVNMNVCZZVVVBNMmnbnmMNBBBNNBCZAAZCVBBBBVVCCVBMmbvcvbmNVCZAAAAZZZAAZZCCCZASSAAAASSSSSAAZZAASSSAZCVBNmnnnmmMMNBCZZj",
"hCZAZZAAZZCVVVVVCCCCCZAAAAZZZZCCCCASSSACNMMNNBNMmnnmMNBBVVBMbczlkzcnMBNNBVCZZZCVBBBNmnnmNVCAAAZCBNNNNMmnmMNVVCZZAZZZCVVBNMmmmMMMmnvcxcvbnmNBVVVBBBNMmmmMNBVCCCCZAAAAZCBNNMMMMMNNBBBVCZAASAZCVBBBBNMmMBCCCVNMmMMNBVCZZCVVVCZCVNmnbbnmNNBVZZAAAAZCVVVCZZZZZZCCCCZAAZCBBNNNNNMMmMMNBVCAAZVMbvvbmNBCZAAAZCVBVCASSSSACBmmMNCCCCBNMMNBVVVBBBNNNNNMmmnmBCASAASSSSAAZCVBNNNNBVCZZZCCCCZZZCVVVCCCCBMmnmBCASAAAZCCCCCZAAAZVNNNVCCCVVVVBNMmnnmMNBBNNNBCZAAZZCCCCCVCCVBNNMmnbbnMBVZASSSSAZZZZCCVVCZAASSSSDDDDSSAZCCCZAAZCCVBBNmmmmmmmmMNVZAk",
"hCZZZZZCCVBNMMMNBBVCCCCZZZCCCCCCCZASSSZVNNNBBBNmbvvbmMNBBBNmbczlkkxvmNMMNBVCZCVBBBBBMmbbmNVCZZCVNNBBBBNMMNBVCCZZZZCCCVBBNNMMMMMMMmnbbbnnmmNBVVVVBNMnnnnmNBVVVVVVZAAAZCVVVVVVBBBBBBBVCZAAAZCBMmmMMMMMNBCCCBMmMMNBBVCCCVBBBVCVVBMmmmMNNNNNBVCZZZCVBBVCCZZAAAZCCCZAACVNMMMMNNNMmMMNBVZAAZVNbccvbmNVCZZZCVBBVCASSSSAZVBNNBCZZZCVBBBVCCCCVVBNNMMmnbvbMBZAAAAAAAAZZZCVNMMMMNVCCVBNNBVCCCVVVCCCCBMnbbMBCZZZCCVCCZAAAAAZCVVVCCCCVVVVVBNMMmMMNNNNNNBVCZZZZZZZZCCVVBNNBNNMmmMNVZAASSSSAZZCVBBBBVCASSSSDDDDDSAZVBBBCCZCVBNNNNMMMMMMmmmNVZAl",
"hCCCCCCCVVNNMmmmMNBVVVVVCCCVVVVVCZASSSZCBBBVVBMnvccbmNBVVBBMnvczllzvmMMMMNBVCCVBBVVBNmbbmMBCCCVBMMBVVVBBBBVVCCZCVVBVVVVBBBBBBNNNNNMmmmMMMMNBVCCCVBMnnnnmNBVVBNNBCZAAZZCCCCZZCCCVBBBBCCZAZZVNmbbnmMMNBVCCVBMMMBVVCCCCVBNNNBBVBBNMMMNBNNMMMNBVCCVBNBVCZZAASAZZCCZAZCBNMmmMNNNNMMNBBVCZAACNnvccvnMBVCCCVVNBVCZAASAAZCVVVCZAAAZCCVVCZZZZCVVBNMMmbvcvmNCZZZZZCCCCZZCVNMmmmMBVVBMmnmNVCCVVVCZZCVNnbbmNVCVVVVVVZZASSAAAZZCCZCCVVVCCCVBNMMMMNNNNNNBVCCZZAAAAZCCVBBNBBBBNMMNBCZAASSSAAZCBNMmMMNVZASSSDDDDSAZVNMMNVCCVNNNNBBNNNNNNMMMNVZSl",
"hCCCVVVVVVBBNMmnnmNBNNNBVVBBNNNBVCZAAAZCCCCCVBmbccvnMBVVVVBBMMmbcxxvmMNNNNBVCCVVVVVVBMnnmMBVCVBMmmNBCCVVVVCCCCVBNMMNBVVVVCCVVVVVVVBBNNNBBBBVCZZZCVNMmmmMNBBBNNMNVCCZZCCZZZAAZZCVBNBBVCZZCCVNnbvvnmNNBBCCVBMMBVCZZCCVBNmmmMNNBBNMMMNBNMmnnmMNBBNNNBVZZAAAAAZZCCZZCCVBMmmmNBBBMMNBVVVCZZCVMbvcvbmMBVBBNNMMNBVCZZAAZZZZZZASSSSAAZZZAAAAZCCVBNMmbvvbmMBCCCCVNNNBCCCBMmmmmMBVVNmbvbmNVCCCCCZZZCBMnnmNBBBBBBVCZZAASSAAAAAZZCVVVVCCCVBNMmmmMMMMMNNBVCZAAAAAZCVBNNBBVVBBNBBVCZZZZZZZZCBMnbbbnmNVCASSDSSSAZVBMMMNVCCBNMNBVVVVBBBBBBBVCZAl",
"hVCCVVVBBVVVBNmnnmMNNNNNBVBNMmMMNBVCCCCCCZZZVMbvcvnMBCCZCCVVVVBNmbvvmMBBNNNBVCVVVVCCVBMmMNBVCVNMnnMBVCCCCCVVVVNMnnnmNVVCZZZCVVCCZZCVBBVVVBBVCCZZCVBNMMMNNBBBBNMNBVCZZZZZAAAAAZCCBBBBVCCCVVVBmbcvnMBBVVCCVBNBCZAAAZCVBMmmmMNNBBNMMMNNNMnbnnmMMMmmMBCZASSSAZZCVVVVVVVBNMmMBVVVNNBBVVBVCZCVNmbvvbmMNBNNMmmMMNNNVCCZZZAAAASSDDDSSAAAASAAAZZZVBMnbbbnmNBVCCVNmnmNVCVBNMMMNNBVBNnvcvmNVCCVVVZAAZCBMMNNBBBBBVVCCZZZZZZZAAZZCVBBVVCCVVBNmmmMNNMMMMMNBVZAAAAAZCBBNBBVVVBNNBVVCCCCCVCCCVNmvcccvbmNVZAAAAAZCVNMMmMBCCCVNNBVCZCCVVVVVVCCZZAk",
"hVCCVVBBBVVCVBNmnmMNBBBBVVBNmnnnmmMNNBBVCZZCBmvcvnNVCZAAAAZZZZZCBMnnMNVVBNMNBCCCCCCCCVBNBBVCCVNmnnmNBVCCVVBNNMnbvvbnMBCZZAZCVVCZAAZCVVVVVBNNBVCCCCVBNNMNNBBVBBBBVCCZZAAASSAAZZZCVVBBVVVVVVVVNmbbmNVCCCCCVVVVZASSAZCVBBNNNNBBBNMmmmNNMMnnnnnmmnbnMBCASSSAZCCCVVBBBBBBBBNNVCZCVVVVBNMNBVCVBNmnnmMNNNNMmmmmmmnmMNBVCCZAASSDDDDSSSSASAAAAAAZCBmbbbmMNBVCCCBMnbnmBVVBBNBBVVVVBNmbvvmNBVVBBBCZAAZCVVVVVVVVCCZCCVVVVCCCCCCVBBNBVVCCVBNMmmMNBBBNMmnmNBCZZAAZCVBBBVVVBNMmMMBVVVVBNBVVVNmbxzzxxcbmNVZZZZCBNMmmmMNVCZCVBBVZAAAZZCZZZZZZZZZj",
"hCCCCVVBBVCCCCBNmMNBBVBVVVBMbvvvvbbnmMNVCZZVMnvvnMVZAAAAAAASSSSACNmmMBVVBNMMBVCCCCCCCCVVVVCCCCBMmnmNBVVVVBNMmnbvcvbnMBVZAAZCBBCZAAAZCVVVBNMMNBVVCCCVBNNNBBVVVVVVCZZZAASSSSAAAZZZZCVBBBBBBBVVBMnnMBCZZZCCVBVCASSSAZZCVVBBBBBVBNMmmmNNNMmmnnmnnnbbMBCZAAAAZCVVBNNNNNBVVVBVCAAAZCCVBMmnMNBBBNMMMMNBBNMMmmmMmmbbnMNBVVCZASSDDDDDSSAAAAZCZZAZCNnbbnMNBVVCCCVNnbnmNVVVVVCCCCCVVNMnbbnMNBNNNNVZAAAAZZZZCCCZZAAZVVBNNBBBVVVBBNNBVVVVBNMMmmMBVCVBMmbbmNBCZZZCVBNBVCCCVNmnnmNBBBBBNBBVBMnczzzxcvbmNVZZZVBMnbbnmMNVZZZCVVCZASAAZZZAAAAAZZCh",
"jZZZCCVVVVCZZCVBNNBVCCVVVBNmvcxxxxxcbmNVCZCBmnbnMVZASSAAASSSDDDACBmmMNBBNMmmNBVCCCVVCCVVVVCCZCVBNMNNBVVVBBMmnbvvvbmMNBVZAAZCBBVCAAZCVVVBMmnnmMNBVVVVBNNNBVCCCCVVCZAASSSSSSSSAAAAAZCVBNNNNBCCVBMmNVZAAZVBNNBCASAAAZZZZCVBBBVVBNmmmmNBBNMMMMMmmnbnMBVCZZAAZCVBNMMNNNBVCCZZASSSAZCVNmbvnmMMMNNNNBVVVBNMMMNNNMmnnmNBBBVVZASSDDDSSAAZZCBBBVCCVNnnnmNBVVVCZZCBMMMNBVVVVCZZAZZCVBNMnnnmmmmmmMBVZAASSSSAAAASSSAZVBMmmmMMNNBBBBBVVVBBNMMmnmNVCZCVNmvvnmNBCCCVNMNBVZZZCBmnnmNBBVVVVVVVNmvxzxcvbmMNVCZZCVMnvccvnMNVZAAZCCZZAAAAZZZZAAAAZCBg",
"kAAAZCVVVVCCZCCVBBVCCCVVBNMnvxxzxzzxvmNVCCVBmmmMVZASSAZZZAASSSDSZVMmMNBBMmnmMBBVVVBBVVVVBVVCZZZCVBNBBVVVVBNmnbvbnmMNNBCZASACBBVCZZZCVBBNMmnnmMMNBBBBNNNNBVCCCCVBVZAASSAAAASSSSSSSAZCVBNNNBCCCVNMNBCZZCBMnmMBCZZZZZAAAZCVBBBBNMmnnmNBBBNNNNNNMMmmMBBVVCZZZCVNMmmMNNBVZAASSSDSSACVMnvcvbnmmMNNNBVVVBMMMNBBBNMmnmMNNNNNVZASDDSSAZZCVBMmMNBBNMmnmNBVBBVVCZCCBNNNBBVVVCZAAAZZCVBNmnbbbbvbbmMBVCZASSSSSSSDDDSZVNmnnnmMNNBBBVVVVVNMMmmnbnMBZAZCBmbcvnmNVCCVNMMBCZAACVMmnmNBVVVCCCCVNmbcxcvnMNBVCZAACVMnvccvnMBVZAAZZCCZZAAZZCCZAAAZZVNf",
"lSSAZCVVVVVCCVVVVVCCCCVBNMMncxxxxxzxvmNVCCCBNNBVZASSACVBBVCZZASSZVNMMNBNmmnmMNNBBBNBBBBBNBBVCZZZCVBBVVVVVVBNMmnmMNNBBVCZSSAZVVVCZCVBNNBNMMMMNNNNNNNMMMMNBVCCVBNNBVZAAAZZZASSAASSSSAZCVBNNNVCCVMmMNBVCBMbccbMBVVCCZAAAZCBNMMMmmbbnmMNBBNNBBVVBBNMNNNNBVCZZCBNmnmMNBBVZASSSSSSAZCVMncxcvbnnmMNMNBVBMnnmMBVVVBMmmMMMMmMBVZASSSAZCCVBMbvbnMMMmmmNBBBBBBVCCCCCVBBNNBBVCZAAAAAZCVBmnbvcxxcvbnmMBCZZASSDDDDDDAZBMnbbnmMBBVVCCCCVBNmmnbbvbmBCAZCVMbccvbmBCCCBNNBCAAAZVNMMMBVCCZZAAAZVNmbvvnmNVCZAASAZCBMmnbnmNBCZAAZCCVVCZZZCCCCZZZZCVNd",
"lDSAZCVVBBBVBBBBVVCCCVVBBNMmvccccccvnMBVCZCCVVCZASSSZVNMMNBVCZAAZCBNNNBNMmMMNBBBBNNNBBBBNNBVCCZCCVBBBVVVCCVVNNMMNBBVVVCASSAZCVCCZCVBNNBBNNNBBBBNMMMmmmMNBVCCVNMmNVZAZZCCCZAAAASSSSSAZCVBBBVCCVNMMMBBBNnczzcnMBBVCZAAAAZVNMmnnbbbnnMNNNNNBVCCCVBBNNNNNBCZZCBNmmmMNBVCZSSDSSAAZZCVNnvccvnmmMMMMNBBNMbvbnNVVCBNMmMMMmmmNBCZZAAZCVVBNmvcvvnmmmmMBVVBNNNBVCCCCCVBNNBBBVZAASSAAZCBMnbcxzxxccvbnMNVCZASDDDDDSACNmbvvbmMBVCCCCCCVBMnnbvvcvmNCZZCVNbvxcvmBCZCVBBVCZAZCVBNNNVVCCZZAAAZCBMmnnnMBCZASSSSAZCBNMmmMNVCZZZCCVBBVVCCCCCCCCCCVBNf",
"lSSAZCVBBBNNMMMNVCCCVVVVVBBMnnnnmmmmMBVCZAZZZZAASDDSZVMnnnMNBCZAAZVBBBBBBBBBBVVVVBBBVVBBNNBBVVVVBNNNNBVCZZZCVVBNBBVVVCZASSAZCCZZZZCVVVVVBBVCCCVBNNMMmnmMNBVVBNmmNVCZCCBBVCZZZZAASSSSAZCCVVCZCCBNNNNBBMbxllxvmMNBCZASSAACBMnbvvbbnnmmmmmNBCZZZZCVBNNNBVCZZCBNMMNNBVVCASDDSAZCCCVBNmvvbnMNNNNNMMBBNmcxxvMBCCVNMmmmMMmMNNBBVCCCVBBNNmbbbbmmnmMNVVVBNMMNVCCCZCVVBBBBVVZAASAAAZVBMnbvxxxcccvvbnmNBVZSDDDDDSZVMnvccvnMBVCCCVVVVBmnbccxxvnNVCCVBNnvcxvmBCZZCVVVZZZCVBBBBVVVVVVCZAZZCVNMmmmMBCASSSDDSSAZCVBNNBVCZZCVVBNNNBVCCZZZZZCVBBBf",
"kAAAZCVBBNNNMMMBVCCCVVVCCVVBMMMNNBBBBVVZZAAAAAASSSSAZBMmnmMNBCZAAACVVVVVVVVVVVCCCVVBVVBNNNNBBBNNNMMMmMBVZZAZZCVBBBVVVCZZAAAZZZAAAAZCCCCCVVCCZCCVBBNMmmmMNBVCVBMMBVZZCVBBVCZZCCZZAAAAAAZZZZZZZZCVBBBBBNnczzxvnmMBCASSSSSZVNnbvvbnbbbbbbnMVCZAAZCVVBNNBVCCCVBNMMNBVVVCZADDSACVVVVBNmbbmMBVVVBNNNBVBMvzzcmBVCBNmmMMNNMNNNMMNNVVBBBNNNmmmMMMMMNBCCVBMmmMBCCZZZCVBNNNBVZZZAAAZCVNmnbvxxcvvvvbbnmMNVZASDDDSACBmbvccvnMBVCCVVVVBNmnbcxxcvmNBBBBNNmnvvbmBCZZCVVVZZCVBBVVCCVBNNBVCCCCVVBNMMMNCZASSDDDDSSSAZCVBBVCCCVVVBNNMMNVCZAAAZCVBBBg",
"jZZZZCCVVVBBNNBVCZZCCCCCCCCVBBBVCCVVBVVCZZZZZZAASSSAZVNNNNBVCZASSAZCVCZZZCCCVVCCCCVBBBNMMMMNNMMMMmmnbnMBCZAAZCVBBBBVVVCCCZZZAAASSSAAZZZCCCCCCCCCCVBNMMMMNVCZZCVVCZZZCCVCCZZZCVCCCZZZZZZZZZAAAAAZZZCCCVNnvccvnmNBZSDDDDDACVMmnnnnbvcccvnMVCAAAZCVVBNNBBVCVBNMMMBBVVVCZASSAZCVBBBBNMmmNBCCCCVBBBVCVNbxzxbMBBNMmMNBVVBBBNmnnmNBBBBBVBBBBVVBBBVVCCVNmnnMBCZAAZCBNMMMBVCZZZZCCVBMnbvcccbnnnmmmmmMBVCAASSSAZCBMnbvvbmNBVVVVBBBNMnbbvcvbnMNNNMMNNNMnnmMBVCCCVCCZZCCBBVCCCVNMmMNNBBBBBBBNBBVZASDDDDDDSSSSACCVVVVVVVVVVBNmmMBCZSSSAZCBNNf",
"hCCCCCCCCCCCVVCCZZZCCCCCCVVVVVCCZZCVBBVVCCVVCCZASSSACVBBVVCZAASSAZCVVCZZZZZCVVCCCVBBBBNMMMMMMMMMMMmnvvnNVCZAZCVBBBBVVVVVVVCZASSSSSSAAAZCCVVVVVCCCCVBNNMNNVCZZZZZAAAAZCCZAAAZCVVVVVCCZZCCCZZASSSAAAAZZCVNmbbbbmNVZSDFDDDSACBNMMMnvcxxcvnMVCZAAZCVVBNNNBVVVBNMMMBBBVVVZAAAAZCVBNBNNMMNBCZZZCCCVVZZZBmczzvnNNMmmMBVCCCCVBMnnmMBBBBVVCCZZZCCCCCCZCVNnbbmBCZAAZCBMmnmNVCZCCCCVBNmbvccxcnmMNNNNNNNBVCZAAAZZZCVNMmnnmNBVCCVVVBNMmnnnnbbmMNNMmmmMNBNMMMMNBVVVVVCZZZCVVCCZCBMmnmmmMMMNBBBVVCZASSDDDDDSSSSAAZCCVVBBNBVCCVBMmMNCASSSAZCBNMd",
"gVVVVCCZZZZZZAAAAZCVVVVBBNNNBVCZZZZVBNNNBNNNNBVZAAAZCVVVCZASSDDSZCNNBVCZZZZCCVCCVBNNBBBNMMNNNNBBBBMnvvbmNVCZZZCVVVVVVVBBNNVCASSSSSSSAZCVVBNNNNVCCVBBNNNNNBVZZAAASSAAZZZASSSACVBBBBVCCCVBVVCZAASSSAAAAZCVNmnbbnMVZSDFDDDDSZCVVBNmvxxxcbnMBCZZZCVVBBNNNBBVBBNNNNNBBBBVCZZZZCCVVBBBNMNBVZZZZZZZCZAAZVmvllxvmmnnmNVZAAAZCVNMMMNBBBBVVCZAAAZZZZZZZCBMbvvnMVZAAACBMnbbMBCCCCCVVBNmbvxzzxnMBVVVVBBVCCCZCCZZZAZCVBBNNBVCCZZZCCVNmnnmmMmMNBBNmmmmMBVVBNNMMMNNBBVCZAAZCCZZZCBMmnnnbnnMNNBVCZAASSDDDDSSAZZZZZCCCVBNMMNVZZZVNMNBCAASSAZCBMms",
"gBVVCZZAAASSSSSSAZCVBBBNMMMMNBVCZZCVNNNNNMmnmMBCAAAZCVVCZASDDDDSZBMmMNVZZZZCVVBBBNMMNBBBNNNNNBBVCVNmvvbnMBVCCCCCCCCCCVBNMMBCAAASSSSAZCVBNMmnnmNBBBNNNMMMMNBVZAASSSAZCCZASSSACVNNNBCCCVBNNBVCZAAAAAAAAZZCBMnbbnNVASDDDDDDSAZZCCBMbcccbnmMNVCZZCVVVBBNBBBBBNNNBBNNNNNBVVVVVVCCCVVBNMNBCZAAAZZZAASSACMvlkzcnmmmMBZASSAAZCBNNNNBBBBVVCAAAAZZZAAAAZVMnbvbMBCZAAZVMnbnMBCCCCCVVBNMnvczzxnNVCCCVVVCZZZCCCCZAAAAZCVBBVCCZZZZZCVNmnmMMNBBVVVBMmMMNVVCVBNMmmmMNBVCZAAAZZZZZVBMMmmnbbnMNBVCZASSSSSSSAAAZCVVVVVVCVBMmmMVZAZCBNNBCZAAAZCVNMna",
"hVCCZAAASSSDDDDSAZVBNNMMMmmmmMBVCCVBNNNNMmbbbnNVASAAZCCCZASSDDSACNnbnMBCCCZCVBMMmmmMBVCCVBNMMNVCZCBmbvbnMNBVCCZZAAAZZCVBNNVCZZZZAAAZCVBNmbcxxvnmMMmmmmmnnnMNVCAASAZCVVCZAAZZVBMMMBVCCVNMMMNBCZZAZZCCZCCVBMmnnmNVASDDDDDDSSAZZCVBmbbbnmmMMNVCZCCVCVVBBBVVBBBBBBBNNNMMNNNNBBCCZCVBNNNBCZAAAAAAAASAACNbxzxvnMMNVCASSAAZZCVBNNBBVVVVVCAAAAZZZZAAAZCBMmnnmMBCZAZCBNmmNBVCCCCVVBBNMnvcxcnNVCCCCCCZAAZZCCZZSSSSZCVBBBVCCZZZAZVNmnmMBVCCCCVBNNBBVCCCCVBMmnnmMBVCZAAAZZZZCVBNNNNMmmMNBVVCASSDDSSSAZZZVBNMNNNBVVNMnnMBCAZZVBBVCZZZZCVBNMns",
"hCZAAAASSSSDDDDSAZVBNMMMMMmmmMNBBBBNMMNNMmnbbnNVASSSAZCCZZAASSAZVNnbnmBVCCCCBNmnnnmMBCZZCVNMmMVCZCBmbbnmMNBBVCZASSSAAZCVBBVCZCCCZZCCVVNMnclklzvbbbbnnnbbcvnMBCZAAAZVBBBVCCCVBNmmMBVCCVNmmmmNVCZZZZCCCCVVBNMmmMBCADDDDSDSSSAZZCCVBMmmMMMNMNBCZZCCZCCVVVVVVVVVVVBBNMmmmmmmMNBCCCVBNNNBCZAASSSSAAAAACBmvcvbMNBVCZASAAZCVVBBBBVVVVVVCCZAAZCCZZAAZZCVBNMMMMNBCZZZVBNMNNVVVVVVVBBNMmbvcvnNVCCCCCCZAAAZZZZASSSSZCBNNNBVCCZZAZVMnbmNBCZZZCVVBBVCCCCVVVBNmmnmNBVCZAAAZZCCCVBBVVVBNMNBBVCCASDDDSSAZCCVBNmmmMNNVVNMnnMBCZZZCVVVCCZCCVNMMMms",
"jZASSSASSSSSSSSSAZCVBBNBBBNNNNNNNMMMNNBBNMmnmMBCASSSAZCCCCZZZZZCBNmnmMBVVVVVNMnbnmMNVZAAZVMmmMBCCVNmnnmMNNNNNVCASSSSAAZZCCCCCVBBVVVVVBNMbxkjklxccccvvvvcxcbMBCZAAZCVNMNNBVBBNMmmMNVCVNmnbbnmBCZAAZZCCCCVVBBNNBCZSDFFDDSSSSZZCCZZCVBBBBBBNNBVZZAAAAZZCCCCCCCCVVBBNMnnnnnbbnMBVVNNMMNBCZASSSDSSAAAAZVNmnmMBVVCZASSAZVBNMMMNBCCZZCCCZZZZCCVVCCZZZZZCCVBNMMNBVCZCVNNMNNBBBBBBBBNMmbvvbmNVCCCCCCZAAAAZZAASSSAZVNMmMNBVVCZZZBMbbmNVZZZCVBBBVCCCCVBVBBNMMMMBVCZAAAZZCCCCCVCZZZCVBVVVCCZASDDDSAZCVVBNmnnmMMNVVBNMMNBVCZCCVVBVCCCVBMMMMms",
"kAAAAAAAAAASSSSSAZCVBBBBVVBBBBBNMMmMNBBBNMmmMNVCZASSAZCVVVCCCVVBBNMMNNBVVVVBNMnnmMNBCZAAZVNMmMBCCCNMmmMNNNMmMNCASSSAAZZZZZZCCVBBVVBBBBBMnclllzxxxxccvvccxcnMVZAAAZCVNMMMNBBNNMmmMNVVBMnbvvvnNVZAAAZZZZCCCCCVVVZASDFFDDDSSAAZCZAAAZCVVVVBNNBVCZASSSAAZZZZZZZZCVVBNMnnbbvvcvnMNNMmMMNBCZAASSSSAAAAAZCVNNNNBVVCZASAZCBNmnnmNBCZAAZZZCZCCCVBBVVCCZZZZZCCBNMMNBVCCVBNMMNBNNNNNNNMmbvvbnMNVCCCCCCCZAAAAAAAAAAZZVNMmmNBBVCCZCBMbbmNCZAZCVBBBVCCCVBBBBBBNNMNBCZZZZCCCCCCCCCZAAAZCVVVCCZZASDDDSACVBNMnbbbnmMNBBBNMMNBVVCCVVBBVVCVBNMMMMmd",
"kAAAZZZCCZZAAAAAAZCVBBBBVVVVVVVBMMMMNBBBNMmmNBVZAASSAZVBBVVVBNNNNBBBVVVVVVBBNMMMNBVCCCZZZCVBNBCZZCBNNNBBNMnbnMVZAAACCCZZAAAZCVBBVVVVBBVBMmbvvvvcxxcvbbvcvbmNCAASAZZVBMMMNBBVVBNNNNBBNmbvvvvbMBZAASAAAAAAAAZZCCZASDDDDDDSSSAAZASSSAZCVVVBNMMNVCASSSAAAZZZZAAAZCVVBNMmnbcxxxvnmmnnmMBVCZZZZZAAAAAAAAZCVBNNNNNBCZAAACBMnbbnMBCAAAZZCCCVVVBNNBVCZZZZZZZCVBNMMNBVVVBNNNBBNNMMMMmnvcxcbmNVCCCCCVVVCCZZZZZZZZZZZCBNMMBVVCCZZCBMnnMBZAZZVBBBBBBBBBNNBVVVBNMNBCZZCCVBVVCCZZAAAAZCVBBBVZZASSSDSAZCVNMncxxvnmMNBBNNNNNBBVVVVBBBBBVVBNNMNNMd",
"lSAZZCVVVVCZCCZZZZCVBBBBBVVVVVBBMMMNNNNMmmnmNVCZAAAAZCBNNBVBNMmmNBVCCCVVVVBBNNNNVVCZCCVCZZCCVCZAAZVVBBBBNmbvbmNVZZCVBBVZAAAZCVBVVCVVVVVVBNNMMmnbccvbnnbbnmNVZASSAZCCBNMMNBVCCCVBNNBBNmbvvvbnMBCASSAAAASSSSAAZZZAASDDDDSSAAAAASSSSAZCVVBNMmnmNVZSSSAZZZZZZAAAZCCVVVNMmnvcxcvbmmmmMNVCCCVVVVVCCZAAAAZZCVNMmmMNVCAAAZBNmbbnMBCZZZCCCCCVVBNNNBVCZZZZZZZCCVBNMMNBBNNNNBBBBNMMMmnvcxxvmNVCZZCCVVBBVCCZZZZCCCCCCCBNMNBVCCCZZCBMmmNVZZZCBBBBBBBNNMMNBBVVBBNNBCCCVBMMNBVCZAAAAZZVBNNNVZZAAAAAAZCVBNmvxzxvnMNNBBNNNNNNBBBVVVBBNNBBNMMMNNNf",
"lSZCVBNNNBVCCCCCCCVVBBBBBNNBBBNNMMMMMMmnbbbmNVCZAAAZCBNNNBVBMmnnMBCCCCVVVVVBNNNBBVCCVVBBCZZZZAASAZCVVVBBNMnbbnmNBBNMmmNVZAAZCVVVCCCVVVVCCCCCVVNmbbnmMMMMMNVZASDSAZZVBNNNBVCZZZCVBNBBNMnnnnnmNBCAAAZZZASDDDSSAAAAASSDDDAAZZAASSDSSACVVBNMbvcvnNCZAZCCCZCCCZZZZCCCCCVBNMmnbbnmMNNNBVCCCVBMMmmMBCZZZZZCCBMmbbnmNBCZAZCBMmnmMBVCCVVVCCCCVBBNBVCZAAZZZCCCCVVBNMMMMMMNNBVVBBNMMmnvccbnNVCZZZCVVBBBBVCCCCCCCCCCCVBNMMBVCCCCZCBMmmNVCCVVBBBBBNNMMmmMNNNBBBBBVVVVNmbbmMBVZAAAZCCBNMMNVCZZZZZZCCVVBNmvzzxvmMNBBVBBNMMMNBBVVCVVBNNMmmmMNNBg",
"kAZCVBNNNNBVVVVVVVVBBBBBNNMMMMMmmmmmmmbvccvnNVCZZZZCBNNNBVVVNmbnMBVCCCCVVVVBNNNNBBVVBNMNVCAAAASSSAZZCCVVBMmnbbnnMMmnbbMBZAAACVVVCCVVBVCCZZZAZCVNMmMNBBBBBVZASDDDSACVBNNNBVCZAAZCBBVVVNMmMMMNNBCZAAZCZZASSDSSSAZZZASSSSZCCCZASDDSSAZCVBNmbcxcbMVZZZVVVVVVVVCZCCCZZCVVBBNMmmNBVVVVCZZZCVMmbbvnMBVCCCCVVNMnbbnmmNVCZZCVBNMMNBVVVBBBCZZZCVBBVCZAAAZCCCCCCVVVBNmmnnmMNBVVVBBNNMnbvbmNVZZZZCVVBBBBBVVCCCCCCCVVCVBNMMBVVVVCCCBNMMBVVVBNBBBBBBNMmnnnmMMMMNBVCVVNmbccbmNVZAAAZCCVNMNNVCCCCVVVBBBBBNmvxxvnMBBVCCVBNmmmNBVVCCCCBNMmnbbmMNVh",
"kAZCVBBNNNBBBBBBBBBBVVVVNMmmnbbbbnnnmnvczzcnMBCZZCVBMMMNVCCCNMbbmMBCCZCCVVBNMmmmMMBBMmnmBCZAAASSSSAAZZCVBNMmnbvbnmmnbbMBZAAACCCCCCVBBVCCZAAAAZCVBNBVVVVVVCASDDDDSACVBNNNNBVCAAZZVVCCCVBNNBBBNBCZAZCVCZZASSSSSAZZZZAAAZCVBVZASSDSSAZZCVBMnvvbmNCZZCVBBBNNNBVVVCCCCVVBBBVBBBVCZZZZZZZZCBMnvccvnMNBVBBNNMmmnnmmmMBCZAZCVBNNNBBBNNNBCZAAZZCCCZAAAAZCCVCCVVVVBNmbvvbnmMBVVVVVBNnnnmBVZAAZCVVBBBBBVVVCCCZCCVVVVVBNMMNBBBVCCCVBNNVVVBMMNBVVBNNMmnnbnbbbnMBCCVBmbxzzcbmNCZAAZCCCVVVVVVBBBNMMmMNNBNmnbbnMBVCZZZCBMmnmNBVCZZAZCBMnbvbbmMVh",
"kAZCVVBNNNNNNNNMMMNNVCCVBMmnvcxccvbnnnvczzcbMBVCCCBNMMNBCZZZVNmnmMBVCZZCVVBNMmmmMMNNmbvbMBCZZZASSSSSAZVBBNNNmnbbmmmmnnMBZAAAZCCCCCVBBBVCZAAAAZCVVVVCCCCCZZSDDDDDSZVBNNNNNBVZAAAZVVCCCCVVVVVBNNVZZZVVVVCZAAAAAZCCCCZZZCVBBBCZSSSSSSAAZZVNmnnmMBCZCVBNNNMMMMBVVVCCVVBNBVVCCCZAAAAAAZZZCVNmbvcvbmMNNNNMmmmmMMmmmMBVZZZCVBNNBBBBNNNBCZAAAZZCZAAAAZCVVVCCVVVVBNmbccbnnMNBVVCVBNnbnMBCAAAZCVBNNBBVVVVCCZZZCVVBBBNMMMMNNNBVCZCCVVVVBNMMBVCCVBNMnnbbbbvbnMBCZCBmvxzzcbmNVCZZCCCCCCCCVBNMMMmnnnMNBNMmnmMBVCZZAZCBmnnmNBVCZZAACBMnbvbnmNVh",
"kZZZCVBNMmmmmmmmmmMNVCCCBNMmvxzzxcvbnnnvcxvbMNVCCVBNNNVCZAAACVNMMNVCZZZCVVBBNNNBBBBMnvxcnNBVVCZASDSSACBNMMBBBNMMNNNNMMNVZAAAZZZZZZCBNNVCAASAZCVVVVCCCVVCZASDDDDSAZVNMmMMNVCZSSAZVVVCZZZZZCVBMMBCZCVBNBVCZZZZZCVBBVCCVBNNNBCZAASSSSSAAZCVNNNBVCZZCBNNNMmmmMBVCCCCVBNNNBVCZZAASSAAZZZCCVBNmnnbnnmMMMMmnnmMNNMMmMNVCZZCVBNNBVVVBNNBVCZAAAZZZZAAZCVBVVCCVBBBBNmnvvnnmMNNBVCVBmvcvnNCZAAZCVBBNNBBBVCCZZZZCCBBNMMMMMmmMMBVCZZCCCCCVBNBVCZZZCBNnbvvbnnnnMVCZZVMnvccbmMNBBVBVVVCCZZCVBMmmmmnnnMNBBNMMMBVZZAAAZVNnbbnMNBVVCAZCBMnnnmmMNBh",
"jZZZCVNMmmmmmMMMmmmNBCCCVBNMbczzxcvbnmmnbbnmMBVCCVNNNBCZASSAZCBBNBVCZZZCVVVVVVVVVVVNnvccnMBBBVCZASSAZVMmmMBVCCVVBBNNNNBVZAAAZZAAAZCVBNVCZSSAZCBBBVVVBVVCZSSDDDDSACBMmnmMNVZASSACVBBVCZAAAZCBMMBVZCVBNBVCCCZZCVNNNBBBBNNNNBVCCZAASSAAAAZCVVVVCZZCVBNMMmnbnMBVCCCCVBNNNBVCZAAASSAAZZCVVVVBBNMmmmMMNNMmmmMNBBNMmmNBCCCVBNNNBVCCVBBNBVCZZZZZCZZZZCBBVVCCVBBBBNMnnnmMMMMNBVCVNncxcbNVZZZCCVBBNNBBBVCZAAAAZCVNMmmmMMmmmMBVCZZZCCCCVVVVZAAAAZVNnbvbnmmmmMVCZZVBmnbnMNNNMMMMNBBVCZZZVBmnmmmmnnMNBBNMMBVZZAAZZVBMmnnmmMMNBVZZCBmnnmMMMNBg",
"jZZCVBNmmnmMNBBBNMMNBVVCVVVBMnvcvvbnmMNNMMNBVCZZCVNMNBCAAAZZZZCCCCCZAZZCCCCCCCZZZCCVNmbbnMNBVVCCAAAZVNnbbmNCZAZCVBNNNBVVZAAAAASSSAZCBBVCASSAZVNNNNNNNNBVZASSSSSSACBMmnnmNVZASAZVBNNNVZAAAACVNMBVZZVBBBVCCZZZCBNNNBBBNMMMMNBBVCZAAAAAAAZZCVVVCCCCVBNNMmbvbmBVCCCVVBNNBVVCZZAAAAAZZCVVBBVVVVVBBBBBBBNNNNBVVVNNmmMNVCCVNMMNBVCCCVBBNBBBVVCCCZZZCCBBBVCCVVVBBNMmmMNNNNMNBVCVNbxzxvmBVCVVVVVVBBBBVCZAAAAAAZVNMmmmmMMMMMNBCCCCCVVVVCCZASSSSACNnvcvmMNMMNBCZZCVNNMNBVBNmbbnmNNBVCZZVNmnnmmmnnMNNNMMNBVCZZZCVBNMMMmmnnbnMBCZCBmnnmMMNNNf",
"jZCCVBNMmmMBVCCCVBNNNBVCCCCVBMnbnnnnmMBVVVCCZZAAZVNMNBCZZCCCCCZZZZZZAZZCCCCCCCZZZZZCVNMmmMNBVVVCCZCCBMnbbmBCASAZCVBNBBVCZZAAAASSSSAZCVCZASSAZVNMmmnmmMBVZASSSSAAZCBNmnnmMBZAAZCVNNMNVCZAAAZVNMNVCZCCVVCCZZZZCVNNBBVBNNMMNNNBBVCZAAAAAAAZCVVBBBVVBBBNMnvcvnNVCCVVVBBBBVVCCZZZZZZZZCVBNNBVCZCCCCCVVVVVBVVCCCBNMmmNVCCVBNMNBVVCCCVBMMMMNBVVCCZZZCVBVVCCVVVBBNMMMNBBBNNNVCCCNnczxvmNVVBBBBVVVBBVVCZAAAAAAZCBMmmmMNNNNBBVCZZCCVVVCCZADDDSSACNnvvbMBBBNNNBVCVVBBBVCCVNmbbbmMNBVCZZCBMmmmMmnbnmmmmMNBVCZZCVBBNNNNNMnvvbMBCCVBMmnnmMNNNg",
"jCVVVVBNNNBVZAAZCVNNNNVCCZZCBNmmmmmMMNVCZZAAASSSACBNNNBVVBNNBVZZZZCZZZZZCCCCVVVVVCCCCVBNNNBVCCVVVBBBNMmmmNVZASSACVBBBBVCZZAAZZASSSSAZZZASSSSZVNmbvvbnMBVZASSSSAZCVBNmmnmNBCZZCVBNNNBVVCCZZCVNMNBCZZZCCCZZZZZCCVVCCZCCVVBBBBBBBVCAAAASSAACVNMmMNBBBBNmbcxvnNVVVVVVVVVVVVVVVVVVCCCCCBNMMBVCZZZZZZZZCCCVVCZCCVBNMMNVCZZVBBBBBBBVVBNMmnnmMBVCZAAAZZCCVVVBBBBNMMMNBBBBBBBVCZCBMbvbnMNBBNNNNBVVBBVCZAAAZZZAAZVBNMNBVVCCCCZZAZZCCVVVZASDDSSAZCBmnnmBVVVNMmMNBBBBVVVCCCBMmnnMNBBVCZZZVNMNMMmvcvvvbnmNBVVVVVVBBBVVVBMbvvbMBVCVBNmnnnmNBVh",
"jCVVCCVVVVCZAAAACVNNNBCCZZZCBNMmMNNNNBCZAASSSSDSSZVBNMNNNNMMNBCZCCCCZZZZCCCVVBBBBVVCCCVVBBVCCCVBNMNNNNNNNBCZASSAZCBBBBBVCZZZCCZASSSSAAAASSSSZVNmbvvvnMBVZAASAAAZVVBNMMMMBVZZZCVBBBBVVVVVVVVBNNNVCZZZCCCCCCZZZCCCZAAAZZCCVVVBBBVCASSSAAAZCBMnnnMBBBNMnbxxvnNVVVCVVCCCVVBBBBBBBBVVCCBNMMNBCZZZZZZZZZZCVVCCCCCVBNMNBCZZZCCBBNNNBVBNMmnnmmMBVZASSSAZZCBBNNNMmmMNBVVVBBBVCZZCVNmnmmNNBBNMmMNNNNBVCZZZCCCZAAZCVBNNBCZZAAAAAAAAZZCCCZASDDSAZZCBMmMNVCCVNmnnMNNNBBVCCCCVNMMMMNBVVCZAZZVBBNMmvxxccvbmNBVVVVBBBVVCCCBNnbbmNVCCCVBMmmmMNVCj",
"jCCCZZAZZZZAAAAZVBNNBVCZZCCVBNMMNBBVVCZZAAAAASSSSAZVNMMMMMmmMNVVCVVCZZZZCCVVBBBNBBBVCCCCCCCZZCVBMmmmNBVVVCZZSSSAZCVBNNNBVCCVVVZASSSSAAAASSSSZCNmnbbnmNBVCZAAAAZCVVVBBBBVCZZZZCVVVCCCVVBBBBBBNBBCZZCVVVCCCCZZCCCCASSSSSAZZCCVVVCZASSAAZZCVBmnbnMNNMmnbvxcvnMBVCZZZZZCCVBNNNMMMMNVCCVNMMMBVCCCCCCZZAZCVBBVVVVVVBNNBVCZAAZVNMmMNBBNNMMMMMMNVZSDDDSSZCBNMmnnbnMBVCCVBBBVCZZCVBMMMMNBBBMmnnnnnmMBCCCVBBVCZAAZVBNNBCZSSDDDSSSAAZZZZZAASSSAZCCVNNBVZZZCNmbbnmMMNBBVVVVVVBNNNNBBVCZAAACVVBMmvxxxcvbmNVCCVBBBVVVCCCBNMMMNVCZZZCCVBNNBBVZk",
"jZCZZAAAAAAAAAZVNMNNVCZZZCCVBNNNVCCCZZZZZZZZZZAASAZVNMmmMMMMMNBBBBVVCZZZZCCCVBBNNNNBVVCCCZZZZZVBMmmMBVZZZZZZASSAZCVBNNMMBBBBBVCZSSSAAZZAASSSZCBMmnmMMNBVCZZAZZZCCVCCVCCZZAAZCCCCZZZCVBBNNMMMNBVCZCVBNNBCCZZZZCCCASSDSSSAAZZCCCZZSSSAZCVVBNmnbnmMmnbvvvvvbmMBCZZAZZZCVBNNMMmmmmMBVCVBNMNBVVVVVCCZZZZCBNNNNBBBVBNNNNVZAAZCNMmmNBBBNNBNNMMMVZSDDDDSAZVNMmnbbmNBVCCVBBBBCZZCVBNMmMMNBBMmbvvvvbmNVCVBNNNVCZAZCBMMBVASDDDDDSSAAZZZZZZAAAAAZCVBNNBCZAZCBMnnmmmMNNBVVVVVVVBNNNNBVCZAAAZCVBNmbvvvvbmMVCCCVBBNBBVVCVBNNNBCZAAAZZZCCVVVVCZk",
"kAAZAAAAAAAAAZVNmmMBCZZZCCCCVVBVCZZAAAZCVVVVVVVCZZZVNMmMNNNNNNNNNNBVCZAAAZZZCCVBMmmMNBVCZZZZZZCVNMMNVCAAAZZZAAAACVBNNMmmMMNBBVCZASAAZCZZASSAZCBNMMNBBBBVCZZZCCCCCCZZZZAAAAAZCVCZAAZCVVBNMmbbmMVCCVMnbnNVZAAAZCCCZAASAAAAAAAZZZAASSSZCVBBBNMmnnmmnbvvvbnmMMNBCZAAAZZVBNNMMMmmmmmNBVVVBBBVVVBBVVCZZZCVNMmmmmMNBBNMmMNVZAACBNMNBBBBBBVVNMMMVZSDDDDDSACVNMnnmMBVVVVVNNNBVCCCVBNMnnnmNNMmbvcxxcnNVCVBMmMBCZZZCBNMBVZSDFFDDSAAZZZZCCCZZZAZZCBMmmNVZAAZVBMMMNNNNBVVVVVVVVBNMMNBVCZAAACVBNNMmmmmMMNVCZZCVBNMMNBVVBNNBVCZASAAZZZZZZCCVCZk",
"kAAAAAAAZAZZZCBMmmNVZAZZVVVCCCCCZAASAAZVNNMMMNNBVCVVNMmMNBBVBNMmmMNBVZAAAAAAZZCBMmnnmMBCZZZZZZCVBBBBCZAAZCCCZAAACVVBNMmnnmMNBVCZAAAZCVCCAASAZCBNNNVVVVBVCZZZVVVVCCZZAAASSAAZVVZZAAZZCVVBMnvcvnNVVBmbvbMVZSSAZZCCZZAZCCZZZAAAAAAAAAAZVBNNBNMmnnmnbvbbnmNBBBBBCZAAAZCVNNNMMMMmmmmMNBVVVVVVVVBBVCCCCCVBMnnbbnnMNNNMnnMBZAACBNNNBBBBBBVVBNMNVZASSDDDDSAZVBMMNBVVBBVBBNNBVCCCVVNMnbbnMNNMmbvccvmNVCVBmmMNCZZZCVNNBCASDFFDDSAZZCCCCVCCCZZZCVMmbnNVZAAZCVBBBBBBVVCCVVVVVVVBMMNBVCZZZZCVBNNNNNNBBVCCZAZCVNmnmMNBBBNNBVZASSSAZZZAAAZZCCZk",
"kAAAZCCCVCCCCVNMmmNVZZZCVVVCCCZZAASSAZVNmnnnmmmMNNBNMmmMNBVVVNmnbnmMBCAAAAAAAAZVMnvcvnMVCZZZZCCCVVVVCZAZCVBBVZAAZCCVBNmnbnnMNBVCZAAZCVVVCZAAZCBBNBVVVBNBVZZCBNNBBVCZZAAAAAAZCCZAAAAZZCCVNnczxvmNNNmbvnNVASDSAZZZZZCVBBBVZASSSAAAAZZZVBBNBBNmnnnnbbmMNBCCCCCCZAAAZCVBNNNNNNNNNMmmMNBVVCCCVVVVCCCCVVBNMnnbbbnmMNMmbbmNCAZCBNNNBBNNNBBBNNNBCZAAASSDDDSAZCVVCCCVBNBVBBBVVVVVVBBMbvbnMNBBNMmnnmNVZZCBMmMNCZAAZCVVCZSDDDDDSAZCCCVVBBVVCCZZCBmbvbMVZZAZZZCCCCCCCZZZCCVVVCCVBNBVCCCZCCVBNNNBVVVVVCZZAAZCBNnbbnNBBBBBBVCZASSAZZZAAAZCVCZk",
"kAAZCCBBNBBVVBNmnmNVZZZCBBBVVCCZAAAAZCBMnbvbbnnmMMMMMMMNBVCCVBMnvvbmNVZZZZZZAAZCNnvccbMBCZZZCCCVCCCCZZZCBNMMBCASAAZCVBMnnbnmMBVCZZZZVVBVVCZZZCVBNBBVVBBBVCCVBNNNNBBBVCZZZZZZCCAASSAAAAACBmczzxnMNMmmnmBCADSSAAZZZCVNNMNBCASSSAAZZZZZCVBBBBNMmmmmmmNBVCZAAAZZAAAACVBBNNBBBBVBBNmmMNBVVCCCVVVVCZCVBBNMmnbbnnmmMMMmbbnNCZZCNMMMNNMMMNBBNNNBCZZZZZSSDDDSAAZZAAZVBNBVVVVVVVBBVVBNnbbnMBVVVBNNNBVZAACBMMMBCZAAAZCCZASDDDDSAZVVVVVVBBVVCCCCVNnvvnNVCZZZZZZZAAAAAAAAZCVVCZZCVVVVVCCCCVVBBBBVCCCVVVZZAAZCBNnbbnNBVVBBVVCZAAAZCCZASSAZCCZk",
"jZZZCVNMmMNBVBNMnmNVZZCVBNNNBVVCZAZZCBMnvvcvbnmmmmmmMNNBVVCCCVNmvvvbmNVCCCVCZZAZVMnvvbMBCZZZCCVVVVCCZZCBMmnmBCASSAZCCVBMMmmmMNBVZZZZCVBBBVCZZCVNNNBVVVBBVVVBNNNNMmnmMNBBVVCZZZSSDDSSSSSAVMbcxcnmMMNNNBCZSSSSAAZCCVNMmmMNVZASAZZCCCZZCCVVVVVBNMNNNBVCCZAASAAAAAAZCVBNNNBVCCCVVBNMNBBVVVVVBBBVCCVBNNMmnbbnmMMNNNMmbbmNCZCBmnnmMMmmmMBBBBBVCZZZCZASSDDDSAAASSACBNBBVCCVBNNNVVVNmnnnMBVCCCVVVVZAAACVNMNBCZAAAAZZASDDDDSSZVBNBBBBBBVVCCCVBmbvbMBCCCCCCCCZZAASSSSSAZCCZAAZCVVVVVVVVVVVVVVCZZCVBBVCZZZCVNmnmMBVVVVBBBVVZAAZCCCASSAZCCAk",
"jZZZCVMmnnMBVBNMmmNVCZCVNMMMNBVCZZCCVNMnbvcvbnnmmmmmNBVVCCZZZVNmbvcvnmNBVVBBCZAAZVMnnnNVCCCCVVBBBVVCZCVNnbbnNCAAAAZZCCVBBNmmmmNBCZZZCVBBBVCZZCVNNNBVVVBBBBNNMNNNMnvvbnmMMNVCZASSDDDSDDDSZBnvvbmMMNBVCCAASSSAZZCVVNMmmmmNVZAAAZCCCCZZZZCCZZCVBNBVVCCZZZAAAAAAAAAZCCBBNBVCZZZCCVBBVVVVCVVBBNBBCCVBMmmmnnnmNBBBBNMmnnMNCCVNnbbnmmmmMNBBBBBVCZZZZCZASSDDSSSSDSAZBNNNVCCVBNNNVCVBMnnmNVCZCCCVVCZAAZCBNNNBVCCZAAAASSDDDDSACVNMNBBBBBVCCCCBNmbbmNVCCCVBBNBVCZAASSSSAZZZAAAACVBBBBBVVVVCCCCZAZCVBNBVCCCVVBNMNBVCCVVBBBBVCZZZCCCASSSAZZAl",
"kAAAZCNmnnMBVVBNMMNVZZZVNMMMNBVVCCCVBNNMmnbvvbbnmmmMBVCZZZAAZCBMnvccvbmNBBBBVCAAAZVNMMBVVVBBNNNNNBVCCCBMnbbmNVCZZZCCCCCCVBMnbbmMBCZZCCVVCCZZZCBNNNBVVVVVBNmnmMNNMnvccvvbnmBVZASDDDDDSSDSZVMnnmMNNBVZAASSSAAZCCVBNMnnnmMBVZAAAZZCCCZAAAAZAZCVBBVCZZZZCCCCZCZZZAZZZCVBBBVCCZZZZZCCCCCCZCVVBNBBVVBNMmmmnmMNVVVVVVBNmmMBVCVNnvbnmMMNNBBBBBVCZAAAZZZZASSDSSSSSSSZBNMMNBVBNMNBCZCVMmnmNVCZCCVVBVCCZCBNNNBBBBVCZAASSDDDDDSAZVNNNNBBBVVCCCVBMmbbMBCCCVBNmmmMBVCZAASAZZZZAAAACVNMMMNBVCCZZZZZAAZVBNBBVVVVVVVVCCZZCVBBBBBBVCZZCCZASSSSAASl",
"kAAAACBMmmNBVVBBNNBVCZCVBNNNNBVVCCCVBBBNMmnbvvbbmmmMBCZZZZAZZCBNnbvccvmNBBBBVCZAAACVBBVVBNmmmmmMMNBVCVBMnbnmMBVVVVVCCZZZCBmbccvnNVCCCVVCCZZZCVBNNNBBBVVVBMbvbmNNNmbvvvvvbnMVZASSSSSSSSSSZVMmmMNBBVZASDSSAAZCCVVBNmnnmMNBCZZAAZCCCZZAAASAAZCBNBVCAAAAZCCVBBVCCZZZZZCCVVVCCCCZZZZZZZZZZZCVBBBVCVBMmnnnmMNVCCCCCVBNMMNBCCVNmnnnMNBBVVVVVVVCAAAAZZCCZASSSSAASSAZVNmmMNBBNNBVZZCBMmmmBVCCVVBNNNBVVBNNNBBNNNBVZAASDDFFDDSACVNNBBBVVVCCCCVBMmnmNVCZCVNMnnnmMBVCZAZZCCCZASSAZVNMmMNBVCZZZZZZAAZVNNNBBBNBVCZAAAAZCVBBBBBNBVCCCCZZASSSSSDz",
"jZAAZCBNMMNBBVVVBBVVCCCVNNNBBVVVCCCCCCCCBNmbvcvbnmmMBVCZZZZCVBBNMmnbvbmNBVVVVVCCZAZCVVVBMnvccvnmmMNBVVNMmnmmmMNNNNVVCCZCVNncllxvmNVVVBVVCCCCCVNMMNNNBBCVBmvxxvmNNNMMmnbbvbMNCZZAAAAAAASACBmnmMBCCZASSDSAAZCVVVVBNMmmMNBVCCZCCCVVCCZAASSSAZVNMNVCASSAAZVBMMNBVCZZAAAZZCCCCCCZAAAZCCCZZZCCCCCCZCBNnbbnmNBCZZZCCVBBNNBVCCCVNMMMNBVCZZCCVVCZASSAAZCCZZAAAAZZZAAZVBMmMMNNNBVZZZVBMmmMBVCVBNMMmmMNNNMMNBNNmmMBCAASDDFFFDSZVBNNVVCCZZZCCVBNMMMNVCZZCVBMnnbnmMBVCCCVBBVCASSSZCBNMMBVVCZZZCCCZZCVNMNNNNMNVZASSSSAZCVVVBNNNNBVVVCCZASSSDDz",
"hCZZZCBNMMNBVVVVVVVCCCVBNBBVVVVCZZZZZZZZVBMnbbbnMMMNBBVCCCCVBNNNNNMmnmNBVCCVVVVVCZZZCVVNmvzlzcbmMNNBBBNMMmmmnnmmMMBVCCCVBMbxkjlxnMNNNNNBVVVVBBMMmmmMNBCCBMvxxcbMBVVVBNmnnmMNVVVVVCCZZAAACBmnmNVZZASSSSAZCVBBBBBBNNMmMMNBVVVVVBBBVCZAASSSACBNMMBCADDDSZCBMmMNBVCZASSSAAZZCCCZAAAZCVCCZZCCCCCZZZVNnbbbmNVZZAZCCVNNNBVVCZZCVBBBVVCZAAZZCCZASSSAZCVVCCZZZCVVCZZZCVNMmmMNBVCZZCBMMmmMNBVVBMmnbbnmMMmMNNNMnnmNVZZASDFFFDAZBNNNVCZZAZZCVBNNMNNVCZAZZCBNmnbbnMNVCCVNMMBCASDSAZVBNNBVVCCCCVBBVCVBMmmMMmmMVZSDDDSAZCCVBBNMMMNBBVVCZZAASSDz",
"gVVVCVNMMMNBVVVVCCCCCVBNNBVCCCCZASSSAAZZCVBMMmMNBBBBBBBBVVBBNMNBBVBBNBVCZZCVBBNBVCCCCCVNnclklcnMBBBBBNNNNMMmnbnnmMBVCCCVNmvzjhjlcnmMMmmmNBNNNMMmnnnmMBCCVNbcxcbmBCZZZCBNNNNBBBNMMNBVZAAAZVMmMBCAASSSSAZVBNMMMNBNNNMMmmMNBBNNNMmMNVCZAASSACBMmMBCADDDDSZVNMMMMNVZASDDDSSAZCZZZZZZVVVVCCVVVCCZZZCBmnbnMNCZAAAZVNmmmNVCCZCCVVVVCCCZAAAAZAASSSAZVBBBVVVVVBNNBVCZZCBMnnnMNVZZCBMnnnnmMNVBNMnvccvbnmmMNNMmbbmNVCCZASDDDSZVMmmMVCZAAZCVBNMMNNBCZAAAAZVBMnbbnMBVCCBMnnMVASDSAZCVVVCCVVVVBBMMNBNMnnnnnnnMVASDDSSAZCCVBNMMmmMNNBBVCZZZAASl",
"gBBVVVNMMMBVVCCCCCCCVBMmMNVZZZAASDSSAAZCVVBBBBBVCCCVVBBBBBBNNNNBVCVVVCZZZZCVBNMNBVVCCCVBmvzlzvmBVCCVBNNNNNNMnnnmMNVCCCCVNmbcljklcbnmmmnmMNNMMmmnnnnmMBCCCBmbvvbmBCZAAZCVBBBBBNmnmmNVZASAZVNNNVCASSSSAZCVNMmmmMMMMMMmnnmmMNNMMmmmNBVCZZAAZVBMmMBCADDDDDAZVNMMMNBCASDDDDSAAZZCCZCCVVVVCCVVBBVVCCCBMmnmNBCAASACBMbbnMBCCCCCVVVCCCCZAAAAAAAAAZCVBNNNBVVVBNMMNBCZAZCNmnnMBVZZCBmbbnnmMNBBNMnvccvvbnnmMMMmnnmNBVVCZASDSACBmnmMBCZZCCBNMmmMMNBVZAAAAZCVNmbbnMBCCCBMbbmBZSSSAZCCCZCCVBBBBNMmMMMmnbbbvbnMVZSDSAZCCCVVBNNMMMMMNNBVCCCCZZAk",
"gVVVVVNNNNBCCZZZZZCVBMnnmNCZAASSDDDSAZCVVVVVVCCZAAAZVBBBBBBBBBVVVVVVVCZZZCVVBNMMNBBVVCCVNnccvnMBCZCVNMMNBBBNMmmMNVCZZZZCBNMncxxcvbnnmmnmMNMMmnnnmmmMNBCCVBNMMmmMNVCZZZZCVVVVNMnbnmNVZASAZCVVVVCZAAAAAZCBNMnbnnnnnnmnbbbnmMNNNMmMNVCCCCCCVVNNNNVZSDDDDDSAZVBNMMBVZSSDDDSSAZCCVCCCCCCCCCVBNMMNVVVBNMNNBVCASSACNmvcbmBVCCVBBBVVCCVCCZAAAAZZCCBNNNNBBVVVBNMMNVZAAAZVMmmNBCZZCBmnnnmMNBVVBMmbbbbbvvvbnmmmmmMNBVVCCZASAZVBMmMNVCCVBNMmnnmmMMMNBCZAAAZVNmbbnMBCZCVNnnmBZSSSAAZZZZZCBNBBBNMmmmmnbbvvccbmVZSSAZVBBBVVBBBBBBBNNNBBVVVVVCZj",
"hCCCCVNNNBVCZZAZZCVBNmbbnNCZASSDFFFDSZCVBBBBVVCZASAZCVBBBBBBVVCCVVVVCCCCCVVBBNMMMNNBVCZCVNmnnMNVCZZVNMMMBBVBNMMNBCZAZZCCBBNMnvvvvbnmMMMMNBNMmnnmMMNBVVCCVVBBNNNMMNBVCCCCVVCVBMnbnmNBCZAAZCVVVVVVCCZZZCCVBMnbbbbbbbnmnbbnmNBVVBNNBVCCVVVBBNNBBVCZASSSSSSSAZVBNMNVZAASSSSSAAZCCCCZZZZZZCVBMnnmNBVVVBVVVCCZAAZVNnvcvmBVCVBNBBVVCVVVVCZZZCCVBBNMMNNBVVCVVBMMBCZSSSACBNNBVCAACVMmmmMNBVVVBNMmnnnbvccvbnmmMMNNBBVVCZAAZCVNMMNBVVBNMmnnnnmmmmnnmNVZZZZCBMnbnMBCZCVNmmMBZASSSAAAAAZCBBBBVBNmnbbbbbvcxcvmVZSSZVNNNBVVCCCCCCVBNNNNNNBBVVCj",
"kAAZZVBNBVCZZZZZVBNMmnvvnMVZASSDDFFDSACVBNNMMNVCAAAZCVVBBBBBVCCCVVBVVVVVBBBBBBNMMMMNVZAAZVBNNNBVCZZVNMmMNVVVBNNBVCZZZCCVBBNMmbvvvbmNBVVVCCVBNMmmNBVCCCCVBBNNBBNMnnMNBVVVVVCCVBMmmMNBVCZZVVBBBNNNBBVVVVCVBMnbbbbbvbmMmmmMNBCZZCVVCCZCBNMMMMNBVCCZZZZZZAAAAZCVBNBVCCCZZAAAAZZCCZZAAAAAZCBMnvvbMBVVCCZZZCCZZZCBMnbbbMBCCCBBNBVCCVVBVVCCVBBNMmmMNBVCVCCCVVNNVZASDDSACVVVCZAAZCBNNNNBVCCCVBNMMMmnvcxcvnmMNNNNBBVVVCZZCVNMMMNBBBMmbvbbmmMmnbccvbMBVCZCVNmmmMBVCCVBNNBVZSSSSAAAAAZCVBBVVVNmbvvvbbbvvvnMVZAACBMmMNVZZAAAZZVBNMMMMMNBVVVh",
"lSSAZCBNBVCZZZCVNMMmnnvvnMVZASSSDDDDSACVBNmmnmNVZAZZCCCVVBBBVCCCVVVVVVVBNNNBBBNNMMNBVZAAZCVVVBBVCZZCNMMMBVVVVBNNBVCCCVBBNNNMnvxxcbmBVCZZZZCCBNMMNBCZZZCVBNMNBBNMnnmMNBBBVCZZCVNMNNNBVVCVBNNMMMmmmMMNNBVVVNnbnnbbvbmMNNNNBVZZZZCCCCCVNMmmmMBVCZZCCVVVCCZAAZCVBNBBBBVVCCZAAAZZZZZASSSAZCBmbvcvmNBVCZAAAZCCZCBMnbbnmNVCZCVBBBVVVVBBBVVVBNMmnnmMBCCCCVCCCVVVCASDDDDSAZCVCCZAAZCVBBBVVCCCVVBNNMMmbvccbnMNNBNBBBVVVVCCCVNMMNBVVNmbccvnmMMMmbcxxxbmNBCCCVNMMNBVCCVBBBBVZASSAAAAAAZCCVVVVVNMbvvvvbbnnnmNCZAZVNmmMBVZAASAAZCBNMMMmMNBVVVg",
"zDDSZCBNBVZZZCVNMnmmmmnnmNVCZAAAASDDSACVBMmnbnMBCZCCCCZCVBNNBVVVVVCCCCVBBNNNBBNNNNNVCZAAZCVVVVVCZAZCBNNNBVVVBBMMMNBBNNMMmmmnczkjlcmBCZZZZZZCVBMMMBCZAZCVNMmmNNNMmnmMNNBBVCZZCVBNBBBBBBBBNMmnnnbvbbbnmMVVVNmnnmnnbbMNBVBVVCCCCVVVVVBNMmmmMBVCZZZVBNMMNBVCCCCVNNNNNNMNNVCZZAZZZZZZAAAAZVNmbvvbmMNVCASSAZZCCVMnvvnmNBCZZZCCVVVVBBNNBVVVBNmnbbmNCZZZVVVVCCCCASDDDDDDAZCVVCZZZZZCVVVVVCCCCVBNMMMMmnbbnmMNNBBBBBBBBVCZCVBNBBVCVNmbvvbnMMMMMnbczzxcbmBCZZVVBBVCCCVVBBBBCCZZZZZZZZZCCCVVBBNMmnbbvbnmMMNVCZZCBNMMMBCZAAAAZZCVBNMMMMNBVVBf",
"zDDSZVBNBVCZCVBMnbnmmMMMMNBVCCCCZASSSACVNMmnnnMBVVVVCCZZCVBNBBVVVVCCZCCVBBBBBBBBBBVCZZZZCVVVVCCZAAAZVBBBVVVBBNMmmmMMMmmnmnnbzjggjxnNVZCCZZZZVBMMMBCZZZVBNmmmNBBNMmMMMNNBVCZZCVBBVVVBBBBNMmnnnbvvvvvbnMVCVBMmMMMmnnMBVVVVCCVVBBBBNNMmmmmMNBCZAAZVNMmmMNBVCCVBNNNNNMMMMNVCZZAZZCVCZZZZCBMnbvbbnmMNVZAAAZZCCBmbvvmNBVCZZZZCCVVBNNNNBVCCVBMnbbMBZAAZVBBVCCZZASDDFFDSAZVVVVCCCCCCVVBBVVCCCVBNMMNNMMmmmMNBBVVVBBNNNBCZZZVVVCZZCBMnbbnmMNNNBNmvxzzzxvMVZAZCVVVCCCCVVBNNBBVVCCCZCCCCCVVBNNNMMMmnbbmMNBBVCCCVBNMMMNBCZAAAZCCVBNNMMMNBVBNd",
"lSSACBNMBVCCVBMnbbnMNNNNNNNBBBBVCZASSACBNMMMMNBBNNNNVCZZCVBNNNBBBVCCZZZCCVVVVVVVVVCZZZZCCVBBVCZAAAAZCVVBBBBBBNmnnnmmmnnnnnnvzjffjzbMBVBBVVCCVNMmMNVCZCBNMMmMBVVVNNNNMNNBVCZZCVVVVCVVBBBNNMMmmnbvvvvbmNCZCVNMNNNMmMNBVVVVVVBMMmMMmnbvbnmMNVCAAAACBNmmMMNBVCVVBBBBBBNMMMNBCZAZCVBBVCCCVBMnbbbbbbbnNVZZZZZCCBMnbbMNBVCZZZZZCVBNMNNBVCZZCVBMnmNCASAZVBBBVCCZASDDFDDSZCBNBBBVVVVVBNNNBBVVVVBBNNBBNNNNNNBVVCVVBNMMNVCAAAZZZZAZZVNMMMMMMNBVVVNmvxzllxnNCZZVBBBVCZZCVBNMmMNBBVVVVVVVVBNMmmmMNNNMmmMNNBBBVVVBBNMmmmNBCZZZCCVVBBNNNBBVBNms",
"kAAACBNNBVCVBMmbbbmMNBNNNNNNBBBVCZASSACVBBBBBVVBNMmMBCZZZCVBNNNBBVVCZZZCVVVVVVVCCCZZZZZCVBNNVCZAAAZCCVVBBNNNBNMmnnnnnnnmmMmbxkggkxbMNNMMNBVVNMmnmNVCCVBNNNNBVCCVBNNNMNNBVVCCVBVVCCCVBBBBBBNNMmnbvvbmNVZZZCBBBBBNNNBVVVCCCVNMnnmmnbvcvbnmNBCZASAZVNMmmMNBVCCCVVVVVVBMmnnMVCAZCVNNBVCVBNMmnbbbcccvmNVCCCCCCVNmmmNBVVCCZZZZCVNMMMBVCZZZZZVBMNVZASAZCVBBVVCCZASDDDSACBNMNBBBBBVBNMMMNNNNNNBBBBBBBBBBBBVCCCCVBNMMNVZASSAAAAAZZCVBNNMMMNBCCCBMmbczlzbMCZCVNMNBCZZZCVNMmmMNNBVVBBBBBBMmnnmMNNBNMMNNBBBBBBBBNNMmnnMNVCCCVVVBBBBBBBVVBNms",
"kAAZCBNNVVVBMnbbbmMNNNNNNBBBBBVVCZASSAZCVVCCZZCVMmnmBCZZZZCVBBBVVVVCCZCVBBBBVCCZZZCCZZZCVBNNBVCZZZCVVVBBNMMNBBNMmnnnnmMNBBBMbxkklcnMMMmmMNNNmnbbmNVCCVBNBBVCCCVBNMMMNNNNBBBBNNBVCCCVVVVVCCVVNMmnbbmNVZZAZZCVCVVBBVVVVCCZZCBMmnmmmnvvvbbnmNVCAAAZVNmmmMNBCZZZZCCCCCVNnvvbNVZAZVBBBVVVBNMmnbbvxzzcbmNNBVCCCCBNNNBVVVVVCZZZCVBNMNBVCZZAAAZCVVCASSAZCVVVVVBBVCZASSAZBNMMNBVVVBBBMmmmMMMmmMNNBBNNNNBBBVVCZZCVBNmmMBCASSSAAZZCCCVBBNMMMNVCCVBNMmbvxxvmVCVBmnmNVZAAACBNMMMNBBVVBBBBBNMmnnmMMNNBBBBBBBBBNNMMMMnbbbmNVVVVBBNNNNNBBBBBNMms",
"kAAZVBBBVCVBMnbbnMNBBNNNBBBVVVCCCZZAAAZCCZZASAZCNMmMBCZZAZCVBBBBVVVVCCVBMmMNBVCZZCCCCCCCVVBBBVCCCCVVVVBBMMMNVVBNmnbnmMBVCCCBmvzzxvmMNMmmMMMmbvvbmNCZCVBBVCZZZZVBNMMNNNNNNBBNMNBVCCCVVCCZZZCCVNMmnmNBCZZZZZCCCCCCCCCCCCZZZZVNMmMMMmnnnbbbnmNVCZAZVNmnmMNBCZAAZCVCZCVNnvvbMVZAZCVBBBVVVBBNmnnbczzxvnmMNBVCZZCCVVVVVVBBVCCCCVBNMNBVCCZZAAAAZZAASSACVVVVVVNNNBVZAAZVMmmmNBVVVVVBMmmmMMmmmmMMNMMMNNBBVCCZZZZVBMmnmNVZASAAZCCCCCVVBBMMMNVVVBNMNNMmvvnMVCVNnbnMVZASSZVBNMNNBVCCVBBBBNMmmmmMMMNBVVVVVVVBNNNNNMmnnnMNVVVBNNMMMNNNBBNNMMMd",
"kAACVBBBCCVNMnbnMNVVBBNBVVVVCCCCCCCZZCCCZZAASSAZVBBVCZZZAZCVNNNBBBBVCVBMnbbmNVCCCCVVVCCCCVVVVVVCCVBBVVVBMMMBCCCBmbbbmNVZAAZVMnccvbMNVBNMMMmbxzxvmBCZZCVVCZAAAZVBNNNNNNNNBBBNMMNBBVVVCZZAZZCVBNMMmMBVCCVVVCCZZZZZZZZZZZAAZZCVNNNBBBNMMmbbnmNBVCZCVNmnmMNVCZAAZVBBVCCBMmnmNVZZZCVVBBBVCCVBNMmnvcxcvbnmMNBCZZAAZZCCVBBBVCCCCVBNMMMNBVCZZAAAAAASSAZCBBBVVBMmnmNVZZVNmbnmNBVVVVVBNMMMNNMMmmmmmmmmNBVCCZZZZZCVNmbbbmBCZAZCVBVVVCVVVBMMNNVBNMmmNBBBMmMNCCCBmbbmNCASSAZVBNNBVCZZCVBBBBNMMMMMmmMNBVCCCCCCVVVBBBNMMNBVCCVBNMMMMMMMMMMMmmMf",
"lAACBNBBVVBNmnnmNVCCCVBBVVVVVCCCVVVVVVVVCZAASSAZZCCCZZZZZZCVNMMMNBBVVVNmbvbnNBCCCVVVVVVVCCCCCVVVVBNNBBBNMMMBCZZVMnbbmNCZAAACNmbvvnNVCCVBNMnvzzxvmBCZZCVVCZAAAZVVBBBBBBBBBBBBNNNNNNBVCZZZZZCVBNMMMMBVCVBNNBCZZAZZAAAAAAAAZZCVBBBBVVBBNMnnnmmNBVCCVBMmmMNVCCZZVBNNBVCVBNNNBCZZZCCVNNBVCZZCVBNMbvccvvnmMNBVZAAAAZZCVBBBVCCCCVBBMMMMMNBCZZZZZAAASAZVNNBBBNmnbbMBCCBNnbnmBVVCVVVVBBBBBBNNMMMmnnmMNVCZZAAAZZCVNmnbbnNVZZCVBBBBVVVVVBNNNNBBMmnmNVCCVBBVCZCVMnnnNVZSSSZCBNNBVCZZZCVBBBNNMMMMmmmMBVCCCZZZZCCCCCVVVVCCZCVBNNMMMmmmMMMmmmNf",
"lSACBNNNBBMmnnnMBCZAZZCCVVBBBVVBBNNNNNNBVCZAAAZAZZZZZZZZZCVBMmnmMNVVVVNmbbnMBVCCCCCCCCVVCCZZCCVVBNMMNNNMnnMBZAZCNmnnmNVZAAZVNmbbbmBCZZCVBNnvxxcbmBCCCVNNVCZAAZZCCCCCVVVVCVVVBNMMMMNBCZZZCCVVBNMmmMNBVBMmMNVCZZZZAAAAAAAACCVVBBBVVVVVBNmnnnmMNBCZCVBNMNBVVVCVBMmmNBVCCVVCCZZZZCCBNNBVZAAAZCVBmnvccvnMMNBVCZAAAAZCVVVVCCCCVVBBNMmmmMNVCCCCCZZAAACVNMNNNMnbvbmNVVBNmmMNVVVVVVCCCCCCCVVBBNNMmmMNVZZAAAAAZZVBNMmnnmNVCCVBNNBBVVVCCCVBNNNNmnnmBCZAZZCCZZCVNmnmMBCASSACBNNBVCZAZCVBBBNNMMMMmmmMNVCCZZZAAAAAAAZZZZAZZCVVBBNNMmmmmMMMmMBg",
"lAZCBNNNNMmnbbnMVZASAAZCVBBBBBBNMMmmmmMNBVCZZZCZZAAZCCCCCCVBMmnmMBVVCVNMmmNBVCCZZZZZZCVVCCZZCCVBNNMMMMMmnnMBZAAZBMnnmNVZAAZVNmnnmMVCAAZCBNmnvvbnMNVCVBMMNBCZZAAAAAZZCCCCZZCCVNMmmMNBCZZCCVVBNMmmmMNBBNMmmMBCCZZZZZASSSAZZCVVBBBVCCCVVBMmmmmmNBCZZZVBNNBBVVVBMmbbmNVCCCCCCZZZZCCVBNVCASSSAAZCNmbvvbmNNBBBVZAAAZCVVVVCZZCCVBBBBNMMMMNBBBBBVVCCZZCBMMMMNMmnbnMNVVBBNNBVCCVVVCZAAAAZCCCVVVBNMNBVZAAAAZZZZCVBNMMMMNBVCVBBNNNNBBVCCCCVBNNMmmmMVCAAAAZZZZCVNMmmMNVZASACBNNNBVZZZCVBVVBNMMmmmmmmNBVCZZZZZAASAAAAASAAZCVBBBBNMmnnMMMMMMBh",
"jZCVBNNNMMnvcvnMCASDSSACVBNNBBNMmnnnnnmMNBVVVVVVCZZZVVVVVCCVBNMMNBVCCCVBBBVCZAAAAASAAZVVVCCCCVBNMMmmMMmmbnmNCAAACBMmmMBCZAZCBMMMNBCZAAZCBNNMmmMNNBVVBMmmMNBVZAASSSAZCCZAAAZZCBNMMMBVCCCCVVVBNMmmmMBVVBNMMNBVCCVVVCZASSSAAZCVBBBBCCCCVBMmmmmMNBCZAZCVBBBBBBBNMnvvnMBVVVVVVVCCZZCCVBCZASSSAAAZVNmnnmNBVVBBVCZAZCVBBBCCZCVVBBBVVVVBBNNNMMMMBBBVCCVBMMMMNNMMMMBVVVBBVVCZZZZZZZASSSAZCCCCCCVVBVCZAAAZCCCVVBNNMMNNBBVCVVBBNNMMMNBCZZCVBNNNMMNBVCZAAAZCCCCVBMMmMNVCAAAZVBNNBVCZCCVBVVVBMmmmmmmmMNVCCCVVVCZAZZZAAASAZCBNNNNNmnnnMNNNMMBh",
"hVVVBNNNNmnvvvnNCASDDSACBNNNBBBMmnnnnnmmMNBBBBNNVCCCVBVVVVCCVVBBBBVVCCCCCCZASSSSSSSSAZVVVCCCVBNMMMMMMMMMmmMNCASAZVNMMMVCAAAZBNBBVCZZAAZCBBBBBBBBBBVBNMnnmMNVCASSSSAZCCZASSAZCVBNNNBVCCVVVVVBNMmmMNBVVVBNNNBVCCVBBBVZASAAAZZVBNBVCZZCVBMMMMMMMBVZAAZCBNNNNBBNmbxxvnMNBBBBBBVCZZZCCCZZAAAAZZAZCBMMMNVCCVVBVCZAZCBNNNVCCVBNNBBVCZZCVBNMnnnmNNNBVVBBMMMNBBBBBVVCCVVVCZZAAAAAAASSSSAZCCCCCCVVVCCZAAZCVBBNNMMMMMNBVVCVBBBBBNMMMNBVZZCVBNBBBBVVCCZZZZCCCCCVNMMMMNVCZAAZCVBNNBCCCVVVCCCVNMMMMMmmmMBVVVNMNBCCCCCZZAAACVNMmmMMmnbnMNBNNNBh",
"fNBBBBBBBNmnbnMBZSSSSSACVBNNVVVBNMMMMMMMMMNBNNMMBVCCVBVVVVCCZZCCVBBBVCZZZZZASSSDDDDSAZCVCCCCBNMmMMNNBBVBNNNBCZAAACBNNBCZSSAZVVVVCZZAAAZCVVVVCCZCCVBNMmnnmMNVZASSSAZCVVZAASAAZCVVBBVVCVVBBBVBBNMMNBVVCCVBBBBVCVVBNNBVCZAAAAZCVBBVCZZCVBNMMMMMMNVCZZCVNMMMMNBNmbzlzcnmmmmMMNBVCZZZZZAAAZCVVCZZZCBBVCZZZCVVVCZAZCBNMMBBBNmmMNVCZAAAZVNmbbbmMNMNBBBBNNNBVCCCZZZZCCVCCZAAAAAAASSSSSZCCCCCCVVBVVCCZCCBNMmmnnnmMNBVCCCBNMNNBNMMMNBVCCVBBBVVVVCZZZCCCCCVVVVBNMmMNBVCZZAZZCVBBBVCVVVVZZZCBNBBVBNMMMBVBNnnnmNBBBBVCZZZCBMnbbmmnnbbmNBBBBBh",
"fNNNBBVVVVNMMMBVZASSSSAZCBBBVCCVBBNNBBNNMNBBBNmmNBVVBBBBBBVCZZZCVBNNVCZAZZZZASSSSSSSZZVVCCCCBNMmMNBVVCCCVBBVCZAAAZVVVCZASDSACVCCZZZAAAZZCVCCZAAZCVBNMmnmmMNVCZASAZCVVVCZAAAAAZZCVVVCCVVBBBBBBNNNNBVCCCCVVBVVVVVBNMNBVCCCZZZCBBBVCZZCVBNNNNMMMNBVCCVBMmnnmMBBMbzllxvbbbnmMNBVCCZZZAAAACBBBVZZZCVVCZAAAZCVVCZZZVNMmmMNNMnnMBVZASSSAVNnvcvnmmMMNBBVBVVVCZZZAAAZZCCCZZZAZAAAASDDSSZCVVCCVVNNBVVVVVBNmnnbvbbmMNVCZZVBMmMNBBBNNBBVVBBNBBVCCZZAZZCCCVVVVVVBMmmMBBVCCZZAZZCVBBVVVVVCZZZCVBVCCCBNMMNBNmbvbnMNNNBBCZCCVNmbcvnmmmbnMBVCVVCh",
"gNNNBVCZZZCVVVCZAASSSSSAZCVVVCCCVVVVCCVVBBVCVBMmNNBBBBBBNBBVCZZCVBNNVCZAZCCCZAAAAAZZCVBBVCZCVBMMNBVCCZZZCVVVCCZAZCVVCZSDDDSAZCCCZZZZZZZZCCCCZZZZCBNMmmmMMNBBVCZAZCVVBVVCZZZZZZAZZCCCCCVVBNMNNNNNNNBVCZZCVVVCCCVVBNNNNNNBVVVVBNBBVVCCVVBBBNNNNBVCCVBMnbvbnmNBNnxllzvbvbmMBVVVVCCZZAAAZVNNNVCZCCVVZASSSACVVVCCVBMmnnmMmmbnMBCASSSAZVMnvccvbnmMNBVVCCCCZZZZZZZAZZZZZZCCCCZAASSSSAZCVVCCBNMMNBBBNMMmnbvvvbbmMBVCZZVNmmMBVCCVVVBBNMMMNVCZZAAAAAZCVVBBBBBBMMMNVCCCCZZZZCVVBBBBBBBVZZZCVVCZZCVNMMNNMnvvvnMBBBBVCCVVBMnvccbmMMmMBVZZZZZk",
"gBNNBCZAAAAZCCCZAAAASSSSAZVVVVCCCCVCZZZZCCZZCVNMNNBBBNNNNNNBVCZCVBMNBCZAZCBBVCZZZCCVBNNNBVCCVBNNBVCZZAAZCVVVVCZZCCVCZASDFDSAZCCCZZZZCCZZZZCCCZZCVNMmmmmMNBBBBVCZZCVBBVVVCZZZZAAAAZCCZCCVBNMMNBBNNNBVCZZCCCCCCVVVBNMMMmnmMNBBNNNNNNBBVVVVVBBBBVVVVBNMnbvbnmNBNmvxxxbnbnmNBVVVVVCCZZAACVNNBVCCVBBBCZSSSAZCCVVBNMmmnnmmmnbnNVZASAAZCBMnvcccvbnMNVCCZZZZCCVVCCZZZZZZZCVCVCZZAASSSAZCVVVVBNMMNBBNMmnnbvbbbnnmNVCZZZVBMmNBCZZZCVBNMmmMBVZAAAAAAZCCVBBBBBBBNNBVCCCCCCZCCVVVBBVBBBBVZAZCVVCZAZVNMMNNMmbvbmNBVVVVCCVBNmnvcvnMBBNBVCZAAASl",
"hVNNVCAASAAZCCVCZZAAAASSAZVBBBBVVVVCZAAAZZAAZCBBBBBBBBNNMMNBVCZZVBMMBVZZCVNNBBVCVVBNMmnmMNCCCBNNBVZZAAZCBBBBVCCCVVVVZASDDDSAZCCCZZZZCCCCCCCCCVVVNMmnnmMNBVVBNBVCZCCVVVVVCCZZAASSSAAZAZZCBNMMNBBNNMNBVCCCCZZZCVBBBNMmnbvvbnMNNNMmmmMNBVVCCCVVVVCVVBNMmnnnmMNBNMnbbnmMMMNNBVVVVVCCCCZZCVBBVCVBMmmMBCASSSAZZCBNnbnnmmMMmmnMBCAAAZCVBNMnbvcxcvnMBCZAAZCVBBNNBVCZZZZZCVVVVCCCZASSSAZCVVVVBNMMNNNNmmnnbbnmmMMNBVCZZZCVNNBVZAAZZCBNmmMNVCZAAAZCCVVVVVVVVVVVVVCCZZCVCVVVBBBVVVCVBBBVZAAZCCZZZCBNMNBBNMmnmMVCCCZZZCVBNmnbbnNBCCVVCZZASSDl",
"jVNNVCAAAAZCVBBBVCZZZZAAAZVBNNNBVVVCZAAAZAASAZVVVVVVVVBNNNBVVCZZCBMMNVZZCVNMMNBVBBBNMmnnmMVCCVBBVCAAAACVBNNBVVCVBBBVCASSDDSACCCCZAAZVVVVCCCCVVBBMMmmmMNBVCCVBBVCZCCCCCVCCZCZZASDSSAAAAZCBNMMBBBBNMNBVVVVCZZZCBNNNMMmnvxxcbmNBNMmnbnmNVCCZZCCCCCVVBNNMMMNNNNNNNmmMMNNNNNNNBVVVVVVVVCCVVBVCCVNnbbnMVCAAAAAZCBMbvbnMMNMmmmNVZAAZVNMMMMmnbvvvbmNVCAAAZVBNMMMNBVCCCCCCVVVVCCCZZASAAZVBBVVBNMMNNNNMMmmmmMMNNNBVCZZZZZCVBVCZZZZZCBNMMNBVCZZZCVBNMMNBVVCCCCCCZZZZZCVBBBBNNBBVCCCVVVCZAAZCCAAAZVNNBVVBNMMNBCZAAAZZCVBNMmmmNVCZZZCCZZASDDz",
"jVNNVCAAAZCVNMmMNBVCVVCCZCBNMMNBVCCZAASSAASSSAZCVVVVCCCCCCCZZAAACVMMNVCZZVNMmmNNBBBBNMmnmMBVCVBVCZASAZCBNMNNVVVVNMMNCZASSSZCVVCZASAZVBBBBVVCVVBNMMMMNBVCZZZCVVCZZZCCZZCZZZCZAASDDSSSSAAZVVBBVVBNNNBBVVBBVCCCVNmnmmmmnbccvbmNBBNMnbbnMBCZAAAZZZZCVVBBBVVVBBNNNMMMNNBBNNMMmMNBVVVVBBBBBBBBVVBMbcxcnMBCZAAAACBMbbnmNNNNMmMNVZZZVNmnmmMMMMmmnmMNVZAAACBNMmMNBBVVVVVCVVVVCCCCZZAAAZCBNNBVBBNMMNBBBNNNNNBBBBBVCZZAAZZZCVVVCCCCCCVBNNBVVCCVVBMnvvbmNBCZZZZZZAAAAZVBNMNNNNNBVCCCVVVCZAAAZASSSACVVVCCVVBBBVZAAAAAZCVBBNNNBVZAAAZZCCCZSDDz",
"jVNNVCZZZCVBNMmmMNBVBBVVCVBNNNNBVCZAASSAASSSSAZZVVVCZZAZZZAAAAAACBMmMBCZZVNmnnmMNBVVVBNMMMBVVVVVZASSAZVBNMMNVVVBMmmMVCZAAZZVVVCZAAACBNMMNBVCCCVBNMNBVCCZAAAZCCZZZZZCZZZAZZCCZASDDDSSSAAZCVVVVBNNNNVVVVBBBVCCVBmnnnmMmnbvbnmNBBNMbbbnMBCZSSAAZZZCVBBBVCZZCVBNNMMNBBVBBNMMmmNBVVVBNMMMMNNBBBNmvcxcbmNVCZZAACBMbbmNBBBNMMMNVZZCNmnbnmMNBBNNNNNBCZAAACBNMMNBBBBBBBVVVVVVCCCZZZZZCVBNmmNBBBNMMNVVVVBBBVVVVVVCZZAAAAAAZCVVVVVVVVVVBBBBBBNNNMncxzcbmBCZZZZZZAAAAZVNMmNNNNNNBBVCVVVCZAAAAASSSSZCCCZZZCVVVCZAAAAAZCVBBBBVCZASAAZCVCCZSDDz",
"jVBBVCZZCCCVBNMmMNBBNNBVVVBNNNNBVCZAAASASSSSSAAZVVCZASSSSSSSSSAZBMnbmNCZZVNnvvnmNVCZZCVBNNBBVVCCZASAAZVBMMMNVVVBMmmMBCZZZZCVBVCZAAZVNMnnmNVCZZCVBBVCZZAAAAAAZZZZZZCCZAAAAACCZASSSSSSSAZCVVCVVBMmMNVCCCBBVCZZCVNmnnmMMMMmMMNNNNMmbbbmNVZASSAAZCCVBNMNBCZZZCVBNNNBBVVBBNNMMMBBVBNMmnnmMMNNNNNMnbcvbmMNBVCZZCBMnnMBVVBNMMNBCZCVMnbbmMNBVCCVVBBVCZAAAZCVVBVVBBNNNNBVCCCCCCCZZZCVBMmnvbnMNNMMNBCCCVBBBVCCCCZZAAAAAAAAZCVVVVBBVVCVBBBNMmnnmnvxzzxvnMVCZZCCZZZZZCBNmmNBBNMMMMBBBBBVCZAAASDDDDSAAAAAAZCCVVCZAAAAZCVBBBVCAASSAZCVVVCZSDDz",
"hBNNVCCCCCCCCBNMMNNNNNBBVVVBBNNNVCZAAAAASSSSSAZZCCCZASSSSSSSSAACNmbvmNVCCVMnvcbmNVZAAZCVBNNNBVVCZAAAZCVBMMNNVVVBNMMMNBCCZCCVVVCCZCVNMmnnmNVZAAZCVVVCZAAZZZZZAAZZZZCCZAASAZCCCZASSSSSSAZVVBVVVNmnmMVCZCVVCCZAZCBNmmmMNNBNNNMMmmnbvvbnMBCASSAZVBBBMmnmNVCZZZCCVBVVCCCVVBNNNNBVVBNmbbbnmMMMMNNNMmnnmMNNBVZZZCBNmMBVVVBNNNNBCCCVNmnnMNBVCCZCVVVVCZAAAAZZZCCVNMMMmMNBVCCCCCCCZCVNMnbvccbnMMMMBVZZCVBNBVCZZZAAAAAAAAAAAZCVVVBBVVCCVBNMmnbbnnvcxxcvbmNVCCCCCCCCCVBNmMNBVBMnnnMMMNBBCZZZASDFDDDSSSSSAAZCVVCZZAAZCVNMMNVCASDSAZCVVCZASDDl",
"fMMMBVCCZZZZZCBNNNNNNNBVCCCVBNMMBVCCZZAASSSSAAZZCCZAASSSSAAAAAZCNnvvmNBVVBMnccvnNVZAAZZCBNMMNBVCCZAAZZVBNMNNBVBBBNNNBBBVCZCCCCCCCVNMmnnnMBCZAAZCVBVCZZZCVVCZZAZZZZCCCZAAAZCCCZAASSSSAZCBNBVVVNmnnMVZZZCCCZAASAZVBMMNBVVVNMmbbvccccvbmNCASSZVMmmmnbbbmNVCZZZZCCCZZZZZCCBBBBVCVBMnvvbnmNNNMNBBBNMMNBVVCZAAAZVNNNVCCCVVBBBBVCCVBNMMNBBVCCCCVBBBCZZASSSSAACBMmnnnnmNVCCCCCVVCVNMbvccxcvnmmMNVZAAZVNNNVCZZAAAAAZZAAASAAAZZCVVCCCVBBNNmnbbnmmmnbbvvbmNVCCCCVVBVVBNMNBVVBmnbbnnnmNBVCCZASDDDDDDDDDSAAZCCCCCZZZZVNmbnmBCASDSSACCCZASSDSl",
"snmMNBVCZZAAZCVBBBBBBBVCCCCVBNMMNBVVVCZASSAAAZZCCCZZAAAAAAZZZZZCNmbbmNBBBBMnvcvnNVCZZZCCVBMMNBVVCCZZZZCVNMNNBBBBBBBBNNNBVCZZZZCCVBMmnnnmNVZAAZCVBNBVCCCVNBVCZZZCCCCVVCZZZZCVVCZAAASAZCBNNNBVVBmmmMVZZZCCCZASDDSZVBNNVVCVNmbvccxxcccbmNVZAACNnvbbbbvbmMBVZZAAZAAASSSAAZVVBBVVVBNmbbbnMNNMMNBVVVBBVCCZZAAAACBNNBVCCCVVVBNNBVCVBNNNNBBBVVVVBNNBVCZZASSSSACBmnbbbnmMBVCCCCVVBNMncxxxcvbnmMMBCASAZVNMNBVCZAAAAAZZZAASSSAAAZZCZCCVBBBBNmnnmMNNMmnbcvnMBVCZCVBBVVBBBBVCCBMbvvbbnmNBVCCCZADDDDSSDDSSAAZZCCVCCZZCBMbvvnBCASDSSAZZZASSDDSl",
"pbnmNBVCCZZAZCVVVVCCCCCCZCCCBBNNBBNNBVZASAAZZCVVCCCCZZZZZZZZZAAZVNMMMNNNBNNMnbbnNBVVVVCCVBNNBBVVVVVCZZZCBNMMNNNNBVVBNMMMVCZAZZZCVNmnnmmNBCAAACVNMMNBVVBNNNBVCCCVVVVBBBVCCCVVBBVCAAAZCBNNNBVVVBNMNBCZZCVBVCZADDDSZCVBVVVBMnbvvvvvvbbbnMBCAZVMvcvbnnbnmMNBCZZAASSDDDDSSACVBNBBVVBNMmmMNNMmmMNBVVVVCZASSSSAZVNMNNBVVVCVVBMMNBVVBNMMNNNNNNBBNNNNBVCZAASSAZVNnbbbbnmNBVVVCCVBNMnvxzzxvbmMMNBVZASSZVNNNBVCCCZAAZCCZASSSSSSSSAAZZCVBBVVVBNMMNNBNMnbccvnNBCZZCVVVVVVVCCZCBMnvvvbnmNBVVVCZASSSSAASSSSAZZZCVVVVCCVBMbvvnBZASDSSAAAASDDDDDl",
"abmMNBVVCCZZZCVVVCZAAAAZZZCCVVVVVBNNNVCAAAZZCVBVVCCCCCCCCCCCZAAACVBNBBBBBBBNMmmmNNBBBVCZCVBBVCCVBBBVCZZCVBNNNNNBBVVBNMmMBCZAZZZCVNmnnnmNVCAAZCBMMMNBVBNMMNBVVVBBBBBBNNNBVVBBNNBVZZZCBNMNNBBVVBNNBVZZZVNNNBCASSSSACVVVVBNmnbbbbnmmmmnmMBVZCBmvcvnMMMMMMNBVCZASSSDDDDDDSZVNMMNBVVVBNNBBNMmnmMNVVVVZASSSSSACBMmmMNBBVCCVBMmMNBVBNMMMNNNMMMNNNNNBBVCZAZZZCBMnbbbnmMNVVVVCCCBNmbvxzxvnmNNBBVCZSDSAZVBBVVVVVCZZCVVCZASSSSSSSSAZCVBNBVCCCVBNNBBNMnvccvnMBCZZZCCCCCCCZZZCBMmnnnmmMNBBBVVZAAAAZCCZZAZZZZZCVBBVVCVBMbbbmVZSSDSSAASSDDDDDDl",
"dMNBBVVVBVCZZCVVVCZASSSAZZZZCZZZCVBNBVCZAAZCBBNBVCCCVVVCCCCZASSSAZVVVVVVVVBBNNNNNNMNNVCZZZCCZZZCBNNBVCZZCVBNBBBBBBBNMMMMBVCZZZZCVBmnnnnMNVZZZCBNMNBVBNmmMNBBBNNNMNNNNMMMNNNNmmmNVCCVMmMNBBBBBBBBVCZZCBMmmNVZASSAZCVBBNNMmmmmmMNNBBNNMMBVCVNmbbmNVVVVBBNNBVZASSDDDSDDDSZVMnbnNVCCCCVVVBMmnnmMBBVVCZSSSSAZVNnbbnMNBVCCCBMMMNBBNMmmMNBBMMMMNBBBNNBVCCVVVBNMmmmmmMBVVVCCZZCBNmnbvvbmMBVVCCCZASDDSAZCCVBBNNVVCVBBVCAAAZZZAAAZCVNMMMBCZZCVVBBBNmnvccbnMBVCCZZAAAZZZZZCVBBNNNNNNNBBNNBVZAAACVBNBBVVVCCCVBNNBVVVBNmmmNVZSSSSAASSDDDDDDDl",
"fNBVVVVBBBVCCCVBVCASDDSSAZZZAAAAZCVBVVCCZZZCBNNBVCCVVVVVVVCZASSSAZCVVCCCCCVBBBBBNMMMNVZAAAZZZAZCBMMNVZZAZCVBVVVVVVBBNNNNNBVCCCCCCBMmnnnmMNVCCCBNNNVVBMnnmNBBNMMmmmNNNNMmMMNMnnnMVCCVNMMNBBBBBBBBBVCCVNmmmNVZAAZZCVBBNNMMMMMMNNBVCCVBNNNBBNMmmMBCZAAZCVBNBVZASDSSSSSSSAZVmbbnNVZZZZCCCBNmbbnmNBBVCZASSAZVNmbvbnMNBCZZZVNMNNBBNMmmMNBBNMMNBVBNMMNBVVBBNNNNMMMMMNVVCCZZAACVNMmnnnmNBVCCZZZASSDDDSAAZCVNmMNBVBNBBCZZZCVVCZCCBNMmmMBCZAAZCCVBNMbvcvbnMNBVVCZAAAAZZCCVBBBVVVVVVBBNMMNBCZAZCBMmmmMNNBVVBNNNBBBBBBNNNBCZASSSSSSDDDDDSSDl",
"fNBVVVVVBBVCCVBNBVZSSDSSAAAASSSSZCVVVVVVVCCCVBBBVCCVVVVVBBVCASDDAZVVVVCCZCVBBBVBNMmMBCASAAZZZZZCBNMNVZAAAZCVCCCCCVVVBBNNNNNBVVCCCVNMnbbbnmNBVVBNNNVVNmvvmNBBNmnnbnMNNNMmmmMmnbnmBCCCBBBBBBBBVBBBBBBBBNMMNBCZAZCVBBBBNMMMNNBBBBVCCCCVBNNMMmnnMBCASSSAZCBBBVZASDSAAZZZAAZVMnbnNVZZZZCCCVNmbvbnMNNBVCAASACBMmbbbnMBVZAAAZVBNNBBNMmmMNBBNNNBVCVNmmMNBBMMMMNNBBNNMNVCZZAAAAZVBNMMMMNBVVCCZZZASSDDDDDSSZVNmmMNBBNNBVCZVBNMBBBNmnnnmMBCASSAAZZCBMnvccbnmmMMBVCZAAAZCVBNMNBCZZCCVBNMmmMBVCZCVBMnbbbnmMNNNNNNBNMNBBBBBBVCZAASSSDDDDSSSSSk",
"dMNNBVVBNNBBBBNNNBCASDSSASSSSSSAZCCCCVVBBVCCVVBBVCVVVVBBNNBVZASSAZVBBBVVCCVBBBVVBMmMBCASAZCCCCCVBNNBZASSAZCCZZZCCCCVVBBNMMMNBBVVCCBNmnnbbnmNNBNNNNVVNmvvmNVVNmbbbnMBBBMmmmMmnnnMBCCCCVVVBBBBVVBNMMMNNNNNBCZAZCBNMMNNNMMNBBVVVVCCCCVVBNMmnnnmNCADDDDSAZVBBVZASSSAZCVCZZCBMmnmBVZZZCCCVBNMbvbnMNNNBCZAAZVNMnnnnmNVCZASSACVNNBBNMMmMNNNNNBVCCVNmnmMNNmmmMNBBBNNMNBCZAASSAZCVBBBNNBBBVVCCCZZASDDDDDDSAVNmnMNNNMMNBCCVNmmMMmnvvbnmNBCASDSSSSZCBmbvvbnnnnnmNBVZZZZCVNMmMBCAAZCVBNMmmMNNBVVVBMnvcvbnmMMMMNNNMmmNBBBBBVVCCASSDDSSAAAAAZj",
"pvbmMNBNMMMMMMmmMNVZASSSSSSSSAAAZCCCCCBNNBCCCVVVVVBBBBNMmmMBCZAAAZVBNNNBVVVVBBVVBNMMBCAAZCVBBBBBBBVCASSSAZCCCCCCVVCCVVBNMmMMMNNBVCVBNMmmnnmmmMMNNNVVBMbbmNVVNmbvvnNBVVBNMMMMmmmMBVCCCCVVBNNBBBBNmnnmNBBVCZAACVMmnnMNNNBBVCZZCVVVVVVBBNMmnbnMBZSDDDDSAZVBVVZASSAZVBBBVVVBMMMNBCZZZCCVBBNMnnnmNNNNBVZAAZVNMmmmMNVCZASSSAZVBNBBBBNMMMMMMMNVCCVNmnmMNNmnnmNBVBNMmMBCZASSSSAZCVBBNNMMMMNBBVCZASSSSSSSSAVNnnmMNNMmMNVVBNmnmnbcxxvnMBCZSDDDDDDSZVNmnbnnnbvvbnmMBCZZCVNMMNVZAAZCCVBNNMNMMMNBBBMnvcvbnMMMMMNNNMnnMNBBBBBBBBCASDSAZCCCCCCh",
"uxvbmMNMmmnnnnnmmMBCZASSSSSAAZZZCCCCCCBNNBVCCCVVVBBBBNMnbbmNVCZZAZCVNNNNBVBBBBVVBNMMBVZZVBNNMMNNBVCZSSDSAZCCCCVVVVCCCVBNMmmmmMMNVVVVBNNMmmmmnmMMNNVVBNmnMNVVBmvvbmBVCVBBNNNMmmMMBVVVVVVVNNNNNNNMnbbmNVCCZAAZCNmbvvmMNBVCZZZZCVBBBBBNNNMmnnMNCADFFDDSAZCVVVZASSACBNMMNBBNNNNBVCZZZZCVBBNMmmMNNNNNBVZZZCVBNMNNBVCZAAAAAAZCBBBVVVBBNNMmmMNVCZCBMmMMNMmnbnMBVVBMmMBCZSSSDSAZCVVBBNMmmmMNNBVCAAAAAASSSAVNnnMNNNmmmNVVBNmnnnvcxxvnNVZASDDDDDDDAZBNMMMMmbcccvbmNBCCCCBNNBCZAAAZCCVBBBNNMmMNBNMmbvvnmMNNNMNMMmnnmMNNNNNNMNCZSSAZCVVVVVVg",
"ixvbmMMMnbccvvnmMNBVCZASSSAZCCCCCCCZZCBNNNVCZCCVVBBBNMmnbbnMBVCCZZZCVBNNBBNNNNBVBBNNBBVVNMMmmmmMNVCZSSSSAZCCVVBBBVCZCCVNMMmmmmmMBVCCVVBNNMMmnnmMNBVCVBMMMNVVBMbbnMVZCCVBNNNMmmmMNBNNNNBBBNMMMmmnbvbmNCZAAAZCBMnvcvmNVCCZZAAZCBNMMMMMMMMmMMBCASDDDDDSAAZCVVCZAACVNmnmMNBBBBBVCCZAAZZCVBNNNNBBBNMMNVCCVVBBBBVCCZAAAAAAAAAZCVBVVCCCVBNmmMNBCCCVBNMMMMnbbnMVCZVBNNVCZASSSSAZCCVVVBNMmmMMMNVCAAZZZZZAAZVNmmMBBNMMMNBVVBNMmnvvxcbmBCZASSSSDDDDSAZVVBBBNmbvvvvbmNVCCZCVVCZAASAAZZCCCCVNMmMNBBNMnbnnMNBBNNNMMmnnmmmmMMMMMNCZSAZCBNBVVVBg",
"pvbnMNNMnvcxcvnMNNBVCCZAAACVVVCCCCCCCVNMmMBCZZCVBBBNNMmnnnmMBVVVCZZZCVBNNNMMMMNBBBNNNBBBMMMMmmMMNBVZASSAZCVVBBNNBVZZZCVBNMmmmmmMNBCCCCVBNNMMmmMMNBVCCVBNNBCCVNmnMBCZZZVBNNNMmnmMNNMmMMBBBNmmnnnbbbnMVCAASAZVNMnvvbmBVZZZZZAZCBmmmMMMMMMMNBCZSSDSSSAAAAZCVBBVCCCBMmmmNBBVVVVVCCZAAAZCVBNNBBVCVNMmNBVVBBBBVVCZAAAAZZZZZAAACVBBVCZZCVNMMMNBCCZCBNmmmmnbbnNVZZCVVBVCZASSSSAZCCCCVVNMmmMMNBVZAZCCCCZZZCVNMMBVVBNMNNBVVBNMmnbbbbnMVZASSSSAAASSSSAZCCCVBNmbbbbnmMBVCZZZZZZASSSSAAZZZZVBMmMNBBBNmmmmMNBBBNNNNMmnmmmmmMMMMNCZAAZVNNBVCVVg",
"smMMNBBNMncxcbmNBVVVVVCZZCVBNBVCCCVVBNmnnmNVCCCVBNNNNMMMMMNBVVBVCZAAAZCVBNMmmmMNBBNNNNNNMMNNNNNBBBVCZAAZCVBBNNNNBCZZZZCVNMmmMMMMNBCZZCVNMMMMMMMNBVCCZCVVBVCCCVNNBVZZZCVBNMMmnnnmNNMmmMNBNMnbbbbbnmMBCZASSACVNMmmnmNBCZZZZZZCVNmnmmMMMNNNBVZAASSAAZZZAAAZBNNNBVVBNNNBVCCCCCCVCZZAAAAZVBNNBVCCVNmnMNBBNNBVCZZAAAAZVVBVCASAZVBNBVZZZCBNNBBVCCCVNmbbbbbbbmBCAAZZVVBVCZSSSAZCCCCCCCVBNNNNBVZZAZVVVCZZZCBNNBCCCVNNNNBBBBNMmnnmmMNVCAASSAZCCCZAAAAZZZZCCVNMMmmmMMNBCZAAAAAASSSSAAAAZZCBMMMNBVVBNMMMMNNNNNBBBNMmMMMMMMMMNBCAAACVBBVCCCVg",
"fNNNBBVBNmbvvbmNVCCVBBCCCVNMMNVCCVBNNMnbbnNVCZCVNNMMNNBBBVVVVVVVCASSAZCVBNMmmmmMNNNNMMNNNNBVVVVVBBVVZAAZCBNNMMMNBVZZZZCVNMMMNNNNNBVCZCBNMMNNNNNNBVVCCCVVVVCZZCVBVVZZZCVNMmmmnnnmNNMMMMBBNMnbbbbnmMBVCZASSACVBNNMMMNBVCCCCVCCVBMmMMNNNBBVVCZAAAAZCVVCZAAZBNMMNBVVBBVVCZZZZCVVVCZAAAZCVBNNBCZZCBmmMNBVBNBVCZZAAAZVNMMNVZSSZCNNBVCZZCBBBBVCCCCVMncxcvbbnMVZAAAZCVBBVZASAAZCVVVVVVVVBNNBVCZAZCVBVCZZZCBBVCZZZCBBBBBBBNMmmmMNNBVCAASSAZCBBBVCZZZCCCCCCCVBNNMMNNNBCASSSSAASSSSAAAZZZCBNNNNVVVBNMMMMMMMMNBBVBNNNBNNNNNNBVZASACVBBVCCCVg",
"gBBBNBVVVNmbbbMBCZCVBBVVBNmnmNVCVBMmmnbbbmBVZZCBNMMMNBVCZZZZCCCCZASSAZCVVBBNMMmMMNNNMMNNBVCZZZZZCVVCZAAZVBNMMMMNBVCZZZCVNMMMNNNNNBVCCVBNmmNNBNNNBBBBVVBBBVCZZZCVVVCCCCBMmnmmmmmMNBBBBBVBNmnbbbbnMNBVCZASSAZCBBBBBBBBBBBBBBVVVVBNBBBVVVCCCZZZZCCVBBNBCZAZBMmmNBVVCCCCZZAAZCVBNBCZAAZCBMMMBCZACVNMBVCCVBVVCCZZZCVBmmmMVZAAZVBNBVCCVVBBBVCCCCVNmvxzzcbnMNVCZZZCVBNNVCASSAZCVVBNBBBBNNNNVCAAZCBBVCZAZCVVCCAAZZVVVBBBNMmmmMBVVCZASSSAZCBNMMNBBVBBBBVVCCVVBNNNNNBVZASDSSSSSSSSAZZZCCCVBBBBVVBNMMMMmmmmmMBVVVBBVVVVBBBBVCASSSZCVBBVCVBf",
"gBBNNNVCCVNmnmNVZZZCBBVVBMnbmMBVBNmnnnbnnMBCZZCVBNNNBCZAAAZZCCCCAASSAZZCCCVBNNMMNNNNMMMNBVCZAAAAZCCZASAZVBNMNMMMNBVCZZCVNMMNNNMMNNVVCVBNMMBBVVBBBBNNNNNNNNVCZZCVVVCCCCBMnnmmmmmMNBVVCVVBMmnnbbnnmNBVCZAASAZCVVVVVBBNNMMMmMNVCCVVVVVCCCZZZZZZCVBNMmMNVCZCBNmMNBVCCCCCCZAAACBNMMBCZZCVNmmMBCZAZCVVVCZZCVVVCCVCCCVBMmmMVZAAZVNMNBVVBNNNBVVCCCVNmvzlzxbmMBVVCCCCVBNNVCASSSAZCBMMMNNNNMMNVZZZCBNNBCZAZZCVCCZAZZCVVBNNMMmmMNVCZZZASSSZCBMmmmMNNNMmmmMNVVVVBNMMNBBVZASSSSSSSSSAZZCCCVVVVBBVVVBNMmMMmmmmMNVCCCVVCCVVVVVCCZASSSACVBBBBBNf",
"fNMMMNVZZZVNMMBCAAAZCCCCVNmnnmMNMMnnnnnmMNVZAAZCVBBBCZAAAAZCVVVCZASSAAZZZZCCVBBBBBNNMMMNBVCZAASSAZZASSAACVBBBNMMMMBVZZVBMmMNNMmmMNVVVVVBBBVCZCCCVBNMmmnnmMNVCCCCVVCZZCBNmmmmmnnmNBCZZCVNMmmnnnnnmMBVVCZAAAZCVBBBBBBBNmnbvbMBCZZZZZCZZZAAAAAZVBMmnnmMBVCCVBNNBVVVCVVVBVZZACBMnmNVCCVBMmMNVCZZZAZZAAAZCVVVVVBVVCCVNNNBCAAACBMmMNBNMMMNNBBVVVVBmbxlzcbmMNNBBBVVVVVVCZASDDSACBMmmmMMmmmNVCZCBNMMNVCZZZCCVVCCZCCVBNMmmmMNNVCZZZZZAAZVNMMmmMMMmnbvcvbmNBVBBNmMNBVCCZZZAAAAAAAZCCVVVVVVVVVCCVBNMmMNNMMNBVCZAAZCCVVVCCCZZASSDSAZBNMMNNNf",
"fNMMmNVZAACVNBVZASAAZZZZCBmnbbnnnnnnmmmMNBCZAAZCBBBVCZAAZZCCVBBVCZASAAAAAZZCCCVVVVNMmmmMBBVCZASSAAAASSAZCVVVVVNMmMNVCCVBMMMNMMnnMNVVVVVVVCZZAAZZCVNmnbvvbnMNBVCCVCCZZCVNMMMmnnbnMBCZZCBMnbnnbbbnmMBVCCZZZZCVBBNNBBVBNmvxxcmBCAAAZZZZZAASSSACBNmnnnmMNVCCVVBBVVVVVBNNNBCZZCBMnnMBVVVBMMMNVCCZAAASSSAZCVVVVVBBCCZCVVVCAASAVNmmMNNMmmmMNBBBBVVBNncxcvmMNNMMNNBVCCCZZASDDDDSZVMmnnmMmMMNVCCVNMmmNBCZZZCVVVVVCCCVBNmnmMNBVCCZCCCCZZCBMmmMMMMMnbcxxcvnMNBBNMmmMBVCZZCCCCZZZZZCVBBBBBBBVVCCCVBNMmNNNNNNBCZAAAZCVVBVCZZAAASSSAZCBMmmMNNf",
"gNMMMNCZAAZCVVCZASAAAAAAZVNnvcccvbnmmMMMNBCZAAZVNNBVCZZCVVVVBBNNBCAASSSSAAZCCCCCCVNMnnmMNBBVCASSSAAAASAZVVVCCCVNMMBVCCVBNNNNNMmmMBVCVVVCCZAASSAAZCBMnvcccvbmMBVCZZZZZCVNNMMmbvvbMBCZCBmbcccvvvbnmNBCCZZCCVBBMMmMNBVVNmczzxnNCZZZCCZZZASSSSACBMmmnmMNBVCCCCCCCCVVBNMmmMBCZCVNmmMNBBBBNNBBVVVCZASSDSAZCVVCCCVCCZZZCCZZSSSACBmmMNNMmnmMNBBBBBVVBMnbbmNBNNMMMMNVCZAASSSDDDDDACBMmnmMNNBVCZCVMmmMNBCCCCVVBBBBVVVVNMnnmMBVVCCCVVVVCCVBMmMMNNMmbvxzxcbnmMBBNmnnMNVCCCVBBVVCVVVBNNNNBBNNBBVVVBNMmMNNNNMMBVZAAAZCBBBVCZAAAAAZCCVBNmnmMNNf",
"hVNNNBCASSAZVCZAAAAAAASAZCNmvxxxcbnmMMMNNBCZAACVNMBVCZCVBBBBBNMMBVZASDDDSAZCCCCCCVNmnbnmMNBVZASSSSAAAAZCVVVCZZCBNMBVCCVBBBBBBNMMNBVVVVVCZAASSSSAAZVNnbvcvvbnMBVCZZZZCVBNMMMmbvvbMBCCVNnvxzxccvbnMBVCCCCVVBNMmnnmNBVVBMvxxcmBCZCCVVVCZASSDSACBMMMMMNBVCCZZZZZAZCVBNmnnmNVCCVBNMMNNBBBBBVVVVVVCASSDSAZCCCCZZCCCCCCCCZASSDSCBMMNNNMmmmMNBBBNBVVVBMmMNBBBNMMmMNVZAASSSSDSDDDSZVNmnmMNBVCZZCBMmmmMNVVVVBBBBBBBBNNMmnnmNBVCZZZCVVCCCVBMMMNNNMmbvcxvbnmmMNBNMnnMBCCCVBNNBVVBBBNMMNNBBNNNBVVVBNMMMNNNMmmMBCAAZCVBNBBCZZAAAZCBNNMmmmmNBBg",
"kZCCCCZASSAZCCZAAZZZZASAZCBMbvxcvbmMNNBBVVCZZZCVNMBVZZCVNNNNNNMMNVZASDDDSAZCVVVVVBMmnbbnMNBVZASDSSSSSAZCVVVCZZCVNMNBVVBBBVCCVVBBBBBBNNNVCASSSSAAAZCBMnbbbnnmNBVCZZCCBNMMMmmnvvbnNBCCVNnvxzxxcvnmNVCCCCVBBNmnbbbnNBCCCBmbbnNVZZVBNNBVCZASSSACBNNNBVCZZZZZZZAAAAZCVNmnbnMBCCCCVBNNNBBVCCCCCVBVCZASSAAAZZZZZZCVBBVVBVCZSSDSZCBBBBBNMMMMNBBBNBVCCVNNNBVVBBNMMMBCZAAASSSSAASSSZVNmnnmNBCCZCVBNmmnmMNBBBBBVVVBNMmnnnbnMNVCZZAZZZZZAAZCBNNNNNMmnbvbnMNNNNBBBNmmNVCCCVBNBBVVBNNMmmNBVVBNNNBVBBNMMNBBMmbbnMVCZCVBNNBBVCZZZCVNmnnnnmMNVCCh",
"kAAZZAASSSAZZZZAAZZZZAAAZVBNmbbbbnmMNBBVVCCZZZCVNNBCZZZVNMMMNNMMBVZASDDDDSACVBBBBNMmnnnnMBVCZSSDDSSSAAZCVVVCZZCVNNNBBBNNBVCZCCVBBNNMmmMNCZASAAAAAZCVNMMmmMMNBVVCCCCVBMmmmmnbvbnMNVVVBNmnvcvvvbmNBCCCVBBNNMmnvvvnMBCZZCBMMNVCZZVBMMNBVCASSSAZVBBVCZAAAAAZZZASSSAZCBMmnnMNVCCCVVBBBBVCZZZZCVBVCZAAZZZZZAAAAZVBNNNNMNBCASSSAZVVVVVBNNMNNNBBNBVCCCVVVVBBBBBNNNBCZAZZAAZZZZAAAZVNmnnmMBVCCCVBNMnbnnMNBBBVVVVBmnvvvvvbmNBVCZZAZZAAAAAZCVBNNNMmmnnmNBVVBBVVVBNNBVCCBNNNNBVVBNMmnmNBCCVBNBVVVBNNNBVBNmnbnMBVVVBNNNNNBVVCCVBMbvvbnmNVCZZk",
"kASSSSSSSAZZCCZZZZZZZZZCVVBBNMMmmMMMNNBVCCZZZZCVVVVCZAZCBMmmMMMNBVZASDDDDSAZVBBBBNNMMmnmNBVZASSDDSSAZCVVBBVVZZCVNNNBBNmmMBCZZCBBNMmnbbnMBCZAAZZZZZZCVBBBBBVCCCCVVVVVBMmnmnbvbnMNBBVVVVBNMmmmnmMNVCCVBNMMNNMnvvvbMBZAAZCVBVCAAAVBMmMNBCZASSAZCVVCZASSDSAAZZASSAZZCVBNMMMNBVCCVBBBBVCZAAAZCVBBCZZCCCCZZAAAZCVNMmmnnmNVZAAAAZCVVVCCVBNNNNNBNNVCZZZCCVNNNBBBNNBVCCCCCCCCVVCZZCBNMMmmMNBVCCCVBMbvcvnmNBVVCCVNnvxzzxxcnmNBCZZZZAAASSAAZCVBNMmmMMNBVCZZCCCZZCCCCCVBMmnmMBVCVBMmbnNVCCVVVVCCVBNNBVCVVNMmmMNBBBNNNNMMMMNBBNMmbvvvnMBCASSl",
"jZASSDSSAZCVVVCZZZZZZCCVVBVVBBBNNMmmMNBVCZZZCCCVVVCZZAACBNmnmMNBVCZASDDDDSAZVBBBBNMMMMMMNBCZASSDSSAZCVBBBBVCZZCVNMNNNNmmMBCZCVBMmnbbvbbmNVZZZZCCCCCCCVVVVCZZAZCVBBVVBNMmmnbbbmNNNNNBVCCCVBNNMMNBVCCVNMMMBNMmbvvnMVZASAZCVCZASACBMmMNBVZASAAZCCVCASDDDSAZCZZAAZZCVVVBBNMMNBBVBBBBVVCZASAACVBVCCCVBBVCZAAAACVNmnnnnmNVZZZZZZCCCCZZCVBNNNNNNNVCZAAZCVNNNBBBNNNBVVVVCCCVVVCZZCBNNNMMMMBVVCCVBMnvcvnmNBVVCCVBmvxzzzzcbmMBVCCZZZAAAAAAZZCVBNMMMNBVCZZAZZZZZZZZZCVNmbvbnMBCVBMmnnNVCCVVVCZZCCVVVCCCCVBNMMMMMMMMNNMmnnmMNMMmnbvbnMVZSSDz",
"gVCZASSAZCVBBBVCCZZZCVVBBBVVVVVBNMmmMNBVCCZCCVVVVVCCZZAZVNmnmMBVVCZASSDDDDSAZCVBNMmmMMMMNBVZAASSSAZCBNMMNBVCZCVBMmMNBBMMNBCCCBMnvcvvbbnmNVCZCCVBBBVVVVVVCCAAAAZVBBBVVVBNMmnbnMNNMmmMBCZZZCVBNNNBVCVBNMNBVVNmbvbmNVZAAAZCVVZASAZVMmMNBVZAAAAZCCVCZASDSACVBVCCCCVVBVVVVBMMMMMNNBBVCZAASSSACVVVCZCVBBVCCZAAAZCBMmmmMNVCZZCCCCCCCZZZZCVBNNNNMNBVCZAZCVBNBBVBNMMMNNNBVCCCVVCCCCVBBBBNNNNBVCCCVBMnbnmMNBBVVCCVNmbcxxxcbmMNBVVVVCCCVVCCZZZCVBNMNNBVCCZZZZZZZZAZZCBMnvxxvnNVVBMmmMBVCCVVVCZAZZCCCZCCZCVBNMmmnmmMNNmnbbmmMMMmmnbnMBCASSDl",
"fBBCAAAZCVBNNNBBVCCCCVBNBBVVCCCVBNmmMNVCCZZCVVBBBVVCCZZZVBmmMNBVCCZZASSDDDSSAZCVNMnnmMMNMNVCZAAAAZCVNNMMNBCCCCBMmmMNBVBNBVCCVBmbcxcvbnmMNVCZCCBNMMNBVVVVVCAAAACVNNNBVVVVNMmmMMNNmnnmNVZZCVBNNMNNBBBNMMBVCCBMnnnMNBCCZCCVBBVZAAZVNMMNNVCZAAAZZCCCZADSACBNMNNBBBBBBBVVVBNMmmMNNBVCZAASDDSACVVVCZZCVBVCZZASAACBNMMMBVCZZCCCCCCCCZZZZCVBNMNNMMMNVCCZCVBBVVVVNMMMMNNBVCZZCCCCCCVBBBNNNNNBBVVVVBNMmMNNNNNBVCZCVNmnvccvnMMNBBBVVVVBNNNBVCCCVBNMMNNBVVVCCCCCCCZZCVBMnvxxcbMNBNMMMMBVVVBBBVCAAAZZZZZZZZCVNMmnnnmMNNmbvvbnMMMMmmnmNVCAASSl",
"fNNBCZZCVBNNNNNBBVCCVBNMNBVCZZCVBNMMNVCZZZZCVBBNNNBBVCCCVBMMNBVVVVVCZAASSSSSAAZCNmbbmMNMMMBVCCCCZCCVBNNNBVCCCBMmnmNBVCVVCCZCVBMnvcvbnmMNBVZZZCBMmnmMBBNNBVZAAZVNMmMNBVCVVNMMNNNMmnnmNVCCBNMmmmmMNMmmnMBCZZVBMmMMMNNBBBNNmMNVCZCVBNNMNBCZAAAAZZZZASSSZVMnnnnnmMNBBVVVCVBNNNNBVCZZAASSDDSACVBVCZAAZCZZAASSSAZVNNBBCZZZCCCCCCVCCZZZCVBNmmMMMmmmMNBVCVVVVCCVBNNNNBBVCZAAZZCCCCVBNNMMMMMMNNNBBBBNNNBBNMMNBCZAZCBMmnnnMNNBBBBBVVBNmnmMNBBBBNMmmmMMNNNNNNNNBBVVBBNNmnvccbmMMMmmMNBVVVBNMNVZAAAAAZZZZCCVBMmnnnmMNNmbcxvbmMMMmmmMNVCZZAAk",
"fNNBCZZCBNNNNMMNNBBBBNMMNBCCZZCCBNNNBCZAAZZZCVBNMMNBVVCVBBNNNBVVBBBVCCZAAAAAAAACBMnnMNNNNNBVVVVVVVVVBBNBVVCVVNmmmmNBVCCCZZZZVBNMnnnmMNBBVCZZZCBMnbnMNNMMNBCZZCBNmmmMNBVVVBNMNMMmmnmMNNBBNMnnnnmmmmbbnMVZAAZVBNMMmmmMNNMmnnMNBVVVBBNNNBVZZAZZZZZZAASACBmbvvvvbmNBVVVCCCVBBBBVCZAASSSSSSSACVNBCZASAAAASSDDSSACVBVCZZZZCCCCCCCCCZZCCVBMnnmmMmmnnmNBVVVBVVCCVBBBBBVCASSSAZZCCVBNMmmmMMMmmmmMMNNNNBBBNMmMBCAAAZCBNNMMNBBBBVVVCVBNnbnnmMMNNNMmnnnnnnnnmmmMMMNNNNNNMmnvbnmMMmmmMNBVVBNMmmBCASSAAAZZZCVBNMmnnnmMNMnvxzcvnmMMmmMMNBCCZZZj",
"hVVVCZCCVBNNMMmMMNNNMMmmMBVCZZCCVBBVCZAAAAAZCVBNMMBBVVVVBNNNNBBBNNNNBVCZZZZAAAACBMmmNBBBBBVVBBNNNBVVVBNNBBVVNMmmmMNBBVVCZAAZCVVBNNBBVVVCCZZCCVBMnnmMNNMMNBCZZVNMMmMMMNBBBNMMMmnnmmMMMMMMmnbbnnmmmnvvnMVZSSAZVBNMnbbnmMMmnnnmMNNNBBBBBBCCZZZCCCCCZZAZVNnvvcxcvnNBVCCCCCCVVCCCZASSSSSAAAAZVBMNVZASAAASSSDDDSAACCCCZZCCVCCZZZZZZZZCCVBMnbnmMMmnnnMNVVBBNBVVVVVVVVCZASDSSAZZCVNMnnmmMMmnbbbnmmmMMMNNMmnmNCZAAZCVVBBBVVVVVVCCZCVNmnnnnnnmMMmmnbbbvvvvvbnnnnmmMMNNNNMmmMMMmmmmMNBVBNmnbnNVZASAAAZZCVVBMmnnmmMNNMbczzxcnmMMmmMMNNBVCCCj",
"jCCCCCCVBBBNmmmmmMMMmmmmNBVCZZCCVVVCZAAASAAZZCBNNNBVCCVVBBBNNNNNNMMNBVCCCCCZAAZCVBNNBBBVVVCVBNMMNBVCVBNNNNBBNMmmMMNBBBVCZAAZCCCVVVCCCCCCCCCCVBBMmnmMNNMMNVZZZVNMMMMMMMNNMMmmmnnnmMNNMMMmnnbnmmMMmnbbmMVZAAAAZCVNnbnmMNMMmnnmmMMMNBBBBVCCCCVVVVVVVCCCBMbccxxcbmNBVVVVCCCCCCZZAASSSSSAAZZZVNMMBCASAAAASSSSSSSSAZZZCCCCCCZZAAAAAAZZCCVNnbnmMMMmnmMNVVBNNNNBVVVBBVCZSDDDSAAZCVNmnnmmMmmbvvvbnmmnnmMNMmnmNVZAZZCCVVVCCCCCCCZAAACBMmmnnnnmMNMmnnbvvvcvvbbbbbnmmMNNBBNNNNNNMMmMNBVVBNmbvbMVZASAAAAZCVBNMmnnmMNNMmbcxzxcnmMMmmMMMNNBCCCj",
"jZCVVVBBBNNMnnnnmMmmnnmMNBCCZZCCVVVCZAAAAAAAZCVBBBVCZZCCVVBBNMNNMMMNBVVVVVCCZZZCCVVBBBBBVCCVBNNNBVCCVBMMMMNBBNMMMMMMMNBCZZZZCCCCVCCZZZCCCVVBBNNMMMMNBBNNVCZAZCVBBNNNNNNMmmnnnnnnMNNBNNMMmmmmNBBBNMmnmNBCZZAAAZZVNNNBBVBBNMmmmmmmMMNBVCZCVBNMMMNNBBBBMncxxxcbnMBVVVBVVVCCCZZZAASSSAAAZZZCVNMMVCAAZZZAAASSASSSSAZCVVVCCZZASSSSSSAAAZCBmnmmMMNNMNBVVVBNMMNNBBBNNNVCASDDSSAZZVBMmmMMMmnbvvbnmmmnnnMMMMmmNBCZZCCVVVVCZZZZZASSSSACBNNMMMMMNBBNMmnbbbbnnnbbbnmmMMNNBBBNBBBBNNNNBVCCVNnbvbMVZASSSAAZCCVNMmnmMNNNMmbvccvbnmMMMMNNNNNBCZZj",
"kZCVBBNNNNNMmnnnmmmnbnmNBVCCZZCVBBBVCZZZAAAAZCVBBVCCZZZZCCVBNMNNMMNBVVVVBVVCCCVVVVVVBNNNBVVBMMMNVCCCVBMMMNNBBBNMmmnnmMBVCZZZCCCVBBVCCCVBBBNNMMMMMMNBBBBVCZAAZCVBBNNNNNNMmnnnnnnmMNBBBBBNMMMNBVCVBNMmmmMNVCZAAAAZCVVCCCVVBNMMMMMmmMNBVVCCBNMmMMNNNBBNmbxxxcbmNBVVVVBBBBVCCCCCZZAASAAZZZZZVBNNVZZACCZZZZAAAASSSSZCBBVCZZZASSDDDDSSSAZVNMMMNNBBBVVCCVBNMMNNBBNMMNBCASSSAAAAZCVBNNBNMmnnbnnmMMmnnnmMNMMMNBVCCCVBBBVCZAAAASSDDSSZCVVBBNNBVVVBNMmmmmMmmnbbbnmMMMNNBBBNBBVVVBBVCZZZCBMnnnNBCZAAAZZZCCVBNMMMNBBBNMnnbnnmMMmmmMNBNNNBCZAk",
"jCVBBNNMNNBNMmnnnmmnnnMNVCCZZZCBMmMNBVCCZZZZCVVBBVVCCZZZCCVBNNNBBBBVCCVBBBBVVBNNBVVBNMmmNNNMnnmNVCCVVVBNBBBVVBNMnbbbmMBVCCCCCVBNmmMNBBNMMMMMMMMMMMNNBVVCZAAACVBBNNNNBBBNMmnmmMMMMNBVCCCVBNNBVCCCBNmnbbnnmNVZSSSSAAZZCCCVVBBBBBNNMMMNNBBBNMmmMNBVVVBNmbcxvbMNVCCCVVBBNBBBBBBBVCZAAAAAZZZZCCVVZZAZCCCCCZZZZZASSAZCVVCZAAZZASSDDDSSSAZCVBBBBBVVCZZZCVBNNNBBBNMMMNVCZAAAZZZZZZZCCCCVBNMmmMNNBBNMmmmMNNNNNBBVVVBNMMBCZAAASSSDSSSAZZCCVVVVCCCCVBNNNNNNMmbvbnmMmmMNBBNMNNBVCCCZZASAZCBNMMNBVCZZCCCCCCCCVBBBVCCVVBNNMMNNMMmnmmNBBVVVCZAk",
"jCVBBBNNNBBBNmmmmmmmmMNBVCCZZZVBmnnmMNBVCCCVVBBBVVVVVCCCCVBBNNBBVVVCCCCVBBVBNMmMNBVBNMmmNNMnbvnMBVVVVVVVVVVVVBNmnbvbmNVCCCCCVVNmbvnmMMmmnmmmMMMMNNNBVCCZZAAZCVBNMMNNBVVBNMmmMMMMMMBVCZZCVVBVCCCCBMnbvvvvbmBZASSSSAAZCVVBBBNNBBBBNMMMMMMMMmmMBVCCCCVBMnvvbmNVZAZZCVBBNMMMMMMMNBCZAAAAZZAAZZCZZAAZCCCCCCZZZZAAAZCVBBCZAAZZZAASDDSSSAZCVVVBBBVCZZAZCVBNBVVVVBMMNBCCZZZCCCCCZZZZZZZCVBNNNBBVVVBNMmmMNBBBBBBBVBMmnmNVZAAAAASSAAAAZZZZCCCCZZZZCCVBBBBNMnvvvnmMMMNBVBNNNNVCCZAASSSSAZCVBNNNBVCCVBBBVCCCCVCCZZZCCCVVBBBBBNmnnmNBVVCCCZAk",
"jZCCCVVBBBBBNNMMMMMMNNVVCCCZZZCBmnbbnmNBVVVBNNBBVVBBVVVVBNNMMMBVVCCCZZZCCCVBMmbnMNBBNNNNBBMnvcbnMNBBVCZZZZCCVBMmnbnmMNVCCVVVVBNnvcvbnmnnnnmMNBBVVVVVCCCZZAAZVBNMmMNBVCCVNMMMMNMMmMNVCZZZCCCCCCCVNMbvvvvvbnBCASAZZZCCBNNMMMMMMNBBBBNMmmmmmMMBVZAAZCCVNMnnnMVZASSAZCVNMmnnbbbbnMBCASAAZZAAAAAAAAZZCCCCVCCZZZZZCCVBNNVCAAZZCZASSSAAAZCCVVVBNNBVCZZCVNNNBCCCCVBBVCZZZCVVBBBVVCZZZZAZZCVBVVVCCVVBNMMMBVVVVBVBBNmnbnNVCZZCZZZZZCCCCZZZZZZZAZZZZZCVBNNNmnvcvbmMNBBVCCVBBBVCZZASSSSAAZZCVBNNNBVBNMmMBVCCCCCZZZZZZCCCCCCVVBMmmmNBVCCCZZZk",
"kZZZZCCVVBBBBBNNNNMNBVVCCZZZAZCBMnvvbnMBVVBNmMNBVVVBVVVVNMMmmMBVVVBVCZZAAZCBMnbbMNBBBBBVCVNmvvvnmNNBCZASAAZCCBMmnnmMNBVCCVVBBBMnvcvbnmmmmmMNVCCCCCCCZZCZZAAZCBMMmMNVCCCVBNMMMMMMmMNBVCCZZZCCCCVBNmnbbbbbbmBCZZCVVVVVBNMmmnbbnmNBVVBNmnnmMNNBCAAAZCVBBNmmMNCZSSSSACBNmnbvcccvbnNVZAAZCCZZAAAAZZZCCCCCCCZZAZZCVBNNMNVCZAZCVCZZAAZZCCVVBBVBNNNBCCCVNMMMBCZZCVVVCZAAZCVBBNNNNBVCCZZZZCVVVVCCCVVVBBNBVCZZCVVBBMnbbmNVVVVBBVCCVVBBVCZAAAAAAAAZAAZVBNNMmbcccvnMBVCCZZCCVVCCZASSDSAAZZZZCVNMNNBBMmmMBVVCVCCZZAZZZZCCCCCCVBNMmmMBVCCZCCCj",
"kAAZZZCCVBNNNBVVVBNNBVCZZAAAAACVNmbbbmMBVBNMmmNBCCVVCCCVBMmnnMBVVBMMBVZASAZBmbvbMBVVVVCCZZVNnbbnmMNBCASSSAAZCVNMMMNBBVVVCVBBBNMnbbnnmMMNNNBVCZZZZZZZZZCCZZAZCVNNNNBVCCCVNMMMMMmmMMNNNBVCZZZCCVVBNMmmnnmmmMVCZCBMMMBVBNMmnbcxcvmBVCVBMmMMNBBVCAAACVBNNNMMNBCZASSSACBmnvvccccvvnMBCZCCBVCZZAZZCCVVCZZZZZAAAAZVNMMmMNVCZZCVBBCCZZCVBNNNNNBVBNNNVVVBMnnmNVZZZCVVZAAAZCVVBNMmnmMNBVCCCVBNNBBVVVVVVVVCZZAAZCVVBMmmmMBVBBNMMNBVVBNNBVCZAAAZZZZAAAZVBNNMmbxxxcnMBCCZZZZZCCCZZASSSAZCVCCZCVNNNBVBNNMMBBBVVVCCZAAAZZCCCCZZCBNMmmMNVCZZZCCh",
"kAAZZZCVBNMMNBVCVBNNBVCCZAAAAZZCBMmnmmNBVBBMmmNBVCVVCZZCBNmmmMBVBNmnMBZASAZBmbbmNVCCVCCZZZCBMnnnmMNBCASSSAAZZCBNBBVVVVVVVVBBNNmmnnmmMNBBVVVCCZZZZZAAAZZCZAAZZCBBNBVCCZCVNMMMMMMMNNNNNBVCZZZCVBBBNNMmmnmmMNVCCVMmmMBVVBNMnbcxxvmBCZZVNNNBBVBVCZAZVNMMMNNNBVCZAASSACNmbvvvcvvvvbmMBVVBNNBCZZZCVBBVCZAAZZASSAZCNMmmMNVCZCVBNBVCCCBNMmmmMNBVVBNNBBVBMnnmNVZZCVBVZAAAZCCVVBMnbvbnMNVVBNmmmMNBBBVVCZZZZAAAAZCVBNMMNBVVBNmmmMNBBNMMNBCZAAZZZZZZAAZCBNMmnvxzxcnMBCCZCCZZCCCCZZAAAZCVBVCCCVBNBBVVBBNBBVBBBVVCZAAAZZCVCCZZCBNmnnmNBCZZZCCh",
"kAZCCVVBBNNMNNVVVBMMNNBVZAAAZZZCVBNMMNBBVVBNMMNBVVVVCZZZVBMMNBVCBNnnmNCASACBMnmMVCZCCCCCCCCVNMmmMMNBCZAAAAAZZCVVVCZZCCVVVVBBNMmmnmmMMNBVVVVVCCCCCCAAAAZZAASAZZCVBBVCZZZVBNMMNNNBBBBNNBVCZZZCBNNBBBNmbvbnMNVCVBMmmNVCCCBNMmbvcvmBZAZCVBVVVVBVVCCCBMmmMNNBBVCCZZAAACBMnnnnnnnbvvvnMNNMmMNVCCCVBNBBCZAAZZASSSAZBNMMNBCZZCBNNBVCCVNMnbbbnMBCCVBNBBBBMMMMBVCCVBNNVZZZZCCCCVNnvccvnmMMmbvvbnMMNNBVCZZAAAAAZZVVBBBBVCCVBNmmmmNNBNNMNBCZZAZCCCCZSSAZVNMmbvxxcvnMBVVVVVVVCCCCCCCZZCVBBBVCCVBBBVVVVVVVVVVVBBVCZASSAZVVVVCCVBMnbbnMBCZAZZCh",
"kZCVVBNNNNNNMNBBBNMmMMNBCZZZVVVCCCVBBBVVVVVBNNNBBBNBCZZZCBNNBVCCVNmmMNCAAAZVNMNBCZZZCCVVVVCCVBNMNNNBVCCCCCCZZZCCZZZZZCVVVVVBBNMmmmmmMNVVCCCCCVVVVCZAAAAASSSSAAZCVBVVZZZCBNNNBBVVVVBNNBVVCCCVNMMNBBNmvccvnMBVVBNNNBCZZZCVVNMmnnNVZAAZCVVVVVBBBVVVNmbnmMNBVVCCCZAAACBMmnmmMmmnvccvmMMmmmNBVVBBMMNBCZAZZZZASSSZVBNNBVCZCVNMNBVCVBNmnvvvbMBCCCBBBBBBNNNBVCCCBNMNVCZZCCCZZCNmvxxcbnmnbcccvbmMNNBVCZZAAAAAZCVVBVVVCCCVBNMmmmMNNNMMMNVCZZCCVVCZASSACBMnbvccbnMNBVBBBBBVVCCCCCVVCCVBBBBVVVVVVVVVBBVVVVVVVVVCZASAZCBBBBVCVBMnbbnMVCZAAZCh",
"kZCVNMmmNNNNMMMMMMmmmMMNVCCVNMNVCZCCCCCCCVBBNNNNNMmMBCZZCVVVVCZZCVBBBVZAAAZCVBVCZAAZZCVBBBVVCVBNNNNBBBBBNBBVCZZZAAAAZCVVVVCVVBNMMmnnmMBCCCCCCVBBVCAAAAAASSDSSAAZVVBVCZZCBNNBVCCCCVNNNNBBVVBNmnnmNNMncxzxbmNVVCVVCZAAAAZZCCVBNNVZASAACVVVBNMMNNBNMnbbnMMNBVCCCZAAAZVNmmMMMMmnvcxcnmmmmmNBBBNMmMNVZZZCVVCZASSACVNNBVCZCVNMNBVVBNNMnbccbmNVCVBBNNBBBBVVCCCVBNMNVCZZCCCCCCBMbcxcvnnbvcxcvbmNNBBVCZZZAAAAZCVVVVVCVVVBNNNMMMmMMMMMmMBVCZCCVVCZAAAACNmnnbbnmNBVVVBNNBVVCCZCVVBBVCCVBNNNBBVVCCVBNNBBVVVBBVVCZAAZVBMMMNBVVBMmnnmNVZAAAAZj",
"jZCVNMmMNBBBMMMMMmmmmMMNVCCBMmMNCZZZZZAZZVBNMMNMMmnmNVCZCCVVCCZZZZCCCZAAAAZCVVCCZAAAZCVBNBVCZCVVBBNNNMmnmmNBCZAAAAAZZCCVCCCCVVBNMmnnmMBVCCZZZCVVCCZAAAAASDDDSSSACVBVCZZCVBBVCZZZCVNNNNNMNNNMnbbnMNMmvxzxvnMBCZZZZAASSSAAAAAZCCZASSAZCVVBNMmmMNNNmnvvnnmMBVCCZZAAAZVNMmMMMMmnvccvnmmmmmMNNMMmmMBVZZZCVVCZAAAAZVBNBVCZZVNNNBBBBNNMmnvvbnMBVVBNNMNNBBVCZZCVBBNBVCZZCVVVCVVNnvccbbnbvvcvbmMBBVVVCCZZAAAAZCVVVVVVVBNNMMNNMMmmmmmMMMBVCCCVVVCCZAAZVNmnnmMNBVCZCCBBBVCCZZZCVBNNVCCVBNMMNBVVCCVBMMMMNNNBBVCCZZCVNMmmmMNBBNNMmMNBCZAAAAZj",
"hCCVVBNBVCCVBNNMMmMMMNNBCZCBmnnMBCZAAAAAZVNMmmmmmnnmMBCCCCVVCCCZZZZZAAAAAZZCVVCCZZAAAACCVVCZAAZCVBNMmnvvvbnMBCAAAAZCCCCCCCZZCVVBNMnnnMBVVCZZZZCCZZZZZZAASDDDDSSAZVBBCCZCVVCCZZZCVBBNNNMmnnmnbbvbmMNMmbvvvnMVCAAAAAAASSSDDDSSAAASSAZZCVBMmnmmNNBNmnvvvbbmNVZZAAAAAZVBNMMMmmnnnbbnmMMMmMMMmmmmMNVCZZZZCCZZZAAAZCBNBVCZZCVBNNNNNNNNMMnnnmMNNBNMmmmmNBVCCCCVVVVCCZZZCCVBBBBNmbvbbnmnnnnnmNBVCCCCCCCZAAAAZCVVBBBNNMMmmmNNNMmmmmMMNBVVCVBBBVVVCZZZVNmnmNBVCCAAAZCCCZZAAAZCVBNNVCCCBNMMMNBVCCVBMnnbbnmNBVCZZZVBMmnnmMNNNNNNNBVCZAZZZZZj",
"gVCCCCCCZZZCBBNNMMMMNBBVCZCVMmnmBCZAAAAAZVNmnnmmmmmmNBVCCVVCCCCCCZZZAAAAAZCVBBVCZZASSSAZCCZAAAAZCBNmnvcxxcbmBCAAAZZCCCVCCZZCVVVBBNmmmMNBVVCZZZZZZZZCCCZASSDDDDDSAZCVCCCCCCCCZZCCVBBBBNmnbvbnbbbbmNBBMmbvvbMBCZAZZCCCASSDDDDDSSSSAZCCVBNMmnmMNNNMmbvcvbbmNVZAAASAAZVBNMMmnnnnmMMMNNNNNNNNmmmmMBVCZZZZZZAZZZZZZCVVVVZAAZCBNMMMMNNNNMmmmmMMNNMMnbbnMNVCCCCVVCCCZZAAZCVBBBBNmnbbnmmmmmmMNBVCZZCCVVCZAAAACVBNNNMMMMmmnmNNNMmmmmMMNBVVBBNMNBBVCZZCBNmmMNVCZAASSAAAAASSAAZCVBNNVCCCBNMMMMNBCCVNmbvccvnMBVCZZZVNMnnnMMNNNMMNBVCZAAZZCCCh",
"fBVZAAAAAAZCVBBNMMmMNBVCZZZCBMMMBVCZZZZZCBNmnnmMMNNNNBVVVVVCCZZCCCCZZZAZZCVBNNBVCZAASSSAAAAASSAZCBMmnvcxxxbmBCAAZZZCCCCCCCCVBBBBVBNMMMNNNNBCCZZZAZCVVVCZZASDDDDSAAZZZZCCCCCCCCVBBNBBBNMnvvbnnnnmNBBBNMbvcvmBCCCVBBNBCASDFFDDSAAZCVBBBNMMmMNBBBNMnbvvbbnmNVZASSSAZCBNMMmnnbnmMNBBVVVVVVVBNMMMNBVVVCCCZAAAZZCCZZZZZZAASAZVNMmmMMNNMMMmmmmMMMMmbvvvmNVCCCCVVVVCCZAAAZCVVBBNMmnnmMMNMMMNBBVCCCCCVVVCZAZCBNMmmnnmmmmmmmNBBNMmmMMNBBVVNMnnMNBVCZZCBNMmMNVCZASSSSAASSSSAACVBNMNBVCVBNNMMMNBVVBMmbczzcbMBCCZZZCVNMmmMNNMMMMMNBCZAZZCVBVg",
"fNCZASSSSAZCVBBBNMMMBVVCCZZCVBNNBVVCVVVVVBMmnbmMNBBBVVVVVVVCZZZZCCCZZZZZZVBMMMBVCZAASSSSSAAAAAAZCBMnnnbvcvnNVZAAZZCCCCCCCVVBNNBVCCVBBNNNMMNBCZZZZZVBBBVVCZASDDDDSSSAAZZCCCCCCCVBNNNBBNmbvvbnnmmMBVVVBMbvcvmNVVBNMMmMBCSDDDDSAZCVBNNNNNMMMNBVVBNMnnbbnnmMNVCAASSACBMmnnnnbnnMNBVCCCCCCCCVBNNNNBBVBBBVCZAAZCVCZAAAAAAASAZCBMmmMMNNMMMmmnmmMMMmbvcvnNVCCCVVVVVVCZZAAAZCVBBNNMnnmMNNNNNNNBBVVVVVVVCCZZCVBMnbbbbnmMMMMNBVVBNMMMMMNBBBMmbnmNBVCZZCVBNNNNBVCAASSSSSSDDSAZCBNMmMNBVVBBBNNNNBBBNMnbxzzcnNBCCCZZZCVBNNNNNNMMMMMNBVCCCCVBVh",
"fBCZAASSAZVBBNBBNNNNBVVVVCCCCVBBBBBBNMMMNNMmnbnMBVVCCCCVVVCZAAAZZZZZZZZZCBMmmMBVCZAAAAAAAZCCZZZZVNMmmMMmmmNVZAAAZZZZZZCCBBBBNBVCZZZCVBBNNNNBVCZZZCVBNMNBBCZSDDDDDDDSAAZCCVVVCCCVBNNNNMnbbbbnnmMNVCZCBMbccvmNBNmmnnnmNVZSSSSAZVBBNMMMMMMMNBVCCVBMmmnnmmmmNBVZASACBMbvvvvbnmmMNBVVCCCZZAZCVBBBNNBBNNMNVCAACVVCZASSSAAZAAZCVNMmmMMNMMMmmnnnmmMmnbvbmNVCCCCVBNNNVCZASAZVBNNNNMmnmMNBBBNNMMMNNNBVVCCCCCCVNmnvvvbnMNBBBVCZZCBNNMMmmMMNMmnnmNBVCZZZCCVBNNNNVCZAASSSSDDSAZVNMmnmMBVCVVVVVVVVVBMmmbcccbMBVCVCZZAZZCVVVBNNNNMmnnmNBVVCCCCj",
"fBVZZAAAZCVNNNVVBBBBVVVVVVCCCCVBBNNNMmmmMNMMnnnmNVCCZZZCVCZZAAAAZZZZZZZZCBmnbmNBCZZZZZZZCVBBVCCCBNMMNNBBBBVCAAAAZZZZAZCVNMNNBVCZAAAZCVVBBBNBBVCCCCVBNNNNBVZASDDDDDDDSSAZCCVVZZZCVBNNMMnbbnnmmMNVZAAZVNnbvbMNNMmnnnnmMBCZAAAZCBNMMmmnmmmmMNVVCCVBNNMMMMMMMBVZAAZCNnvxxcvbmMMMNNBVCCZAASAZCVBBNNNNNMmMBCAACCVCZSDDSAZZZZZZCBNmmmMNNMMmnbbbnnmmnnbnMNVCCCCVBNNNBCZASAZVBNNMMMmnmMNBVBBMmnmmmMNBVCCCCCVVBMnbvvnmNBVVVCAAAACBBNMmmmMMMMmmMNNBVCZZZZCVNMmmNVCZASSSSDDDACBNMmmmNBCCCCZZZZZCVBNMMmbbnmBVCVVVCZZAZZCCCVVBBBMmbbbnmNBVVCZk",
"dNBVCCCCCVBNBBCCCCCVVVVVVVVCCCVBNNNMmmnmMNNMnbbmNVVCZZZZZZAAAAZZZZZZZZZZCBmbvbnMBCCCVVCVVBMMNBBBNMMNBVCCCCCZAAAZZZZAZZVBMmMNVCZASSAZCCCCCCVVVVCCVVVVVVVVVCZASDDDDDDDSSSAZZCCZAAACVBNMnbbnmMMNBVCASSAZVMmnmNNNMmmmmmmmMBVCZZCVBNMmmnbbbbbnMNVCCCCVVVVBBNNNBVZAAZVMbcxxcbmMNMMmmMNVCZASSAZVBBBBNNNMMmMBCAAZZCCASSSACCVCCZZCVNMmmMNBBNmnvvvbnnnnnnmMBVVVVCCVBBBVZASSACVNMmmMmmnnnMNBBBMmnnnnmMBVCCCCVCCVBNmnnMNBVVVCZSSSAZCVBNMmmMMNNNNNBNNBVCZZZZVNnbbmNVCAASSSSSSAZVNNNNBVCZAAAAAAAZZCVBNNNMMMNVCCVBBVCCZCCCCZZZCCVNmvcccbnmNVCAk",
"smNBBVVVVVBBVCZAAZCCVVVVVVCCCCVBNNNMMMmMNBBNmnnnMBBVCZZZZZAAZCVVCCZZZZZZCBmbcxvnMBVVVBVVBNMMNNNNMmMBVCZZCCCZAAZZZZZAZCBNmnMNVCZAAAZZCVCZZZCCVVVVBVCCZZCCCZAASSDDDDDSSSSAAAZZAAAAZCVNmbvbmNNBVVCZASSSACBNNNNNMMMMMMMMMMNBVCCCVBNNMmnbbbvvbnMBCZZZZZZCCVBBBBCZZZCBmbcxcvnMBBNMmmMNVCAASSAZVVVBBNNMMMmMBCASAZZZASSAZCVVVCCZZVNMnmMBBBNmbvcvbnnnnnnmMNBBVVCZCCVVCASSSAZVNMmnmmnbbbmNBVBMmnmmmmNBVCCCCCCZZCVBNMNBVVVCZASSSSAZCVBNNMNBBBBBBBBNNNBVCZCVMnvvnNBCZAAAAAAAAZCVBVVCZZASAAAZZZZZCCVVVVBBBVCCVVNNNBVVVVVCZAAZZVNncxzxcvnmNVAk",
"anMNNNNBBVVCZZASAACCVVVCCCCCCCCVBNNNNBBVVCCVNMmmMNNBVVCZZZZCVBMNBVVCCCZZCBmbxzzcnMBVBBVVBBNNBNMMmmMBVCCCCVVCCZZZZZZZZVNMnnmMBVCZZZCVBBVZAAZCVVBBBBCZAAAAAAAAAASSSSSAZZAASSAAAAAAAZVNnbbnNBCCCZZAASSSAZCVVBNmnnmMNNNNMMNBVVCCVVBBNmnnbbvvvbmNVZASAAAAZZCVVVCZZZVNmvxxcbMBVVBNmmMBCZASSSAZCVVVBNNMNNMNVZASAZZZAAAZCVVVCCCCCVNmnnMNBBNmnvvbnmnnnnbnmMNBVCZAAZZZAASDSSAZBMnbnnbvcvnMBBBNMMNNNNBBVCCCCZZAAAZCVBVVCCVCZZASSSAAZCVVVVVVVVBBVVVBMMMMNBVNmbvvmNVCZAAZCCZZAAZZCZZZAASSSAZCVVCCCCCCZZCVVVVVBBMMMMNMMMBVZAAAZVmbxzzzxcvbmBZk",
"pbMNNNMNBVVCZASSSAZVVVVCZZZZZZZCVBNNBVCZZZACBNmmmMmMNBCCZZCBMmnnMNBVVVCCCVMnczzxbMBVBVVVVVVVVBNMmMNBVCCCVVVCCCCCCZZZZCBMnnmMBVVVVVBNMNVCAAZCVBBBNBCZASSAAAZZZZAASSAZCVCZAAAZZZAAAZVMnvbnNVZZZZZZZZAAAAAZCVNmnnmNBBBBNNBVVCCCCCVBNMMmnnbbbnmNVZASSSSAAZCCVVCCCCBMnvccvnNVCCVNMMNVCZAAAAAZCCCVBNNNNNMNVCAAAZCZAAAZCVVVVVVVVNMnbnmMNNMmnbbnMMMMmnbnmMNBVCAAAAZZASSDDSSACNmnnnnbvvnMBVBBNNBBBBBVCCCZZAASSSAZCCCCCCVVCCZZAAAAZZZCCZZZCVBBVVVNmnnnmMNNmbbbMBVCZZZCCVCCZAAAAAAAAASSAZCBNNBVCZZZZZZCVBNNBNMMMMmmmmNBCAAACNnclkzxcccvnNCj",
"pbMNNMMMNBVCZASSSAZVBBVCAAAAAAZCVBNNBVZAAAAZVNmnnnnnmNVCCCBMnvcvmMNBBVVCCVBmvxxcnNVVCCCZZZZCCVBBBBVVVVVVVVCCZZCCCCZZZCVBNMNNBBNNMMmmmMBCZZCVVBBBNNVZASAZZZZCCCZZAAZVBBVCZAZCCCZAAZVMbvbnNVZZZCVBBVCCZAAAACBMnnmNBBBBBVVCCZZZZZCVBBNMMmnnmMNBCZASSSSAZZCVBBBVVBNmbvvvvnNVCCVBNNBVCZZZZZZZZCCVBNNNNNmMNVZZZCCCZZZZCVCVVBNMMMnbbbnmmmmmmmMNBVBBNMmmMNBVCZSSSAZZZAASSSSSZCBNNMMmnmMBVVVBBBBBBBVVCZZAAASSSSAZZCCCCVVVVVVVCCZZZZZCZZZZCVBNBBBMnbvvbmMMmmnmNBVVCZCCVVVCZAAAASSAAAAAAZVNmMNBVCCCZZCVBNMMNBBBNMmmnmNBCZZCBmczkkzcvbvvmNVj",
"pbmNNMMMMNBVZAAAAAZCVVCZASSAAZCCVBNNBCZASSSZVNmnnbbbmMBVVVNmbcxcnMNBBBVCCCVMnvcvmBVCCZZAAAAZCCVCCCCCVVVVCCCZAZCCVVVCZZCCBBBBBNMMmnnnnMBCZZCVBBBNMNVZAAZCCCCVVVCZZZCVBNBVCCCCVVZZAZVMbvbnNVCZCVNMMNBCZAASAZVNmmMBBVVVVVCZZZZZZZCCVVBBMMmMNBVCZZAASSSAZCVBNNNNBNmnbbbbnmBCZZCVBBVCCCCVVCCCZCCVBBBNNMmmMBCZCCVVVCCCCCCVVNmnnnbvvvbbnnmmMNBVCCCVBNMMNBBVCZASAAZCZZZAASSSAZVBBBNMMNBBVVBBBBNNNBVCZZAAASSSSAZZCCVVVBBBBNNNBVCZZZCZZZZCVBNMNBNMnbvbnmMNNMMMNBBVCCCCVVVCCZZAAAAAZZZZZCBMmMNBVVVVCCVBNMMMBVVVBNMmMMNBVVCVMbxkjkxvnmnnmNBh",
"pbMNBNNNNNNVCZZZAAZZCCZZSSSAZCVBBBBBVCZASSSACBMmnnnnmMBVVVBMbccvmNBBBBVCZCVNnbvnNVCZZZAASSAZCCCZAAZCVVVCCZAASAZVBNBBVCCCVVBBBNMmnbbnmMVCZCVVBBBNMNVCAAZCBBBVVVVCZZCCVBVVVVVVBVCZZZVNnnbnMBVCVNmnnmNVZAAAAACVBBVCCCVVVVCZZZCCCCCCCVVBNMMNBCZZZZZZASSAZCBNMMMMMmbbbnmMMNVCZZCCVVCCCCVBBBVVCCZCVBBBNMnnmNVZCCVBBBVVVVCVBMnbbbvcccvbbnMNBCZZZZZCCVBNBBVVCCZZZZCVCCZZAASSSACCVBNNNNBBBBBBBNNMMNBVCZASAAAAAZCVVBBBNNNNMMmmMNVCZZCCZCVBNMmMNNMMmnnmMNBVBBNNBBBBVCCZCCCCCCCCZZAZZZZZCVBNNNBBBBBBBVVBBNMNVCZZCBNNBBVVBBBNnvlkklvnMNMMMNBg",
"anMNBBBBNNBVCCZZZAAZCCZASSSAZCBBBVVVVCZASSSAZVBMMmmmmMNBVVBNmbbnMNBBNNBVCCVBMnnmBCZAZZAASSAZCCZASAZCVBVCZZASSACBMmMMBVCCCVVBBNMmnbbnMBCZZCVBBBBBNNVCZZCBNNNNBBVVCZZZCVVVBBBBBVCCCCBNmnnnmNBVNMbvbmNVCZZZZAZZZZZZZZCVVVCZZZVVVVVVVVBBNMNBCZAAAAZZAASAZCBNMmMMMmbbnmMNNBVCZZCCCCCZZCVVBNBBVCZZCCVVBMnnmNVCCCBNMNBBVVCVBNnbbvccxccbnmNBCZAAAAZZZCVBBVVVBVVCCCVVVCCCZAASAACCVBNMNNNNNNNNBNMMMMNBCAASAZZZVBNNNNNNMMNMMmmmmMBCZZZZZVBMmnnmMMMMMMNNBVCCCVBBBBBBVCZZZZZCVVBBVCZZCCCCBBNNBBVVBNNNNBBBBBBBCZZZCVBBVCCVBNNMnczllcnMBBNMNNNg",
"dMNNBBVVVVVCZZZZAAAAZZZAAAAAZVNNBVCCCCZZASSSACVBNNNNMNNNBBVBNMmMNBBNMMMNVVCVBNNBCZAAZZZAAAAZCCZAAAZVBBBVZZASAZVNnbbnMNBVVVVVVBNmnbnmNVZZZCVBBBVVBBVCZCVNMmmMMNBVZAAAZCVVBNBBBVCCVBNMmnbbmMNBMmbbnMBCZZCCZZZZZASSSAZCVVCCCCBNMNNBBNNMMNBVZASSSAAZAASAZCBNMMNNMmbbmMNBBBVCCCCCCCZAAAZCVBNNBVZZZZCVBNMmMBVCCVNMmmNBVCCCVBMmnbccxcvbmMBVCZAAZZZZZZVVVBBNMMNNBVVVVCCCCZZAZZCBNMmnmmMMMNBBBNMMMNBVZAAAAZCVNMmmMMMMmmMMMmmmMNVCAAAZZVMnvcvbmMNNBBVCCZZZZCCVVVBBBVZZAAZCVBNNNBVCCCVBMMMNVCCCVNMMMNBBVVVCCCCCVBBVCCCVBBNMnbccvnNBVVNNNNBg",
"fNNBBVVVVCCCZZZZZAAAZZZZZZAZCVBBBCZZCCCCZAAAZCVBBBBBNMMMMNBBBBNBVVBNmnnmNBVCCVVCZAAAZCCCZZCVVVCZZZCVBBBVCZAAZCBmbvcvnMBVVVVVBBMmnnmMBCZAZCVBBBVVVVCCCVBMnnnmMNBVZASSAZCVNNBBVVVVBNMmnnbbmMNNMmnnMNCZZZCCCZCZASDDDSZCVVVCVBMmnnmMMMmmMNVCZASSSAAAASSAZCVBBBBBNMmmNBBVVVVCCCCCCZAASSAZCVNNBVZAAAZCBNMMMNBVVNmnnmNBVCCCCVBMnvcxxcvnmNBVVCCCCCCZZZCVVVBNMmMMNBBVVVVVVCCCCCVBNmnnmmmMMNBBBBNMNNBVZAAAACVBmbbbmmMMMMMMMmmmMNVCZAAZCBMnvcvbmMNBVCCZZZZZCCCCVVBBVVZZAAACBNMMNBVCCVVBMmMNVZZZVNMmMNBBVVCCCCVVBBVVCCCVBNNMMmnnmNVCCVNNNNBg",
"gBNBBVCCCCCCZZCCZZZCCCCCCCZZCCVVVCZZZCVVCCZCCVBNNNBBNmnnnmNBBBBBVVBNnbbbmMVCZZAASSSACVVBBBNNNNBBVVVBBBVVCCZZCVNmbvcvnMNBVBBNNNmmnnMNCZAAZCVBVVCCCVVVVBMmbbnmMNBVZASSAZCVBBVVVVVBNMmmnnbbnMNNMMmMBVZAAZCCCCCZASDDDSACVVVVBNnvccbbbbbnMBCZAAAAAASSSSSAAZCCCCCCVVBNVVCCVVVVVVCCZZASDDSAZVBNBVZASSZCNMMMMMNNMmbvbmBVCZZZZCVNnvxxxcbnmMNNNBBVVVCZZZZCCCVBMmmMNBBBVVBBBBNBVVVBNMnnmMMNNBVVVBNNBVVCZAAAZCBMbvvvnmMNNNNNMmmmMNBCZZZCCVNmnnmmMNBVCCZZZZCVVVCCVVBBVCZZAAAZVNMMNBVCCCVBMMMNCZZZBNmmMNBVVVCVVVVVVVCCCCVBNNNNBBNBBVZZCVNNNNNg",
"gBNBVCCZCCVVVVVVCCCCVBVVVVVCCCVVCZZZZCVVVVVVBNMMNNBBMmnbbbMNBVVVVVBNmbbbnMBCZASSDSSZCBNNNMmmmmMMNNBBBVVVCCCCVBNmnbvvnMBBBBNNMMmnbnMBCAAAZCVVVVVVVVBBBNMmnnmMNBVCZAASSACVVVVVVVBNMMMMmnbbnmNNNMMNVCZAZZCCCCCCASDDSSAZVVVBNmvcxxcvbbbnNVCZZZZZAASSSSAZZZZZZZAZZCCCCCCCCCVVBBVCCZAASSSAZCBNNVZASSZVNMMmnmmnnvccbmBCZAZZZCVBmbvccvnmMMMMmMNNBVVCZZZZZZCVNNNNNBBVVVBBNNMMNBVBNMmmMNBBBVCCVVBBVCCZZAAAZCBMbcccbnMNNBBNMMmmmMNBVCCCCVBBNNNNNBVVCCCCCCVBBBVVBNNBVCCZAAAZVBNMNBVCCCVBNMNBCZZCBMmmMNBVVCVVVVVVCCZZCVBNMMNBVCCCCZZZZCBNNBBg",
"fNNBCZZZZVBNNNNBBVVBNNNNNNBBVVVCCZZZCCVVVBBNMmmMNBVBNmnbvbmNBVVVVVVBMmnnmMBVZASDDDAZVBNMmnnbnnnnnmNBBVVVVCCCVBNMmmnnMNBBBNMMMmnbbbmNCZAZZCVVVVBBNNNNNBNNNNBBVCCZZZASAAZCVVVBBNMMMNBBNMbbnMNBBNNNBVCCCCCCCCCZASSSSAZCVVBNMnvxxxvbbnnMBVZZZCCCZAASSAZCVVCZASSAAZZZZZZCCCVBNNBVVCCZAAAAZCBNNVCASSZVNMmmbbbvcxzxbMVZAAZCCCVBNMmnnmMMMMmnnnMNBVVCZZZAAAZZCCCCCCCVVVVBBMmmMNBVBNMNBVVCCCZCCVVVCCCZAASAAZVMbcxxcvmMNBVVBNMmnbnMNBBBVCCCCCVVBBVCCCVVVBBBNNNNMmMMBVCZAAAZCVBBBBCCCCBBNNBBCCCBNmmMMNBVVCVVCCCZZAAZCVNmmmMNVZZZZZZZZCVVVVVh",
"dMNBVZAAZVNMMmMNBBBBNNNNNNNNBBBVVCCCCVVVVVBNMmmMNVVVBNMnbbMNVCCVVVVVNNMMMMBVZASDDDSZVBNMmnbbnmnnnmMNNBBBVVCVVBBNNNMMBBBBNNMMMmnbvbmNVCZZCCVVBBNMMmMNBBVVBVVCZAAZZZAAAAZZCVBNMMmmNBVVBMnnmNBVVBNNBBBVVVVVCCCZZASSSAZCVBBNmnvcxcvbnnMNVCZZZCCCZZZZZZVBBBCASSSAAAZZZZZCCVBNMMNBBBBBVCCCCVBNBBCZAAZVNmmnvvcccxxcnNCAAAZCCVVVBNNNNNNNNMmnnmMNBVVCCZZZAAAAAAZZZZCCCVVVBNmmMNBVBBNNBVZZAAZZCVVVCZZZASSSSACNnvxxxcnmNBVCVBNmbbnmNBBBCZAAAAZCVVCCCCBNNBBBBNNMmnnmNBVCAAAAZCVVVVCZCCBNNNBBVVBNMmMMNBBVCCCCCCZZAAAZCVNmmmMBCZAAAZZZZZZCCCCj",
"dMmNBCAAZCNMmmmMBBBBNNNNNNMMNNNNBBVVVVCCCCVBNNMNVCZZCVBNmMBVZZZZCCVVBNNNNBBVCZSSDDSACVBBNMmmMNNMMMNNMMMNVVCVBBBBVVVVVVBBNNNNNMmnbbnMBVCCCCCVBNMnnnMNBVCCVVCCAASAZZZZAAAZCVNMmnnmNVCCVNmmNBCCCVNMMMMMNNBVCCCCZZAAAZZCVBBNMmbbvvbnnmNBVCCZZZZZZZCCCVBNMNCZSSAAZZZZZZZCVVNMmmMMMMmmMNBVVVBNNBVCZZCBMmbvccccvvvbmNCASSAZVVVVBBBBVVVVBNNMMMNBVVVVCCCZZZAASSSAAZZCCVVVVBNMMNNBBBNNVCZASAAZCVBVCZZASSDSSAZBmbcxxcbmNBCCCVNMnbnMBVVCZASSSSAZCVCCCCBNNNBVVVVNmnbnmNBCZAAAZCCCCCZZZCBNNNBBNNMMMMMNNBVCCZZZZCZZAAZZCVNMMMBVZASSAZCCZZAAAAAk",
"dmnmNVZAACBNMmMNBBBBNBBBBBNNNNNNNNBVVVCZZZCVBNNBCZAAZCVBBBCZASAAZCVBNNNBBVVVCASDDDSACCCVVBMMNBBBBNNMnnmMBCCVVBVVCCZZCCBBNNBBBNMmbbnmNVVCZZCVBNmnbnMBVCCCVVVCZASAZCVVCCZZCVNmbbbmNVCCBNmmNVCCCVNMmmmmMNBVCCCCVVCCZZZCVVBBNMmnnbnnmMBVCZZZZZZZZCVBBNNNNBCZAAACVVCCCCCVBNMmnnmmmmnnnMNBVVBNNNVCCCVNmnvvccvbnnnmNVCASSAZCVBBNNBBVCCVVBBBBVVCCCVVVVVVCZAASSSAZZCCVVVVVVBBNNNBBBBBVCZSSSAZCVBBVCZAASSSSSZVNmbvvvbmNBCCCVBMnnmMBVCZASSDDDSAZCZZZCBNNBVCCCCVNMnnnmNVZAAAZZZZCCZZCVBNNNNNMmmmMNNBBBVCZZZZCCVVCCCCVBNNNBVZASSSAZCCCZAAAAZj",
"dmbbmBZAAZCBNMNNBBBNNBBVVVVVBBNMMMNBVCZZZZCVBNNBVZAAZZCVVCZASSSAZCNMnnMBVCCZASSDDDSACCCCVBNNBVCCCVNmbbnMVCCCVBVCZZAZZCVBNBBVVBNmnbbnNBCZAAZCBNmnnmNVCCCVBNNBCZAZVBMMNBCCCVNnbvbnNBVBMmmmMBVCVBNMmmmmMNVCCCCVNNBBVCCCCVVBNMMmmnnnmMBCZZZZZZAZCVBNMMNBBVCZAAZVBBVVVVBNMmnnnnmmmnbbnmNVVVBNNNBVVVNMnbccvbmMMNNBVCCZASSAZCBNmmmNBVCCVVVCCZZAZCVBBBBBVCZZAAAZCVVVVBBBVCCCVVBBBBBBVCZASSSACVBBVCZAAAAAAAZVNMMmmmmMNBCCCVBNmmMMNVCZASSDDDSSAZZAAZCVBBCZZAAZVBMmnmMBCZAAAAAZCCCCCVBNNNNMmmmmNBBVVVCCCZZZVBBNBBBNNMMNBCZASSSSAAZCCCZZZZVg",
"dmbbmNCAAACVBNNNBBNNNBVCZZZCCVBNMMBVVCZZZZCVBNNBVCZAZCVVVCZASSSSZVMnbbmNVCZASDDDDDSAZCCCCVNNBVCZCVNmbbnMVZZCVVCCZZAZZCBBNBVVVVNMnbbnNVCASSAZVNMmmMBVCCCVNMMNVCZCBMnnmMBVCVNmvcvbMNNNMmnnMNBVVBNMmmmMNBVCZZCBMMMNBVCCCCVBBNNMmmmmMNVCZZZZZZZCVBMmMMBVVCCZZZCVBNBVBBNMmnbbbnmMMmnnnMBVCVVNNNBVVBNMmbvvbmMNNNBVCZZASSSAACBMnbnmNVCCCCCZASSSAZVBNNNBVVCCZCCCVBBBBBBVVCZZCCVVVVVBVVZAAAAZCVVBVVCCVVCCCCVBBNNBBNNNNBVVVVBNNMMMMNVCAASSSSSAAAZZAZCCVVCZAAAAZCBNmmmNVCZAAAAZCCVVVVBNMMNMmmmMNBVCCCCCCCCCVBNNNNMMmmMNVZASSSSSSAZCVVCCCVNd",
"dmnnMBCZZZCVBBBBNNMMNBVCAAAAZCVBNNVVCCZZZCVBBNNBVCZZCVBBBVCZASSAZBmbvbmNVCASDDDDDSSAAZZZCVBBBVCCVBMnbbmNCAAZZCZZZZZZCVBNNBBVVBNmnbnmBCZSSSSACVBNNBBVCCVBNMMNBCCBMnvvbnMBVBNmvccvnMMMmmnmmMNBVVBMMMMNBBVCZZCBMmMNBVCCCCCVBNNMMMmMNBCZAAAZZZCCBNmmMNVCCCCCCCCVVVVBNNMmnbvvbnMNNNmmMNVCZCVBNNBBVVBBNmnbnmNNNNBVZZASSSSSAZVMbvvnMBCCCZAASDDSAZVNNNBBVVVVVVVBBNNNBVVVCCZZCCCCCCVVVVCCZZZZCCCCCVBNMMMNNNNNNBVCVVBBBBBVVVVVBBNMnnMBCZAAAAAZZZZZZZCCCCZZAAAAZZCVNMMMBVCZASAACVVBVBNMMMNNNNMNBVCCCCVVBBVCVVBNNMMmmmMNVZSSSSASSAAZVBBBBNna",
"fNMMNBVCCCCVBBBBNMmmMNVZAAAAZCVVBVCCZZZZZCCVBBBBVCZZCCBBBBVCZASACBnvvbmNVCASDDDSSSSSAAAZZCVBBBVVBNMmnnMBZAAAAAAZZAZCVBNMNNBVVBNmbbbmNVZASSSAZCCVVBBBBBBBNMmMBBBNmbvvbmMNBBNMbvcvnmMMMMmmmMNBVBNMMMNBVVCCZZCVNMMNBVVCCCCCVNMMmMMMBVZAAAAZZZCVBNmmMBCZZZCVVVVCCCVBMmmmnbvcvnMBVBNNNBCZZZCVBBBVVVCCVNmmmMNNNBBCZAASSSSAZCVMnbbnMBCZZASSDDDDAZVBNBBVVVVBBBBBNNNBVCCCCCCCCCCZZZCCVVVVVVVCCCZCCVNmbbbnbbnmMBVCZCVBNNNBBVCCCVBMnbmMBCZZCCVVVVCCCCVVCCZZZZZZZZZCBNMMNBVCAAAZCBBBBBNMMMBBBBNBBVCCCCVBBBVCCVBNNMMMMMNBCASSSSSSSSAZVBBBNMbp",
"hVBNNNBVCCCVBBBNMmnmMNVCZAZZCCCCVCZZZZZZZZZZCCVVVCZZZZCVBNNBCZAACBnvvbmNBCASDDSSAAASSSAAAZCVBBNNMMMMMNBCZSSSSSSAAZZCBNmmMNBVVBMnvvvnMBCZAAAAZZZCVBMMMNBBNMmMNNNMnnnmMNBBBBBMnbvbmMMNNNNNNNBVVBMmnmNBCCZZZAZCVBBVVVVVVVCCVBMmmmmMBVZZAAZZZZZCVBNMNBVCZCCVVVVCZZVNmnmMMmbvvnNVCCVVVCZAAAZCVVVVCCZZZCNMmMNNNBVCZASSSSAZCVBNMmmMBVZAASSDDDDDAZCVBBVCCVVBBNNNNNBVCCZZCVBBBVCZAAZCCBNNNNNBVCZZCBmbcccccxxvnNVCZCVBMMMNBVCZZCVNmnnmNBVVBNMMMNNBBBNBVCCCCCCCCZZZCBNMNNVCZZZCBNMNBBNNNNVVVVBBVVCCCVVVVVZZZCVBBNNBBBVCASSSSSSSSSSACVBBBNms",
"jCBNNNNBVCCCVBBNMnnnMNVCZZCCCCCCCCZZZZZZAAZZZZCCCCZZAZCVBNMNVZAAZBmbbbmNBCASDDSAZZAASSASAAZCBNNMMMNBBVCZASSSSSSAAZCVNmnnmNBVVBMbcxcbMBVCZZZZAZZZVBMmmMBBBNMmMMMmmMNBVVVVVVBNmnnnmMNNBBBBBBVVBNmnbnMBCAAAAAAZZCCVVVBBBBCCVBmnnnmMBVZZZZCCZZZCVBNMNBVVCCVVBBVCZZVNmnmNNNmnbmBCZAZZCZASSSAAZCCCCCAAAZVNMMNBBVCZASSSSSACVBNNMNNBVCAASASSSSSSAZCVVVCCCCVBBBNNBBVCCZZZCBNMNBCZASAZCVBMMMNBVCZZCBmbvcvvcxxcbMBVCVBNMmMMNVCZZZCVNmmMNNBBNmnbbnmMMNNNBVVVVVVVCZZZCVBNNBBVCCVBMMmMNBBBNBVVCVVVBVCCCVVVCCZAZZVBBBBVVCZZASSSSSSSSDSSZCCVVBMd",
"jVNMmmNVCZZZCCVNmnnnmNVCCCCCCCCCCCCZZZAAAAAAAZZZCZZAAAZCVBNNVZAAZVNmbnmNVCASDDSACCZAASSSSAACVBNMMNVCZZAASSSSSSAZCCVBMmbnmNVVVBmbxzxcmNVVVVCZZZAZCBMmMNVVBNMMmmmmMBVZZZZCCVBNmnmmMMMNBBVVVVVBNMbvcvMVZSSSSSSAZZCCVBNNNNVVBNmnbbnMBCZZZCVBVVCVBNMmmMNBVVVVBBBVZZVBmmNBVVNNMNVCAAAAZASSSSAAAZZCCCZAAZCBNNBVCZZAAAAASSAZVNMMNBVCCZAAZZCCZZAAAZCCCCZZZZCVVVVVVVCCCZZZVBMmMNVZASSAZCVBNNNBVCZZCVNMmmmmnbcvbmMNNNMMmmMMNBVCZZZCVBNNNNBBMnvccvbnmMNNBBBBBBVVCZZZCVVVVVVVVVBMmnmMBVVVBBVVVVVBBVVCCCCCZZAAAZVBNNBVCZAASSSSSSSSDDDSSAZCCVNf",
"hBmnbnNVZAAAAZVBmnnmMNVCCCCCCCCCVBVCZZAAAAAAAAAZZZAAAAZZCVBBCZASAZBMmmMBVZASSSAZVVCZAASSSAZCBNNNBVCZAASSSSSSAAZCVBBNMnbnMNVVVBmbcxxvnNBVVVCZZAAZZVNNBVCCVBBMmmmMBVZAAAZCVVBBMmmMMMMNNBVCCCVVNmbcxvMVZSSSSSAAZZCCVBNMMNBVBMnbbbnMBVZZCVNNNNBBBMmnnmMNBBBBNNBVCZCBMMBVCCVVVVCZAAAAAASSSSAAAAZCVVCCZZVBNNBCZASSSAAAAAAZVBNNBVCCZZAZCVBBBVZZZZCCCZZZZZCCCCCCCCZZCCZZCVNMMMBCZAAAAZCVVBNBBVCZCVBBBBVBNMnbnnnnnnnnnnMMNNBVCZAAZCVBBBBBMmvxzxvnmMBBBBNNMNBVCZCCVVCCCCVVVBNMnnmNVCCVBBBVVVBBBVCCCCCZAASAAZVVBBVVCZASSSSSSSSDDDDSSAZZCVBg",
"gMvcvnNVZAAAAZCBMmmMMBVCZZZZZZCVNNBVZZAAAZZZAAAAAAAZZZZZZCCCZASSSACBNNBVCZASSSAZVBVCZAAAAZVBNNNNVCZASSSSAAAAZZCVNNNMmmnmNBVVVBMnvcvbMBVCCCCZZAAAAZCVCZZZZCVBMMMNVCASAZVBBBBBNMMMMMMMNBCCCCCVBMbvcbMVZSSSSAAZZCCCVBNNNBBBNmnbbnnMBVCCCBMmmMNNMmnbnmMNBNNMMMNBCZCVBBVCZZZCCCZZZZZZZASSSAZCZZCVBBBVVVBNMNVZASDSAAZZAAAZCVBBVCCZZZAZVNMMMNVCCCCCCZZZZCCVCCZZZZZZCCZZZCVBNMNBVCCZAAZCVBNNBBCCCCCCCZZZCVNMmnbvvvccvbmMMMMBCZAAAZCCVVCVBMvxlzcnMBVVVBNMmMBCZZVBBBCZZZCCVBNMMMNBCZCCBBBBBBBBVVCZZZZZAASSAACCVVVCCZAASAAAAAAASSSSAACCVVVg",
"fmcxcnNVCZZZZCVBNNNNBVCZZZZZZCVBMMNVZAAAAZZZAAASSSAZCCCZZZZZZASSSAZCVBVVCCZASSAZVBVVCZZZCVNMMMMBVZASSSSSAZZCCCVNMmmmnnmmNBVVVBNMnnnmMBVCCCZZAASSSAZZZAAAZZCBNMMNVZAAZCNMMMBBBNNNMMmMNBVCCCCVBNmbvnNVZAAAAZZCCCCCVVBBBBBNMmnnmmmMBVCCVBMmmmNNNMmnmmNNNNMmmmMBCZZCBBCZAAZZZZZZCVBVCASSAZVVCCCVBNNNBBNNMNVZSDDDSAZZZAAZCVVVVCZAAAAZVNMmMNVVVVVCCZZZZCVVVCCCZZZCCCZAAAZVBMmmMNBCZAAZCVNNNBVCCCCCZASSAZVBMmbvcxzxcbmMMMNBCZAAAZCCCCCCVMbxlzcnMBCCCBNmmMBCZZVBNBCZAAZCBNMMMNBVCZCCBNNNBBBBVCZZAAAAAAASAAAZCVVCCZAAAAZAZZZZZZAAAZVBNNBg",
"fmxzcbMBVVVVVVBBNBBVVCZZZZZZCVNMmmNVZAAAAAZZAAASSSAZCCCZAAAAAAAASAAZCCVVVVZASSSACVVVCCCVBNmnnmMBCZSSSSSAZCCVVBNmnbbbvbnMBVVVVVBBNMMMNBVCCZZAAASSSAZZAAAAAZCVNMNBVZAACBmnbmNBVVBBNmnnmNBVVVVVVBMmnmNBCCCCCCCVVVCCCCCCVVBNmmmMNNBBVVVVBBNMMMBVVVBBNNBBNMmnnnmNCZZCBBCZAAZZZZCVBMMMBCZAZCBBVVVVBNMMMMNNNBVZSSDDSSAAAZZZCVVVCZASSSAZCVBNBVCCVVVCZZZZCVVBBBVVCCCVVVCASSAZBMnbbnMNCZZZCBNNNBVVVVVCZASSAZCVBMnbvcxxcbmNNBBVZAASACVBVCZCVNbxzzvnNVCZCVNMmMBCZZCVBBCZAACVNmmmMMNBVCCCBNNNNBBVCZZAAAAAAAAASSAAZCCCCZAAAZZZZCVVBVCZZVNmnnNg",
"fmcxvnMBBBBBBBNNBBVCZZZZCCCCVNmnbnMBCAASAAZZZAASSSAZCVVCASSAAZZAAAAZZZCVBVCASSSAZCVVVBBBNmnbbmMBCZASSSSAZCVVBNmnvccxxcnMBVCCCVVVBBNNBBVCCZAAAAAAAZZZZAAZZZVBNMNBVCZZVNnbbnNVCCVBMmnnnMNBBBBVVVNMmMNBBBBBVVVVVVCCCZZCCVBNmmMNVCVVVVVBBNNNNNVCZZZCCVBNMmnbbnMBCZZCVVCAAAAZZZCBMmnmNVZZCVBNBVVVBNMmMMNNNBVCAADDDDSAZZCVVVVVZZASSSSAZCVVCCCCVBVVCZZZCCVBNMNNBBVVBVCASSSZVMnvvbmNVCZZVBNMMNBBBBBVCZAAZCVVBNmnbbvvvnMNBVVCZASAZCBNBVCCCNncxxvmNVZZZCBNMNVCZZCVBVCZAZCBMnnmmMMNBVVVVBNNBBVCZZAAAAASAAZZASSAZCCCCZAAAZZZCVNMMNBVCBmbvbMf",
"fmvvbmNBNNNNNNMNBVCZZAAZCVCCBMbvcvnNVZAAAAZZZZASSSACBBBVZASSAZZZZZZZZCCVBVCZASSSAZVBBNMMMmnnmMNVCZASSSSSAZCVBMmbcxzlzxbMVCCCCCVVBBBBBBVCZZAAZZZZZCVVCCCCCCVNMMNBVCCVBMnbbmBCZZCBMmnbnnmMMMNBVVBNNMNNMMmMBVCCVVCCZZZZCVBNMMNVCZCCCCVBNNNNNNVCZAAAZCVNmnbbbnMBZAZZCCZASSSAAZCBMnnmNBCZCVNNBVVVBNMMMNBBNBVCCZASDDSSZCBNNNVCZASSSSSAAZZZZZCVNNNBCZZAZZVBMmnnmNBBBVZASSSZVNmnnmMNVCZCVNMmmmNNNNNBVZAZCVBBNNMmMmmmnmNBVCZAASSAZVNMNBVCCBMnvvnMBCZAZCVBBBVVCCCVVVCZZCVNmnmmmmnnmMBVVBBBVCZZAAAZAAAAAZCCAASSAZCCCZAAAAAZCBMmnmNBBNmvcvmf",
"fMnnmMBBNNNNNNNBVCZAASAZCCCCBMvxxcbmBCZZZZCCCCASSAZVNMNBCZAAAZZCVVVVCCVVBVCZAAAAZZVBNMmmmmmmmMBVCZASSSSSSACVBNmbvxllzxnMVCZZCCVVBBNNBBVCZZZZCCCCCVVVVCVVCVBNNNBBVVBNNmnnnMVZAZCBMnnnnnnnnmMNVVVBNMMmmnnmNVCCVVVCZZZZCCBNMMBCZZZCZCCVBNNNNNVCASSSSZVNMnnbvbmBCAZZCCZASDSSAZVBMmmMNBCCVBMMNBBBBNMMNBBBBBVVVCZSDDDSZCNMMNVCASSSSSAAZZZZZZCBMmMMVCZZAZCBMnbbmMNBBVCZAAAZVBNMMNNBVCCVBMmnbnMNNNNNVCZZCVBNBBNNNNNNMMNBCZAAASSACBMmMBVCCCBMmnmMBCZZZCCVBBBBBBBVBVVVCVBNMmMMMmnnnmNBVVVVCZAAAACCCCZAZZCCZAAAAZCCCCAAAAAZCBMnnnMNNNmbcvmf",
"fMmmMNBBNNNBVVVCZZASSSSAZZAZVMvxxcvnMBVVVVBBVCASSACNmnnMBVCZZZZVBNMNBVVVVVCZZZZZCCVVNMmnmmmmmNBCZAASSSSSAZCVVBNmbcxzxvmNVCCCCCVBNNMNNBVCCCCVBBBVVVVVVVVVVVVBVVVVBNMMmmmMNBCAAZVNnnmmmmnbvbnMBVVBNMmnbbvbMBCCVBVVCCCCCCVBNNVCZZCCZZZCVBBBNNBVZASSSAZVNMnbvvnNVZZZCCZASSDSAZVBNNNBVVCCBNmmMNNNNNMMNBBVVVVVBVZASDDSACBNMNVZASSSSAZZCCCCCVBNMnnmNVCZZZCVNmnnmMNNNNBVCCCVVVVVVVVVCCCBMmbvcvmMNNNNVCZZCVBBVVVBVVBNMMMNVZZAAAAZCBMmNBCZAZCBMmmMBVCZCCVVBNMMmmMNNNNBBBNNNNNNNMmnnmMBVVCCZASSAZVNNBCZZZCCZZAAAZCVVVZAAAZZCBNMmmMMNNMmnnMf",
"fMMMBBVBBBVVZZZASSDDDDDSSASAVNbcxcvbmMNBNNNNVCASSZBmbcvbMNBVCCVBNmnmNBVVVCCZCCCVVVVVBNmmmmnnmNVCAASSSSSAZCBBVVVBMnvvbnMBVCCCCCVBNMMMNBBVVBBBNNNBBVVVVVBBBBVVCCZCBNmnnmMNBCZAAZBMnnMNNMnvccbmBCVBNMmnnbvbMBCCVBBBVVVVCCVBNNVCZZZZZAAZCVBBMMNBVZASDSZCBMmbccbmBVCCVCCCAASAZVBBBBVCCCCVNMnnmMMNNNNNBBBVVCCCBBCZSDDSSZCBNBCZASAAAZCVBBBVBBNNmmnmNBVCCCCVNMmmMNNNMMMNBVBBVVCCZZZZZCCVNmbvcvnMNBNBVCCCCVVVCCCCVVVBNMMBCZZZZZZCBNmmNBCAAAZVNMmMNBVVVVVVBNmnbbmmMMMMNMMMNNBBBNMMmmMBVCZZASSSZVMmmMBCZZZZZZZZZZCVBVCZZZZCCVBNMMMMNNNMMMNg",
"gNNNVVVCVVCZASSDDDDFFFDDSSSACNnvvvbbnmMMMMMNVCASACNbxzzcbnmMNBNMmnbnMBVCCZZZZCVBNNBVBNMmmnnnnMVZASSSSAACBNMMBCZCVBMMNNNBVVVVVVVVBNNNNBBBNMNNNMNNBBVCVVNMNBVCZZZCBMnnnmMNBCZAZCNmnnNBBNnvccbMVCCVBNMMmnbnMBVCVBNNNNNBVCCVBBVZAAAAASAACVBNmmmMNVZSDSACBNmbccvnMBBBBBBVCZZZVNMMBVCZZZCVNmnnmMMNNNBBBBBVCZZCVVVCASSSSSZCCCZZAAZZZCBNNNNBNNNNMMMNBBBBBVVVBNMMNNNMnnmmNNNNBVCZZZAZZZZCBNmnbbnMNBBVVCCCCCCZAAZCCVVBNNBVCZZCVVVBNmnmNBCZAAZVMmnnmMNNNBBBBNmbvbnmmmmmmmmmMNBVBBBBNNNBCZAASSSACBnvvnMVZAAAZZCCCVVBNBVCZZCCCVVBNMMMNBBBNNNg",
"gBNBVCCCCCZASSDDDDFDFDDSSSSACBmnnbnmmMNNNMMNVCAAZVmvzlzxvvbbmmmmnnbnMBCZZZAZZCVNMMBVVBMmmmnnnMVZSSSSAACBMmnmBCAAAZCCVVBBBVVVVBVVVBNNBBBNMMMNNNNNBVCCCBMMMBVCAAACBNmmmmMNBCZZZVNmmMVCVBmbvvnMVZZCVBBNNMmMNBVVVBMMmmMNVCCVBVCZASSSSSAZVBNmbbvbmNCASSACBMmnvcvnMNNNNNNBVCCVMmnmNVCZZZCVNMnnMNNBBBVBBBBVCZZZVVVCZASSSSAAZZZZZZZZCVBNNNNNNNNBBBBVVVBNMNBVVVBNBBNMnnnmMMNNVCZAAAAAAAZZCBNMnnnmNBBVVCCZCZZAAAZZCVVBBBVCZAZCVBNMmnnmMBVCZZVBMnbbnmMMMNBVBNmnbbnmmmnnmmnnMNVVVVCVVBBVCASSSSAZVNnvvbMBZAAAZCBBBBNNNNBVCZCCCCBBNMMNBBBBNNBg",
"gBNBVCZZZZAASSSSDDDDDSAZZZZAZCBNMMMNBBVVBBNNBCZZCBnvxxcvvvccbbnnnnnmMBCZAAAAAZVNmmNBVVNMNNMMMNVZSSSAACVNmnnmBCASSSAAZCVBBBBBBBVVCVVBBBBNMmNBBBBBBVCCCBNMNBCZAAAZCVBNNNMMNVCZZCBNBVCZZVMmnnmNVZAZCCCCVVBBBVVVBNmnbbmNVCCCVVCZSSSDDSACBMmbcxxcbmBCASACNMmnbbnmNBBBBNNNVVVNnbbnMBCCZZCBNMmMNVVCCCCVBBBVZAAZCVBVCZAASSAAZZZZZCZCCVBNNNNNBBVVCCZZZCBMmMNBVVVBBBNNMMMMNNNBVZAAAAAAAAAZZCVBMmnnMNNBVCCZZZZZZZZCVVBBBVCZAAAZCBMmnbnmMNBBVBNMmnnnmmmmmMBVVBNMmmMMMMmmmmnnMBVCVCCCCVVCZASDSAZCVNmnnmNVZAAAZVNmMMMMNNBVCZZZCVBMMmMNBBBBNNVh",
"gNNBVCZAAAASSSAASSSSSACVBVVCZZVVBNBBCCZZCVBBBVCCVNnvccvbvvccvbnnmmmMNBCZAAZZAZVBMMNVVVBBBBNNMNVCAAAAZCBMnnnMBCASSDSSZCBBBBBNNNBVCCCVVVBBNMNBVVVVVVCZCVNNBVCZZAAZZCCVVBNNBVZZZCVVVCAAZCBMmmmNVCAAZZZZZZCCCCVVBNnbvbmNCZZZCCZASDDDDSACNMnbcxzxvnNVZAZCNMMmmmmMNBBBBBBBVVBMnbbnMNVCCCVBMmmMBCZZCCCVBBBVZZAZCVVVCZAAAAAZCCCCCCCCCVVBBNNNNBVCAAAAACBNmMNBCCCVVVBBBBBBNNBBCZASAAZZZZZZZCCVNmnbmMNBVVCCZZZCCCCCVBBNNBCZASSAZVNmbbnmmmMMMMmnnmmmMMmmmMBVCCBBNNBBBBNNMMnmNBCCCCCZCCCCZASDSACVBNmmmMNBCAAACBmnnnmMNBVCZZZZCVNMmmNBVVBNNBVh",
"dMNBVCAAAAAAAZCCZAAAZCBMMMNVCZCCVBVCZAAAACVBNBVVVNnvvvbbbvvvbnmMNNNNNBVCZZZCZZCVNNBVCCCCVVBBNNBVZZZZZCVBMmmMBCZASSSAZVNNNNNMMMBVZZCCCCVVBBBVCCCCCCZZZCVVVCCCCCCCZZZZCCVVCCZAAZCCZAAAZCBNMmmMNVZAAAAAAAAZZCCCVNnbvbmBCZZZZZASDDDDDSACNMMmbvvvbmNVZAAZVNMMMMMMMNBVCCCCCVBNmnnmMNBVCCVNmnmNVZZZCCVVVVVVZZZCVVVCZAAAZZCCVVVCCCCCZZCVBNmmMBCZASSAAZVBNNBVCCCCCCCCCCCVVBBVCZASAZCVVBBVVVVVNmbbnmNNVVVCCCCBNNBBBBNMMNVCAASAACBMnnmmnnnnbvvbmMNBBNMmmMBVCZCCCCCCCCVVBNNNVCZAZZZZCCVCZASSAZVBBNMMMMNVCZAACBmnnnMNVCZZZAZZCVNMmMBVVVBNNBCj",
"smMNVCZAAAAZCVVVVCCCVBNmmmNBCCCCVBVCASSSAZCVBBBVBNmbbvbbbbbbnmNBVVBBBBVVCCCCCCCVBBVVCCZZCCVBNNBVCZZZZCVBNMMNBVZZAAAZCBMMMNMMmMBCZAZZZZZCCVVVCZZZZZZZZCVVCCCVBBBBVCZZZZCCZAAAAAZZZAAAZCBNMmnnmNCZAAAASSSSAAZZCBmnbnMVZAAAZZASDDDDDSACBNNNMmmmmNBCZAAZCVBBBBNMMMBVCZZZCCBNmmmMMNBVCCVNmnmNVCCCBBBVVVVVVCVVVVCZAAAAZCVBNNBVCCCCZZZCBMbbmNCZASSSAZCVBBBVCCZZZZZZZZCVVVVVCZAAZCBNMmmMNBBBNMnnmMNBVVCCCCVNmmNBBBNMMNBCZASSAZVBMmmmnnbvcccvmBVCVBNMMMBVCZZZZZZZZZZCVVBBCZAAAZZZCCCCZZASZCBNNMMmmmMBVCAZCBmnnmNVCZZZAAZZCVBNMNVCCVBBBVZk",
"abmNVCZZZZZVBNNNNBBBNNMMMMNBVVCCVBBVZASAAZCCVBBVBBMnbbbbbbbbnMBVCCCVBBBBVVVVVCCCCCCCCZZZZCVBBNNBVCZZZZCVBBNNBVVCCZZCBNmmMMMMmmBCASAAAAAAZCVVVCZAAAAAZCVVCCVBMmmmMBVZZAAAASSSSAAZZAAAZVBMmbvvbMVZZAAASSDSSSAAZVNMMNVCASSSAASSDDDDSSZCVBVVCVBBVVCZAASAZZCCCVBMmmMBCZZZZCVNMMNNBBVCCCCBNMMNBVVNMmMBBBBNNNNBVCZASSSAZCVNMMNBVVVCZZZCNnccnNVZZAAAAACVBBBVCCCZZZZZZCVVVVVVCCZZCVNnvccvnmMNBNNNNNBVCCCCZCVNmmNBVVBBNBVCZAASSAZVBNMMmnbvxxcbNVZAZCBNMMNBVVCCCZZZZZZZCVVVCZAAAZZCCCCZZZAACBMmmmnbbbnMBCZZCVNMmMBCZZZZZZZCCVBBBVCZZCVVCCAk",
"abmNVCZZZZVBMmmmMNNMMMMMMNNNNBVVBNNBCZAAZCCCCVVVVBNMmnnbnnnnmNBCZZZCBNMNBVVVVVCZZZCZZAAAZCVBBBNBVCZAAZCVBNMMMNBVCCCCBNmmMNMMMMVZASSSSSAZZCBBBVCZAAAAZCVVCCVBMnbbnMBCZAAASSSSSAAZZZZZCVBMmbvvnMVZAAAASDDDDSSAZZCVBVCASSSSSAASSSSSSAZCVVCZZZZCZZZAASSAAAAZZCVNMmMBCZZZZCVBNNBBVVCCCCCVBNNNBBNmbbnMNBNMmmMNBCZAASAAZCVNmmNBBVVVCZCVNnccbMVCCCZZAZCVBBBVCCCZZZZZCVVBBBVVVCCCBNmvxllxvnmMBVVVVVCCCZZZZZVNmmNBCCVVBBVCZAAASAZCVBNNMmmnvcvnBZASAZVBNMMNBBVVVCCZZZZCVBBVCZAAZZCVCZZZZZZZVMnbnnbvccvnNVCZCVBNMNVCZZCCCCZCCVBBBVCZZZZZZZSl",
"snMBCZZZZCVNmnnnmMMMMMMNNNMMMMNBNMmMBVCZCCCCCCCVVBNNMmmmmmmmMBVCZAZCBMmMNBVCVVCZZZZZZAAAZCVBBBBBVCZAAZVBNmnnnmMBVCCCVBMMNNNNBVZASSSSAAZCCVBNNBCZAAAZCVBBCCCVMnvcvnMBCZAAAAAAAAZZCCCCCVNMMmmmNBZAASSSDDFDDSAAAZZCCCZASDDSSAAAAAAAAZCVBVCZAAZZCCZZAAAAAAAAAZCVBNBVCZZZZCVBNNBVVVCCCCCCVVBBNNmbccbnMMmnnbmMBVCZZZZZZCVNMMNNBBVVVVVBMnvvnMNBBBVCCVBBNBVCCZZZZZCCVBBBBBVVVVVBNmbxlkkzcbnMBCZZZZZZZAAAAZCVNNBVCCCCVCCZAAASAAZCVVVBBBBNmnmMVZSSAZVBNMmMMNNNBVCCCCVBNMNBVZZZZCBBCZAAAAACNmbvbbvczzcbMBVCCVBNNNVVCVBBBVCCCVBNBVCZAAAAZASl",
"dMNVCZZZZCVNmnnnmMNNMMNNBNNMmMNNNMnmNBVCVVVCCCCVVVBBNNNMmmMMBVVCZZZVNmmmNVCCCCZZAAZZZAAZCVBNBBBBVCZZZCVNmbvvvbmNVCCCVBNMMNNBVCAASSAAZZCVVBBNNBVCZZZCCVBBCZZVNncxcbmNBCZAAZCCCCZZCCCVVBNNNNNBVZASSSSDDDDDSSAAAAZCCCCZASSSSAZZCCZZCCVBBBCZAAZCVVCCZAZZZZZZAZZCVVVVCZZZZCCVVBVVVVCCCCCCCCVBBMnvxxcbnmnbbbnMNBVVVCVVVVBNMMNNBBVVBBNMMmbbnmMNNNBVBBNMMNVCZZZZCCVVBNBBBVVVBBBNMnvzkklzvbmNVZAAAAAAAAAAAZZCBBBBVCCCCCCZZAAAZZCCVVVVCCCVBNNBCASSAZVNMmmmMNNNBBVCCVBNmmMNVCZZCVNNVCASAAZVNnbvnnbcxzxbMBVCCCVBBBBVVVNNBVCZVBMMNNVCAAAZZASl",
"gVCCZAAZZZVBMmmmMNBBBNNNBBNMMMNBNMmmMBVVBBBVCCCCVBBBVBBNMMMNVCCCCCVBMmnmNVCZZZZAZZZCCCZCVBMMMMNNBVCCCVNmbcxxzcnNCZZZCBNmmMNVZASSSAZCCVBBBBBVVVCCCCVVVVVVCZZCNncxcvnmMBVCCVBNNBVCCCCVBBNNBVCZASDDDDDDDDDDSAAAAAZCVVVVCZASSAZVVVVVVVBNNBCZZZVBNNBVCZZCCCCCZZZZCCVCCCZZZZZZCCCVVVCCCCCCCCCVBNnvxxcvbnnnnnmMMNNNBNNNBBBNNNNBBBBBNMmmmmmmmmMMNNBBNMmmmNBCZZZCCCVNMMBVVCVVBBBNMnvxllxcbmNBCAASAAZZAAZZZZZCVBBNBBVVVVVVCZZZCVVBBBVCZZAZCVVVZASSACBMnnmMNBBBBVCCCVNMnnmNVCZZCBMMBVZAAZZVMmnnmmnbcccbMBVCCZCVBBBBVBNNVCZZVNnbnMNVZZZCCZAk",
"jZZZAAAZZCCVBNMMMNVVVVBBBBBNNNBVBBNMNBVVVBVVCCCVBBBVVVVBMMNBVCCCVBBNmmnMBVZZZZZZZCVVBBVBBNmmmmMNBVVCVVNmbcxzlxbNCAAZCBMnnmNVZASSSAZCVBNNBVVCCCCCCVBBVVVCZZZVNnvcvbnmmMBVVBMmmMBCCZCVBNMNBCASDDDDDSSSSSSAZZZZAAZVBNMMBVZAAAZVBBBVBBNNNBCCZCVNMMMNVCCCCCCCCZZZZZCCCCCCCCZZZZCCVVCCCCVVVCCVBNmbcxcvbnmmMMMMMMMMNNMMNBBBBBBBBNNNmnbbmMMMMMMNNNBNMmmmMNVCCCCCCVBNmMNVCCCVBBBNNmbvxcvbmNBCZASAZZCCZZZCCCCCVVBNNNBBBBNNVCCVBNNNNBVCZZAAZCVCZASAZVNmnnmMBVCCVVCCCVNMmmMNVCZZVBmmNBCZZZCVNMmmMMmnvvvbMNBVZZZZVVBBVBBBVCZZBMbvbnNVCCVVVVZk",
"kSSAAAZCCCCCVBNNNBCZCCBBBVVVVCZZZCVVVVCCCCVCCCCVNNBVCCCVNNNBVVVBNNNMmmmMBCZZZZZZCVBNMMMMMMmmnnmMNBVVVVBNMnvxzxbNCAAZVNnbbnNVZASSAACVVBBBVCZZZZZCVVBBVVVCCCVBMnbbnmmmmMNBVBMnnmNVCZCVNMMNVCASSDDDDSAAAZZCVVCZAZCBMnbbmNVZAAZCBBBBBNMMNBCCCVVNMMMNBVVVCCCZZZCCZZZZZCVVVCCCZZZZCCZCCVBNBVCVBNmnvvcvbnMNBBBBNNNNBBNNBBVVCCVBNMMmnbvvnmMMMNBBBBBNNMMNBVCCVVVVVBNmnmNVCCCVBBBBBNMmnbnmNBVZAAAZCVVVCCVVBBVCCVBNMMMNMMnnMNBNMMmMNBBVVCZZCCVCZAAACBMmnnmNVCZZCCCCCCVNNNBVCZZZCBmnMNVCCCCVBNMMMmmmbvvbmMBVZAAAZCVVVBBBVCZZBmvcvnMBVVNNNBVh",
"lDSSSACVVVCZZCVBBVCZZZVBBVCCZZAAAAZCCCCZZZZCZCVBMMNBCCCVBNNBVVBNNMMMMMMNBCZZZCVVVBNmnnmmMMMmmnmMBVVCCCVVBMnvxxnNCAAZVMnbbmNVZZAAAAZCVBBBVCZZZZZZCVBBVCCCCVBNMmmmMMMMMMNBBBMnbbMBCZCBNMMNVCASSSSSSSAZCCVBNNBCZZCBmbvbnMBCZZZCBBBBBNNNBVCCCVVBNMMNBVVVCCZZZZZCZZZZCVBBBBVVVCCZZZCCVBNNBVVVNMmmnbvvbnNBVCVBBBBVVVBBBVCCZZCVNMmnbvvvnMMNNBVVVVBBNBBVCCCCVVVVBNMmmmNVCZCVVVVVVVBNMmmMNVCZAAAZVBVVVVBNNNBVCCVBMmmmmnbbnmMMmnnMNBBBBBVVCVVVCZZZCBNMMMMBCZAZZCCCZZVVBBVVCCCCVNmnnMBVVCCCVBNMMmMmmnnnmMBVZAAAZCVVVBNBBCZCVMbvvnMNBBNMMMNg",
"lDSSAZVBBVCZZZCVVVZAAACVVVCZAASSSSAZCCZAAAAAAZCBMmMNVCCCBBBBBBNNMMNNNNNBVCZZCVNMMMmnbbnmMNNNMMNBVCCZZAAZZVNmvvnNCAACBMnnmMBCCZCZZAZCVBBBBVCZAAAAZCVVCCCCVBMmmMNNBBBNNNBBBBMnbbmBCZCBMmmMBCZAAAASSSAZVBNmnnMBCZVNmnbnmMNBCCCVVVVVVBBBVCZZCVVBNNNBVVVCCCZZZZZZZZZCVBMMNNNNNBVCCCVVBNNNBVBBMMmmnnbbbmNVCCVVBVCCZZCVVCCZAAZCBMmnnbbbmMNNBVCCCCVBVVCCZZZCVBVBBBNNMMNBCCCCCCCCZCCVNMMMBVCZAAZCVBBBBBNNNNBVCCCVNmnnnbvcvvbnbbnMNBBNNNNBVVBVVCCCCVBBBBVVZZAAZZZZAZCVVVVCCVVBBMnbbnMBVCZZCBNMmmMNNMMMMNBCZAAAZCVBBNNMNBCCVNmnbnMNBBMmmnmd",
"lSDSAZVVVVZZAZZCVVZASAZCCCZZAASSSSSAZZZAAAAAAZCBMmmMBVCCCVVVBBNMNNNNBBBVVVCCVBMmmmnnbbnMBBBBNBBVCZAASSDDSAVNmmMBCAAZVNMMNBCCCCVCZZAZVBNNNBCZAASAAZCCCZCVBNmmMNBVVVVBBNBBVBMnbbmBCZCBMmmMVCZZZZZAAAAZVNmnvbmNCCVNmnmmmMMNBVVBBVVCCCVVCZZZCCVVBBBVVCCCCCCCCZZZZZCVNMmmMMmmmMBCCCVBNNNBVVBBNMMMmmnnnMBVCCVVVVZAAAZCVVCZAAZCBNmmmnnnmMNNBVCZZZCVVCZAAAZCVVVVBNBBNNNBVCCCCCCZZZCCBNMMNVCZAAAZCBBBBBNMNNNBVCCVNMnnnbvcccvbvvnmNBBNNNNBVVBBBBVCCCVVCCCZZAAAAAAAAZCVBBVVBBNNNMnbvbmNVCZZCVBNMMNBBBBBBBVCZAAAZCVVBNMMMNVVVVNmnnmMBBNMmnns",
"lSSSAZCCCZZZZZCCVVCASSAZZZZZZZAAASAAZCZZAAAAAAZVMmnmMBCCZCCCVBNNNBBBBVVVVVCCVNmnnmmnnnMNVCVVVVZZASSDDDDDDSZCBNBVZAAZCVBNBVCCVVBVCZAZVBMMMNVCZASSAZCCCCVBNMmMNVCCCCVBBBBBBNMmbnMBCZCVMmMNVCCCVCCZAAAZVNmbvvmNVCVNMmMMMMMMNNNMNBVCZCCCZAAZZCCVBBVCZZZZCVBBVVCCCCBNmmmmmmnnnMBCCCBNMMNBCCCVBNNNMMMMMNVCCCVVVCZASACVNNBCZZZCVNMMMMmmMMNNNBCZZZZCCCZAAAZZCCVVBNBBBBNNVCCZZZCCZZZCVBMMBVZASSSAZCVVVNMMNNNBVCCCBNmmnnnbvvvvvvbnMNBBBBVVCVBNNNBVVCCCZZAAZZZZZZZZZCVNMMNNNMmmmmnnbbmNBCZZZCVBNNBVVCCVVVCZAZZZZZCVBNMmMNBBVVBMnbnmNBNMMMMd",
"lSSAAZZZAAAZZCCVBBCZASSAAAZZCVVVCZZZCCCCZZAAAAZCNmnnmNVZZAZCVBBBBVBVVCCCVVCCVBMmmMMMmMBVCZZZZZASSDDDFFFFDSAZCCCCZZZZCCVVCCZZVVBBCZAZVNMmMNBCZASSAAZCCVNMmnmMBCZZCVBBBBBBBBNMmmNBCZCVNMNNVVVVVVCCZZZZCBmnbnMNVVBNMMNNMMmmMMmmMNVCZZCZZAAZZCCCVVCZZAAZVBMMNBVVVBMmbbnmmnbbnMBCCCBNNNBVCZCCVBBBNNNNNBVCCCVBBVZAAACBMMNVCZZCVNMMMMMMMNNNMNVCZZZCCCZAAAZZZZCVBNBBBBNBBVCZCCVBVVCCVBNNBCASSSSAAZZCBNMMNBBBVCCCVBMmmMmmnnnnbbvbmMNBBBVCCCVBNNNBVCCCZZAAAAZCCCZZCVBNmmMMmmnnmmmnbbmMNVCCZZCVVBBVCCCCVVCCZZCCZZZCVBNMMMNBVVBNmnnmNBNNNNNf",
"lSSAAAAASSAZVVVBBBBVZAASAAACBNMMNBVVBBVVCZZAAAZCBMmnmMVZAAACVBVVCCCCCCCCCCCCCCBBBBBBBVCZAAAAAASDDDDFFFFDDDSAZZZZCCZZCCVCCZZZCVVVZAAZVNMMMNBVZASSSAAZCBmbcvnMBCZZCVBNNNNBVVVBNNBVCCCBNNNBBBBBVVCCCCZZCVMmmMBVVVBNNNBNMmmmmmmmmNVCZZCCZZZZZZZCCCCZAAACBMnbnmNBNMbvcvnmmmbbnMBCZCVBBBBVCCCCVVVVBNNNBVVCCCVBBBCZZZVNmmMBVCCVBNMMMMMMNNNNMMNBVCCVVCZAAAAAAZZCBNNNNNNNBVCCVBMmMNBVCCVVCZASSSAAAAZCBNNNVVVVCCCCVBNMMNNNNNNMmbccbmNBBBVVCCVVBNNBBVBBVCZAAZZVVVCCCVBMmmmmmmnnmmmmnnnnmNBVCZCCCVVVVVCVVVVVVVVVCZAAZCBNNNNBBVVBNMMNBBNBBVVh",
"lSAZZZASSSAZVVBBNNNBVZAAAAACNmbbmMNNNNNBVCZZAAZCBNmmmNVZAAZCVVVCZZCCCCCCCCCCZZCCCVCCCZZASSSSSSSSDDDFFFDDDDSSAAAZCCCCCVVCZZZZCCCZAAAZVBNMMNBVZASSSSAZCBnvxcbMBCZZCVNNMMNBCCCVVVVCCCVBBBBBBNNNNBVVBVCCCVNNNBVVVBNNNNBNMmmmmMmMMNVCZCCCCZZZZZZZZZZAAAZCBmvcvbMNMncxxcnMMMmnmMBCCCVVBBVVVVVVBBVVBNMMNBVCCVVBNNBVCCVNmmMNBVVBBNMMNNNNNNBNMMMNBBBVVVZAAAAAAAZCBNNMMNNBBBVBBMnbbmNVCCCCCZAAAZZZZZZCBBBBVCCCCCCCVBNMNNBVVVVVNnvcbmNBNNNBVVVVBNNNBBNNBVCZAZCVBVVCVVBMmmmmmmmmmmmmnnbbnmNBCCCCCVBBBBVVBNNNNNNBCZASAZVBNNNNBVVVBBBBBBNBVCCj",
"lAZCCCASDDSAZCVBMmmMBVCZAAACNnvcbnmmmmNBVCZZZZCVBNMMMNVZAACVBBVCZZZCCCCCCCCZZZZZCCCCZZASSSSSSSSASSDDDDDDDDSSSSAZCCCVVBBVCZZZZZAASSSACVBNNBVCZASSSSSACBnvxcbMBVCCCVNMmMNVCCCCVVVVVVBBBBVBNMnnMNNNNNBBBBBBVVVVNMMMNBBBMmmmMNNBBVCCCCVVVCCCZZAAAAAAAAZVNmvccbMMmbxzzcmNBBBNNBBVVVVVVVBBBBBBBBVVBNmmMNBVVVBNmmMNVCVBNMNNNNNNNNNNBBBBBBBBNMmmMMNBBVZASSSAAACVBNNMMMNBBBBNNmbcvbMBVCCCZZAZCVVBVVCVBBBVCCVVVCCCBNMmMMBVCZZCVMbbnMNNMmmMNBBBBNNMNNMMMBCZZZCVVVCCCVBMmmMMMMMMMMMmnbbbbnMBVCCVVBNNNNBNMMmmmmmMBZSSSACVNNMNBVCVVBBBVBNBVVCh",
"lACVVCZSSDSAZCVNmnnmMBVCZZZCNmvvbnnmmmMNBBVCCCVBNNMMNBVCZCVBNNVCZZCCCCVVCCCZZZAZCCCCZASSSSSSSAZZZASSSSSSSSSSSSAAZCCVBBBVCCZZAAASSSSAZCVVBBVCZASDDDSSZBmbvvnMBVCCCVNMMMBVCCCVVVVVVBNNNBVVNMnbnmmmmmMMMNBVCCVBMmmMBVVBMmmMNBVCCCCCCCVBBBVVVCZAASSSAZCVBMbbbnNNMbxzxbMVCCCVVBBBBBVVVBNMMMNNNBVVBMnnmNBVVVBMmnmMBVVVBNNNMMmMNNBBVVVVVVVVBMmmmMNBBVCAASSAAZVBBNMMMNBBBBBBNMbvvbMBVCCZZZZCVNMMMNBVBBBVVVBBBVVVBMmnnmBCZAAACBMmMNBNmnnnmMNBBNMMMMMMMNVCZZCCVVCCVBNMmmMNNNNMNNMMmnnbnmNBCCCCVBNMMMMMmnnnnnmMBCASSAZVBNNNVVVVVBBBVBBBBVVg",
"kACBNBCASSSAACVNmnmmNNBBVCCVNMnnnmmMmmMNMMNBVVBNMMmmMNVCVBMmnmNVVCVVVVVVVCZZZZZZCCVCZAASSSSAAZVVVCZAAAAAAASSSSAAZCCVBBBVVCCZZZAASSAAZZCCVCZZASDDDDDSZVNmmmMBVCZZCVBNNBCCCCVVVVVVVBNMNBVVNMnbbnbbbbbbbnMBVCVNmnmMBVVBMmMNBCZZZZCCCVBNMMNNBBCZASSSAZCVVBNMNNVBNmvcbmVZAAAZCVBNNNBVBNmnnmMNBBVVBMbbnMBVCCVNmnnmNVVVBBBNMmnmMNVCZZZCCCCVBNMmMMNBVVCZAAAAZVBNMMMMMNVVVVVVVNmnbnMNBVCCZZZCBmbbbmNBBBBBBNMMMNBNNmbvvnNCASSSACBBBBVBMnbbnmMNNNNNNNMMNNVCZZZCCVVVBNMmmmNNNNNMNNNNNNMMMNBVZZZCCBNMmmmmnnbbnmmNVZASSAZCBNNBVCVVBBBBBVVBBNMd",
"lACBNNVZASAAZCBMnnmMNNNNBVVBNNMMMNNNMMMMmnnnMNNNMmnnMNBVBMnvvbmNBVVBBBBBVCZZAAAZCCVVCZAAAAAZCCVBBVCCZZZZZAASSAAZCVVVBBBVCCCCCCZZAAAZZZCCCCZASSDDDDDSACBNMNBVCCZCVVBVVCZZZCVVVVVVBNMMMNBBBMnnnnnnbbbvvbmNVVBNmnmMBVVBNMNBVZAAAZCVVVNMmmMMMMNVZASSAZCCCCCCCCCCBMnnMNCASSSAZCBNMNBBBMnbnmMBBVVVNmbvnMBVCCVNmnnmNVCCVBBNMmnnmNVCZAAZCCVBNMMMMNBVVVCZAAZZCBNMMmmMNBVCCCCCCBMmnmMNNBVCZAZCMncxcbMNBBBBNMmmMMNNMmbvbmBCASDSSACVVVVBMnbvbnMNBBBBNNNNMNNBCCZCCVVBBNmmmMNNMMMMMNBBBBBBBBVCZAAZZVNMmmnnbbbnmMNBCZAAAZCVBNBVCCCVBNNBVVVVBNms",
"lACBNNVZAAZZCVNmbbmMNNNNBBBBNBBBVVVBBNMmbvxcvnMMmnnnmMNNMnvxzcnMNBBNNNNNBVCZAAAAZCVVVCZZZZCVBBBBVVVCCCCCZZAAAZCVVBBBBBBVCZCCVBVCZZZCCCCCCCZASSDDDDDSZCVBBBBVCCCVVBVCZZAZZZCCCCCVNMnnnMNBBBNMMMMMMmnbvbmNVVVBNMNBBBBBBBVCZZAAAZCCVBNMmmmmnnmNVZSSSAZZAAAAAAAZVBNNBVCASSSSAZVNMMNNNmnbnmNBVCCVNmvcbmNVCCVBmnnMBVCCVVBBMmmmmMBVZAAAZVBNmmmMNNBVVCCZZZCVBNMmmmmMNBCCCCZCCVNmnnmMNNBCZAZBmvxzxvmNBBNNMmmmMNBBNMnnmNVZSDDSSAZCCVVBMmbvvnMBVCVVBNNMMmmMBVCCVVBBBBMMMMMMnnnmMNBVCCVVVVCCZASSAZVNmnnbbbnnMNVCZZZZZCCVBBVCZZCVBBNBVVCVBMms",
"lAZVBBVCZAZCCBMmbnMNBBNBBBBBBBVCCCVVBNMmbczzxvnMMmnnmMNMmbxzlxbMNBBNNNMNBVCZAAAAZCVVBVCCCVBNNNBVVVVVCCVVCCZZCCVBBBBBBBVCZZZVBBVCZZCCVVVCCCZAASSSDSSACCVVBBVVCCVBBVCZAAAZZCCCZZCVNmbbnmNBVVBBBBBBNNmnbnMBVVBBBBBBBBNNBVCCZZAAAZCVVBNNMMMmbbbmBCASSAAASSSSSSAZCVBBVCCZASSSSZCBNMMMMmnbnmNVCCCVNmvvbnMBVCVBmmmMBCCCCVBNMMmmmMNVZAAAZVNMnnmMNBBVVVCZZCCVBNMmmmmMNVCCCCCCCVBMmnmmMNBCZAZBnczlzvmNBBNMmmmMNBVVBNMMNBCASSSAZZCCCCVVNmnbbnMBCZZCVBNMmnbnNBCCVVVVVVBNBNNmnbnmNBVCCCCCVVVCZASSSACBMnnbbbnmMBCZZZZCCCVBNBVCZZCVBNBBVCCVNMMd",
"lAZCVVCZAAZCVBMmnmNBVVVVCCVVVVCCCCVVBNMnbvzzzcnMNNMMMMMmnbxzlzbMBVBBNMMNBVVCZASAAZVBNNBBBNmnmMBVCCCCCVBBBVVVBBBBBVVVVCCZAAZCBBVCZZCVBBVVCZZZZZAASAZCVBVVVVVVVVBBBVZAAAAZCVVCZZCVNmbbnmNVVVVVVVVVBBNMMMBBVBBBBVVVBMmmNBCCZZZZZCVBBBBBBBBNnbvbMVZAAAAAASSSSAAZCVBBVVVCZSSDSAZCBNMMmnnnmMBVCCCVNmbbnnmMBVBNmmmNBVCCVBBNMmMMMMNNCZAAZVNmnmMBBBBBBVCCCCCVVBNMMMmMBVCCVVVVVVBNMmmmMNBCZACBnczlxvmNBBNMmmMNBVCCCVVVCCZAZZZCVBVVCCCVBNMmnmMBCAAAZVBMnbvbmBCZZZZZZZCCVBNMnnmNBCZZZCCCVVBVCASDDSZBMmnnbnnmMBCZAAZCCVBNNNBCZZVBNMNBVCCVNNNf",
"kAZCCCZZAZZCVBNMmMBVCCCCCCCVVVVVBBVVVBNmmbvccvnMBBNNNMMmnvxzlxbNVCVNMmmMBVVCZAAAZCVBNNNNNMnbnMBVCZCCVVBNNNNNNNNBBVCCCCZASAZCVVCZAACVNNBVCZCVVVCZZCBNMMBVCCCVVBBBVCZSSSAZCVVVCZCVNmbvbnNBBBVVVCVVBNMMMNBVBNMNNBVVNmbbmMVCCZZZZVBNMNBVCCCVMbccmNCZZZZZASSSAAZCVBBBBVVCZSDDDSAZVBNMnnbbnMNBVCCVNMmmmmmMBBBNMmMNBVVBBNNMmmMNNNNNVCZAZCNMmMBVVVNNMNBVCCCCVVBNNMMNVCZZVBBBVVVVNMMMMNVCAAZBnczzxvmNBBNMMMMNVCZAZZZZZZZZCVBNMmMBVCCCVBNMnnmNCASSAZVNmbcvmBCZAAAASAAZZCBNmMNVCZAAZZCVVBNBCASDFDACNMmmmmmMNBCZAAZCCVBNMNVCZZVNMMNVCZCCBBVh",
"jCVVCCZZZZCCVBNNNBVCZZZZZCCVBBNNMMNVCCVBNMmmnmMNVVVBBNMmnvxzzxnNCZVNnbbmNBVCZAAAZCVVBNBNNMnnmNVCCCCCVVBNMMmmMNNBBVCCZZAASSAZCCZASSCVNNBCZZVBMMNBVBmbcbMVCZZCVVVVCZSSDSAZCVBBVCCVNmbcvbmMMNBBVVBBMmmmMNBBMmmmNNVBNncxvnNVCZZZCVMmnmBCZAACNnxxbMVCCCVCZASSAZVBBNNNBVCZASDDDSAZCVBMnvcvbnmNBVCVBNNNNNNNBBBBNMNNNNNNNMMmnnMBVVBBBVZAAZVBBVCCCBMnnnmNBVCCCCVBBNNBCZZZCVNNVCZZCVVBBVVCAAZVmvxxcbnMBBBNMMMNVCASSSAASAZVNMmnvvnMBCZZZCBMbvbmVZSDSAZVMnvbMBZAASSSDDSAAZCVBBCZASSAAZCVBNNBCADFFDSZCVBBNNNNBVZZAZZCCVBNNNVCZZVNmmNVZAAZCCZj"
};
